Luts/panasonic/(晴天薄荷）Sunny Mint-port.cube
TITLE "Generated by LUMIX Lab"
#LUMIXPHOTOSTYLE PORT
LUT_3D_SIZE 33
0.031373 0.027451 0.050980
0.035294 0.027451 0.054902
0.031373 0.031373 0.062745
0.039216 0.039216 0.066667
0.047059 0.047059 0.070588
0.054902 0.058824 0.074510
0.070588 0.062745 0.086275
0.086275 0.062745 0.090196
0.101961 0.066667 0.086275
0.117647 0.074510 0.090196
0.133333 0.078431 0.090196
0.188235 0.082353 0.094118
0.258824 0.078431 0.086275
0.325490 0.082353 0.090196
0.400000 0.086275 0.082353
0.482353 0.086275 0.082353
0.556863 0.090196 0.074510
0.619608 0.086275 0.074510
0.709804 0.086275 0.078431
0.756863 0.098039 0.058824
0.807843 0.098039 0.058824
0.843137 0.101961 0.054902
0.866667 0.101961 0.054902
0.894118 0.101961 0.054902
0.921569 0.109804 0.050980
0.941176 0.105882 0.047059
0.976471 0.113725 0.054902
0.996078 0.113725 0.050980
0.992157 0.113725 0.043137
1.000000 0.121569 0.039216
0.996078 0.125490 0.039216
0.988235 0.125490 0.047059
0.992157 0.133333 0.043137
0.039216 0.039216 0.066667
0.039216 0.039216 0.066667
0.039216 0.043137 0.070588
0.043137 0.047059 0.074510
0.050980 0.054902 0.078431
0.058824 0.062745 0.082353
0.070588 0.070588 0.090196
0.082353 0.074510 0.094118
0.101961 0.078431 0.098039
0.117647 0.082353 0.094118
0.149020 0.086275 0.094118
0.196078 0.090196 0.086275
0.258824 0.090196 0.090196
0.325490 0.094118 0.086275
0.403922 0.098039 0.082353
0.482353 0.098039 0.078431
0.556863 0.101961 0.074510
0.623529 0.101961 0.066667
0.694118 0.101961 0.066667
0.760784 0.109804 0.058824
0.807843 0.109804 0.050980
0.839216 0.113725 0.050980
0.850980 0.113725 0.047059
0.886275 0.113725 0.047059
0.898039 0.121569 0.050980
0.929412 0.121569 0.047059
0.960784 0.125490 0.043137
0.992157 0.125490 0.039216
1.000000 0.125490 0.039216
1.000000 0.133333 0.039216
1.000000 0.137255 0.039216
1.000000 0.137255 0.043137
1.000000 0.149020 0.050980
0.047059 0.054902 0.082353
0.047059 0.054902 0.082353
0.047059 0.054902 0.082353
0.050980 0.058824 0.082353
0.050980 0.062745 0.086275
0.062745 0.070588 0.090196
0.074510 0.078431 0.098039
0.090196 0.082353 0.101961
0.113725 0.086275 0.105882
0.129412 0.090196 0.101961
0.164706 0.094118 0.094118
0.211765 0.098039 0.098039
0.266667 0.101961 0.098039
0.333333 0.105882 0.082353
0.403922 0.109804 0.086275
0.478431 0.109804 0.082353
0.560784 0.113725 0.082353
0.631373 0.117647 0.078431
0.690196 0.117647 0.062745
0.752941 0.121569 0.062745
0.792157 0.129412 0.054902
0.823529 0.133333 0.050980
0.839216 0.137255 0.047059
0.866667 0.137255 0.047059
0.886275 0.141176 0.050980
0.909804 0.145098 0.047059
0.941176 0.152941 0.047059
0.976471 0.152941 0.050980
1.000000 0.164706 0.054902
1.000000 0.164706 0.054902
1.000000 0.164706 0.054902
1.000000 0.168627 0.058824
0.996078 0.184314 0.066667
0.043137 0.070588 0.086275
0.043137 0.070588 0.086275
0.050980 0.070588 0.086275
0.050980 0.070588 0.086275
0.054902 0.074510 0.090196
0.066667 0.082353 0.094118
0.086275 0.094118 0.101961
0.109804 0.101961 0.101961
0.129412 0.105882 0.098039
0.156863 0.117647 0.094118
0.196078 0.117647 0.098039
0.247059 0.125490 0.094118
0.298039 0.121569 0.086275
0.368627 0.129412 0.078431
0.431373 0.141176 0.078431
0.494118 0.149020 0.074510
0.584314 0.141176 0.070588
0.631373 0.152941 0.066667
0.694118 0.160784 0.062745
0.749020 0.168627 0.054902
0.784314 0.184314 0.054902
0.807843 0.184314 0.050980
0.843137 0.184314 0.047059
0.854902 0.188235 0.054902
0.878431 0.188235 0.054902
0.898039 0.196078 0.050980
0.925490 0.200000 0.050980
0.964706 0.203922 0.054902
0.984314 0.211765 0.054902
1.000000 0.215686 0.058824
1.000000 0.231373 0.066667
0.996078 0.235294 0.062745
0.992157 0.243137 0.062745
0.047059 0.101961 0.101961
0.050980 0.101961 0.101961
0.050980 0.105882 0.101961
0.058824 0.109804 0.101961
0.062745 0.117647 0.101961
0.074510 0.121569 0.105882
0.101961 0.133333 0.109804
0.125490 0.129412 0.098039
0.152941 0.145098 0.098039
0.180392 0.145098 0.090196
0.227451 0.152941 0.086275
0.286275 0.156863 0.082353
0.341176 0.156863 0.078431
0.407843 0.168627 0.078431
0.470588 0.180392 0.074510
0.521569 0.184314 0.070588
0.615686 0.188235 0.062745
0.666667 0.196078 0.062745
0.709804 0.207843 0.062745
0.752941 0.215686 0.058824
0.788235 0.223529 0.058824
0.807843 0.231373 0.058824
0.843137 0.235294 0.054902
0.847059 0.239216 0.058824
0.882353 0.239216 0.058824
0.905882 0.243137 0.054902
0.929412 0.250980 0.050980
0.952941 0.250980 0.058824
0.964706 0.270588 0.058824
0.988235 0.274510 0.058824
1.000000 0.301961 0.058824
1.000000 0.290196 0.054902
0.996078 0.309804 0.058824
0.050980 0.152941 0.113725
0.050980 0.152941 0.113725
0.058824 0.152941 0.113725
0.066667 0.156863 0.113725
0.070588 0.160784 0.113725
0.086275 0.168627 0.117647
0.113725 0.176471 0.121569
0.133333 0.176471 0.101961
0.172549 0.180392 0.090196
0.207843 0.184314 0.086275
0.250980 0.188235 0.078431
0.309804 0.192157 0.074510
0.368627 0.200000 0.070588
0.431373 0.200000 0.066667
0.501961 0.219608 0.066667
0.572549 0.227451 0.062745
0.643137 0.235294 0.058824
0.690196 0.243137 0.058824
0.709804 0.258824 0.058824
0.749020 0.262745 0.058824
0.784314 0.270588 0.062745
0.807843 0.278431 0.062745
0.827451 0.286275 0.066667
0.854902 0.286275 0.070588
0.874510 0.290196 0.066667
0.898039 0.294118 0.066667
0.925490 0.305882 0.062745
0.956863 0.305882 0.066667
0.972549 0.321569 0.066667
0.988235 0.352941 0.054902
1.000000 0.360784 0.062745
0.996078 0.360784 0.066667
1.000000 0.372549 0.066667
0.047059 0.200000 0.121569
0.050980 0.203922 0.125490
0.050980 0.203922 0.125490
0.054902 0.207843 0.125490
0.066667 0.211765 0.125490
0.086275 0.215686 0.129412
0.113725 0.215686 0.133333
0.141176 0.219608 0.113725
0.184314 0.223529 0.094118
0.223529 0.227451 0.086275
0.278431 0.235294 0.082353
0.325490 0.235294 0.066667
0.392157 0.239216 0.058824
0.462745 0.247059 0.054902
0.533333 0.254902 0.050980
0.607843 0.270588 0.050980
0.666667 0.278431 0.050980
0.698039 0.290196 0.050980
0.713726 0.301961 0.054902
0.749020 0.309804 0.066667
0.784314 0.317647 0.070588
0.815686 0.329412 0.066667
0.839216 0.337255 0.066667
0.862745 0.341176 0.070588
0.874510 0.352941 0.074510
0.898039 0.356863 0.070588
0.925490 0.368627 0.074510
0.949020 0.368627 0.082353
0.984314 0.376471 0.070588
0.992157 0.400000 0.070588
0.992157 0.411765 0.078431
1.000000 0.419608 0.074510
1.000000 0.427451 0.066667
0.062745 0.250980 0.113725
0.050980 0.254902 0.117647
0.043137 0.254902 0.121569
0.043137 0.258824 0.125490
0.062745 0.262745 0.133333
0.082353 0.266667 0.137255
0.113725 0.262745 0.145098
0.152941 0.266667 0.137255
0.196078 0.274510 0.105882
0.243137 0.274510 0.086275
0.294118 0.282353 0.074510
0.345098 0.274510 0.062745
0.411765 0.286275 0.058824
0.470588 0.294118 0.047059
0.549020 0.298039 0.039216
0.623529 0.301961 0.039216
0.662745 0.321569 0.039216
0.701961 0.329412 0.043137
0.721569 0.349020 0.050980
0.752941 0.356863 0.058824
0.792157 0.364706 0.066667
0.803922 0.380392 0.070588
0.823529 0.388235 0.070588
0.862745 0.396078 0.078431
0.882353 0.407843 0.082353
0.905882 0.419608 0.078431
0.925490 0.423529 0.074510
0.956863 0.431373 0.078431
0.988235 0.423529 0.078431
1.000000 0.450980 0.082353
0.992157 0.443137 0.078431
0.980392 0.478431 0.070588
0.992157 0.486275 0.082353
0.047059 0.305882 0.101961
0.043137 0.305882 0.105882
0.039216 0.309804 0.109804
0.031373 0.313726 0.121569
0.043137 0.317647 0.129412
0.066667 0.321569 0.141176
0.098039 0.317647 0.152941
0.145098 0.317647 0.152941
0.196078 0.325490 0.137255
0.243137 0.329412 0.101961
0.301961 0.333333 0.078431
0.364706 0.333333 0.062745
0.427451 0.337255 0.050980
0.494118 0.337255 0.039216
0.549020 0.352941 0.050980
0.615686 0.352941 0.039216
0.654902 0.372549 0.035294
0.709804 0.372549 0.039216
0.733333 0.380392 0.047059
0.752941 0.392157 0.058824
0.788235 0.407843 0.062745
0.811765 0.423529 0.058824
0.831373 0.427451 0.070588
0.854902 0.450980 0.070588
0.886275 0.458824 0.070588
0.913725 0.447059 0.078431
0.933333 0.478431 0.082353
0.952941 0.478431 0.082353
0.992157 0.478431 0.074510
0.992157 0.486275 0.090196
0.992157 0.486275 0.086275
0.996078 0.498039 0.086275
0.992157 0.501961 0.090196
0.031373 0.345098 0.098039
0.027451 0.349020 0.098039
0.027451 0.356863 0.101961
0.019608 0.364706 0.113725
0.023529 0.368627 0.121569
0.050980 0.372549 0.133333
0.082353 0.372549 0.152941
0.125490 0.368627 0.160784
0.180392 0.376471 0.156863
0.235294 0.384314 0.137255
0.301961 0.380392 0.098039
0.368627 0.384314 0.070588
0.435294 0.388235 0.066667
0.498039 0.392157 0.058824
0.564706 0.396078 0.047059
0.619608 0.396078 0.031373
0.674510 0.392157 0.023529
0.690196 0.411765 0.043137
0.717647 0.423529 0.058824
0.733333 0.443137 0.070588
0.752941 0.450980 0.078431
0.811765 0.458824 0.058824
0.835294 0.462745 0.066667
0.850980 0.478431 0.070588
0.886275 0.490196 0.074510
0.921569 0.482353 0.078431
0.941176 0.498039 0.078431
0.960784 0.498039 0.078431
0.984314 0.501961 0.082353
0.996078 0.505882 0.094118
0.996078 0.505882 0.094118
1.000000 0.513726 0.082353
0.992157 0.517647 0.086275
0.011765 0.384314 0.086275
0.011765 0.392157 0.086275
0.015686 0.400000 0.090196
0.011765 0.411765 0.094118
0.011765 0.419608 0.105882
0.027451 0.427451 0.117647
0.043137 0.423529 0.137255
0.109804 0.423529 0.156863
0.156863 0.423529 0.164706
0.203922 0.431373 0.160784
0.266667 0.435294 0.137255
0.349020 0.427451 0.094118
0.435294 0.431373 0.078431
0.505882 0.435294 0.074510
0.560784 0.450980 0.070588
0.615686 0.435294 0.054902
0.666667 0.439216 0.047059
0.694118 0.435294 0.047059
0.713726 0.450980 0.050980
0.741176 0.462745 0.058824
0.764706 0.466667 0.070588
0.800000 0.486275 0.050980
0.815686 0.490196 0.074510
0.843137 0.501961 0.066667
0.886275 0.505882 0.062745
0.898039 0.517647 0.066667
0.925490 0.517647 0.070588
0.952941 0.521569 0.074510
0.988235 0.517647 0.082353
0.996078 0.541176 0.090196
0.996078 0.529412 0.086275
0.996078 0.529412 0.086275
0.996078 0.541176 0.090196
0.011765 0.419608 0.074510
0.011765 0.423529 0.074510
0.003922 0.431373 0.078431
0.000000 0.447059 0.090196
0.000000 0.450980 0.105882
0.003922 0.454902 0.117647
0.031373 0.454902 0.129412
0.078431 0.462745 0.149020
0.125490 0.454902 0.160784
0.184314 0.470588 0.168627
0.254902 0.466667 0.164706
0.337255 0.458824 0.117647
0.423529 0.458824 0.086275
0.494118 0.474510 0.086275
0.549020 0.478431 0.082353
0.600000 0.482353 0.078431
0.666667 0.474510 0.070588
0.701961 0.478431 0.066667
0.721569 0.478431 0.054902
0.749020 0.486275 0.054902
0.780392 0.486275 0.062745
0.811765 0.498039 0.066667
0.827451 0.501961 0.074510
0.850980 0.517647 0.054902
0.886275 0.529412 0.054902
0.905882 0.537255 0.066667
0.917647 0.545098 0.070588
0.925490 0.541176 0.074510
0.984314 0.556863 0.074510
0.996078 0.568627 0.086275
0.992157 0.572549 0.094118
0.992157 0.572549 0.094118
0.988235 0.580392 0.094118
0.007843 0.447059 0.078431
0.003922 0.450980 0.078431
0.007843 0.454902 0.078431
0.007843 0.466667 0.082353
0.003922 0.470588 0.098039
0.003922 0.478431 0.113725
0.015686 0.482353 0.129412
0.054902 0.486275 0.145098
0.117647 0.486275 0.160784
0.176471 0.490196 0.172549
0.243137 0.494118 0.180392
0.313726 0.490196 0.152941
0.388235 0.490196 0.109804
0.462745 0.501961 0.090196
0.521569 0.501961 0.098039
0.592157 0.501961 0.098039
0.643137 0.509804 0.094118
0.690196 0.513726 0.086275
0.713726 0.509804 0.070588
0.733333 0.529412 0.066667
0.764706 0.521569 0.062745
0.807843 0.517647 0.062745
0.831373 0.525490 0.066667
0.858824 0.533333 0.070588
0.886275 0.545098 0.074510
0.901961 0.556863 0.062745
0.933333 0.564706 0.062745
0.933333 0.572549 0.066667
0.972549 0.580392 0.074510
0.992157 0.576471 0.078431
0.988235 0.596078 0.090196
0.992157 0.584314 0.101961
1.000000 0.603922 0.098039
0.003922 0.474510 0.082353
0.000000 0.478431 0.094118
0.003922 0.482353 0.082353
0.003922 0.486275 0.082353
0.003922 0.494118 0.090196
0.003922 0.501961 0.109804
0.019608 0.501961 0.125490
0.043137 0.505882 0.137255
0.082353 0.513726 0.152941
0.145098 0.521569 0.164706
0.227451 0.521569 0.180392
0.301961 0.521569 0.180392
0.356863 0.533333 0.152941
0.450980 0.529412 0.109804
0.501961 0.525490 0.098039
0.584314 0.529412 0.105882
0.635294 0.537255 0.109804
0.682353 0.556863 0.109804
0.713726 0.545098 0.101961
0.729412 0.556863 0.094118
0.760784 0.545098 0.078431
0.792157 0.537255 0.066667
0.827451 0.556863 0.062745
0.862745 0.556863 0.070588
0.874510 0.564706 0.074510
0.909804 0.576471 0.074510
0.933333 0.576471 0.047059
0.929412 0.596078 0.066667
0.968627 0.607843 0.074510
0.992157 0.603922 0.074510
0.992157 0.596078 0.082353
1.000000 0.603922 0.098039
1.000000 0.603922 0.098039
0.027451 0.505882 0.086275
0.007843 0.505882 0.086275
0.007843 0.505882 0.090196
0.000000 0.509804 0.086275
0.011765 0.513726 0.090196
0.011765 0.517647 0.105882
0.007843 0.521569 0.121569
0.015686 0.533333 0.137255
0.066667 0.537255 0.152941
0.133333 0.549020 0.156863
0.200000 0.549020 0.176471
0.278431 0.556863 0.188235
0.341176 0.568627 0.184314
0.427451 0.564706 0.137255
0.486275 0.568627 0.113725
0.568627 0.576471 0.113725
0.619608 0.580392 0.125490
0.682353 0.580392 0.125490
0.713726 0.584314 0.121569
0.741176 0.580392 0.121569
0.764706 0.580392 0.109804
0.788235 0.588235 0.094118
0.827451 0.580392 0.074510
0.862745 0.580392 0.078431
0.862745 0.588235 0.074510
0.909804 0.580392 0.082353
0.921569 0.592157 0.062745
0.941176 0.592157 0.043137
0.956863 0.623529 0.070588
0.996078 0.603922 0.078431
0.992157 0.623529 0.090196
0.992157 0.627451 0.086275
0.992157 0.623529 0.098039
0.039216 0.533333 0.090196
0.019608 0.533333 0.090196
0.007843 0.537255 0.090196
0.003922 0.541176 0.090196
0.000000 0.541176 0.090196
0.000000 0.545098 0.105882
0.003922 0.549020 0.121569
0.015686 0.556863 0.137255
0.050980 0.560784 0.152941
0.109804 0.568627 0.160784
0.180392 0.580392 0.172549
0.254902 0.592157 0.192157
0.329412 0.600000 0.200000
0.415686 0.600000 0.156863
0.486275 0.596078 0.125490
0.564706 0.600000 0.129412
0.627451 0.603922 0.137255
0.682353 0.603922 0.141176
0.721569 0.607843 0.141176
0.749020 0.607843 0.141176
0.768627 0.607843 0.137255
0.792157 0.615686 0.121569
0.823529 0.607843 0.105882
0.831373 0.615686 0.094118
0.866667 0.603922 0.090196
0.905882 0.592157 0.082353
0.913725 0.611765 0.086275
0.933333 0.600000 0.054902
0.949020 0.627451 0.074510
0.988235 0.627451 0.074510
0.992157 0.643137 0.090196
0.988235 0.639216 0.086275
0.984314 0.635294 0.094118
0.003922 0.560784 0.094118
0.007843 0.560784 0.098039
0.000000 0.560784 0.094118
0.000000 0.568627 0.094118
0.003922 0.572549 0.094118
0.007843 0.572549 0.109804
0.011765 0.576471 0.121569
0.019608 0.580392 0.137255
0.047059 0.584314 0.152941
0.086275 0.592157 0.156863
0.156863 0.600000 0.172549
0.235294 0.615686 0.192157
0.317647 0.623529 0.207843
0.400000 0.627451 0.192157
0.486275 0.615686 0.156863
0.572549 0.615686 0.141176
0.615686 0.627451 0.149020
0.666667 0.623529 0.156863
0.713726 0.627451 0.160784
0.749020 0.627451 0.164706
0.776471 0.627451 0.164706
0.796078 0.635294 0.156863
0.823529 0.631373 0.137255
0.843137 0.631373 0.125490
0.882353 0.619608 0.113725
0.901961 0.619608 0.105882
0.917647 0.627451 0.098039
0.933333 0.623529 0.086275
0.972549 0.611765 0.054902
0.988235 0.639216 0.078431
0.996078 0.647059 0.094118
0.992157 0.647059 0.098039
0.996078 0.647059 0.094118
0.019608 0.588235 0.094118
0.019608 0.588235 0.094118
0.019608 0.592157 0.094118
0.015686 0.596078 0.094118
0.011765 0.596078 0.098039
0.011765 0.600000 0.109804
0.019608 0.603922 0.121569
0.031373 0.607843 0.137255
0.039216 0.611765 0.149020
0.066667 0.619608 0.156863
0.137255 0.623529 0.172549
0.207843 0.631373 0.192157
0.301961 0.639216 0.211765
0.392157 0.643137 0.215686
0.454902 0.639216 0.207843
0.549020 0.635294 0.172549
0.619608 0.627451 0.168627
0.647059 0.639216 0.176471
0.698039 0.643137 0.184314
0.749020 0.647059 0.188235
0.776471 0.654902 0.192157
0.803922 0.654902 0.188235
0.835294 0.654902 0.176471
0.858824 0.647059 0.160784
0.847059 0.647059 0.145098
0.878431 0.643137 0.129412
0.917647 0.647059 0.129412
0.933333 0.639216 0.105882
0.968627 0.627451 0.082353
0.980392 0.647059 0.054902
0.992157 0.654902 0.094118
0.996078 0.654902 0.098039
0.996078 0.658824 0.101961
0.000000 0.619608 0.098039
0.000000 0.619608 0.098039
0.000000 0.619608 0.098039
0.000000 0.619608 0.098039
0.000000 0.619608 0.098039
0.015686 0.623529 0.109804
0.003922 0.623529 0.125490
0.003922 0.627451 0.141176
0.031373 0.635294 0.149020
0.054902 0.639216 0.152941
0.113725 0.643137 0.168627
0.176471 0.654902 0.188235
0.262745 0.658824 0.207843
0.352941 0.662745 0.223529
0.435294 0.666667 0.231373
0.541176 0.647059 0.200000
0.611765 0.650980 0.192157
0.666667 0.639216 0.196078
0.686275 0.658824 0.200000
0.721569 0.662745 0.211765
0.756863 0.674510 0.215686
0.803922 0.678431 0.215686
0.823529 0.686275 0.211765
0.827451 0.686275 0.200000
0.862745 0.678431 0.184314
0.886275 0.674510 0.160784
0.913725 0.666667 0.160784
0.921569 0.666667 0.137255
0.960784 0.658824 0.121569
0.968627 0.670588 0.090196
1.000000 0.682353 0.098039
0.996078 0.686275 0.098039
0.996078 0.686275 0.098039
0.011765 0.639216 0.101961
0.011765 0.639216 0.101961
0.011765 0.639216 0.101961
0.015686 0.635294 0.101961
0.011765 0.639216 0.105882
0.011765 0.643137 0.113725
0.000000 0.643137 0.125490
0.000000 0.650980 0.141176
0.003922 0.654902 0.149020
0.035294 0.670588 0.160784
0.094118 0.674510 0.176471
0.168627 0.678431 0.192157
0.243137 0.701961 0.207843
0.325490 0.705882 0.227451
0.431373 0.694118 0.243137
0.498039 0.686275 0.250980
0.541176 0.682353 0.266667
0.619608 0.674510 0.235294
0.662745 0.686275 0.231373
0.690196 0.694118 0.231373
0.741176 0.694118 0.239216
0.784314 0.701961 0.243137
0.811765 0.713726 0.247059
0.847059 0.717647 0.239216
0.870588 0.717647 0.227451
0.886275 0.717647 0.207843
0.917647 0.713726 0.196078
0.933333 0.705882 0.180392
0.949020 0.705882 0.160784
0.980392 0.694118 0.129412
0.976471 0.709804 0.113725
0.992157 0.713726 0.113725
1.000000 0.698039 0.062745
0.094118 0.666667 0.109804
0.039216 0.666667 0.109804
0.023529 0.666667 0.109804
0.007843 0.666667 0.109804
0.000000 0.666667 0.109804
0.000000 0.666667 0.121569
0.000000 0.670588 0.133333
0.011765 0.678431 0.145098
0.003922 0.698039 0.152941
0.035294 0.705882 0.164706
0.074510 0.725490 0.180392
0.145098 0.725490 0.196078
0.223529 0.729412 0.211765
0.305882 0.741176 0.231373
0.407843 0.733333 0.250980
0.474510 0.729412 0.266667
0.517647 0.725490 0.294118
0.584314 0.725490 0.305882
0.619608 0.721569 0.313726
0.643137 0.725490 0.313726
0.717647 0.721569 0.266667
0.764706 0.733333 0.270588
0.811765 0.745098 0.274510
0.831373 0.752941 0.274510
0.858824 0.752941 0.266667
0.882353 0.749020 0.250980
0.913725 0.752941 0.239216
0.925490 0.745098 0.223529
0.937255 0.745098 0.203922
0.976471 0.737255 0.176471
0.992157 0.733333 0.156863
0.992157 0.737255 0.152941
0.996078 0.737255 0.113725
0.043137 0.709804 0.113725
0.023529 0.713726 0.113725
0.011765 0.709804 0.113725
0.011765 0.705882 0.113725
0.011765 0.705882 0.113725
0.015686 0.705882 0.117647
0.003922 0.705882 0.129412
0.003922 0.721569 0.145098
0.011765 0.733333 0.156863
0.027451 0.741176 0.168627
0.074510 0.749020 0.180392
0.137255 0.749020 0.192157
0.200000 0.756863 0.211765
0.282353 0.764706 0.231373
0.376471 0.772549 0.250980
0.474510 0.764706 0.270588
0.517647 0.756863 0.301961
0.572549 0.760784 0.325490
0.623529 0.756863 0.345098
0.635294 0.756863 0.352941
0.686275 0.756863 0.329412
0.749020 0.749020 0.294118
0.788235 0.760784 0.305882
0.839216 0.772549 0.313726
0.882353 0.780392 0.309804
0.886275 0.788235 0.298039
0.901961 0.788235 0.286275
0.921569 0.792157 0.262745
0.933333 0.784314 0.250980
0.976471 0.780392 0.223529
0.996078 0.776471 0.203922
0.992157 0.776471 0.196078
0.992157 0.772549 0.160784
0.035294 0.749020 0.109804
0.031373 0.737255 0.117647
0.019608 0.733333 0.117647
0.019608 0.733333 0.117647
0.007843 0.737255 0.117647
0.015686 0.741176 0.121569
0.011765 0.745098 0.129412
0.023529 0.749020 0.145098
0.007843 0.776471 0.160784
0.023529 0.784314 0.176471
0.058824 0.788235 0.188235
0.098039 0.807843 0.196078
0.176471 0.803922 0.203922
0.243137 0.811765 0.223529
0.325490 0.819608 0.247059
0.427451 0.815686 0.266667
0.482353 0.807843 0.298039
0.572549 0.796078 0.333333
0.615686 0.796078 0.368627
0.643137 0.796078 0.384314
0.666667 0.796078 0.384314
0.709804 0.784314 0.384314
0.717647 0.792157 0.376471
0.752941 0.807843 0.380392
0.831373 0.819608 0.352941
0.886275 0.831373 0.345098
0.913725 0.839216 0.337255
0.921569 0.843137 0.313726
0.937255 0.843137 0.301961
0.972549 0.839216 0.274510
0.988235 0.843137 0.250980
0.988235 0.827451 0.243137
0.992157 0.815686 0.211765
0.043137 0.784314 0.125490
0.031373 0.780392 0.125490
0.015686 0.780392 0.125490
0.011765 0.772549 0.129412
0.011765 0.772549 0.129412
0.011765 0.772549 0.129412
0.011765 0.780392 0.129412
0.000000 0.792157 0.145098
0.000000 0.827451 0.160784
0.003922 0.839216 0.176471
0.031373 0.854902 0.188235
0.098039 0.854902 0.203922
0.141176 0.858824 0.219608
0.231373 0.862745 0.235294
0.313726 0.866667 0.254902
0.403922 0.858824 0.274510
0.470588 0.858824 0.301961
0.525490 0.858824 0.337255
0.584314 0.847059 0.372549
0.635294 0.839216 0.400000
0.670588 0.835294 0.419608
0.713726 0.831373 0.431373
0.733333 0.831373 0.435294
0.752941 0.850980 0.439216
0.811765 0.866667 0.372549
0.854902 0.878431 0.376471
0.886275 0.882353 0.380392
0.933333 0.886275 0.372549
0.937255 0.886275 0.360784
0.976471 0.886275 0.333333
0.988235 0.886275 0.309804
1.000000 0.878431 0.298039
0.996078 0.870588 0.270588
0.125490 0.843137 0.133333
0.074510 0.839216 0.133333
0.050980 0.823529 0.129412
0.031373 0.819608 0.133333
0.003922 0.827451 0.137255
0.015686 0.827451 0.125490
0.000000 0.831373 0.141176
0.000000 0.847059 0.149020
0.000000 0.858824 0.164706
0.015686 0.886275 0.180392
0.039216 0.913725 0.192157
0.074510 0.956863 0.207843
0.141176 0.949020 0.219608
0.184314 0.949020 0.235294
0.274510 0.929412 0.250980
0.380392 0.913725 0.274510
0.443137 0.905882 0.301961
0.509804 0.890196 0.341176
0.580392 0.874510 0.380392
0.619608 0.874510 0.419608
0.670588 0.870588 0.439216
0.709804 0.874510 0.466667
0.729412 0.870588 0.482353
0.756863 0.870588 0.490196
0.796078 0.882353 0.458824
0.835294 0.894118 0.462745
0.890196 0.913725 0.411765
0.921569 0.933333 0.423529
0.941176 0.972549 0.419608
0.976471 0.980392 0.396078
0.988235 0.996078 0.372549
0.988235 0.984314 0.376471
0.992157 0.980392 0.337255
0.050980 0.878431 0.141176
0.043137 0.874510 0.133333
0.027451 0.862745 0.141176
0.027451 0.862745 0.141176
0.015686 0.862745 0.137255
0.000000 0.870588 0.141176
0.007843 0.894118 0.145098
0.000000 0.945098 0.152941
0.011765 0.960784 0.160784
0.007843 0.988235 0.180392
0.035294 0.984314 0.196078
0.082353 1.000000 0.211765
0.121569 1.000000 0.231373
0.188235 1.000000 0.250980
0.270588 1.000000 0.266667
0.349020 1.000000 0.286275
0.439216 0.996078 0.313726
0.509804 0.980392 0.345098
0.564706 0.925490 0.380392
0.603922 0.921569 0.415686
0.647059 0.921569 0.450980
0.686275 0.890196 0.490196
0.721569 0.905882 0.513726
0.749020 0.901961 0.521569
0.796078 0.901961 0.517647
0.827451 0.921569 0.501961
0.827451 0.984314 0.490196
0.890196 1.000000 0.513726
0.929412 1.000000 0.490196
0.968627 1.000000 0.541176
0.992157 1.000000 0.552941
0.976471 1.000000 0.584314
0.984314 1.000000 0.474510
0.074510 0.913725 0.137255
0.054902 0.913725 0.137255
0.027451 0.925490 0.133333
0.015686 0.925490 0.145098
0.000000 0.960784 0.149020
0.007843 0.964706 0.141176
0.007843 0.976471 0.152941
0.007843 0.992157 0.152941
0.000000 0.996078 0.168627
0.019608 1.000000 0.184314
0.031373 1.000000 0.207843
0.074510 1.000000 0.211765
0.113725 1.000000 0.231373
0.172549 1.000000 0.247059
0.250980 1.000000 0.274510
0.329412 1.000000 0.290196
0.423529 1.000000 0.313726
0.490196 1.000000 0.360784
0.537255 1.000000 0.411765
0.603922 1.000000 0.443137
0.654902 1.000000 0.474510
0.686275 0.996078 0.498039
0.717647 0.992157 0.533333
0.725490 1.000000 0.556863
0.784314 0.988235 0.545098
0.796078 1.000000 0.552941
0.850980 1.000000 0.572549
0.894118 1.000000 0.596078
