Luts/panasonic/(晴天薄荷）Sunny Mint-port.cube
TITLE "Generated by LUMIX Lab"
#LUMIXPHOTOSTYLE PORT
LUT_3D_SIZE 9
0.031373 0.027451 0.050980
0.047059 0.047059 0.070588
0.101961 0.066667 0.086275
0.258824 0.078431 0.086275
0.556863 0.090196 0.074510
0.807843 0.098039 0.058824
0.921569 0.109804 0.050980
0.992157 0.113725 0.043137
0.992157 0.133333 0.043137
0.047059 0.101961 0.101961
0.062745 0.117647 0.101961
0.152941 0.145098 0.098039
0.341176 0.156863 0.078431
0.615686 0.188235 0.062745
0.788235 0.223529 0.058824
0.882353 0.239216 0.058824
0.964706 0.270588 0.058824
0.996078 0.309804 0.058824
0.047059 0.305882 0.101961
0.043137 0.317647 0.129412
0.196078 0.325490 0.137255
0.427451 0.337255 0.050980
0.654902 0.372549 0.035294
0.788235 0.407843 0.062745
0.886275 0.458824 0.070588
0.992157 0.478431 0.074510
0.992157 0.501961 0.090196
0.007843 0.447059 0.078431
0.003922 0.470588 0.098039
0.117647 0.486275 0.160784
0.388235 0.490196 0.109804
0.643137 0.509804 0.094118
0.764706 0.521569 0.062745
0.886275 0.545098 0.074510
0.972549 0.580392 0.074510
1.000000 0.603922 0.098039
0.003922 0.560784 0.094118
0.003922 0.572549 0.094118
0.047059 0.584314 0.152941
0.317647 0.623529 0.207843
0.615686 0.627451 0.149020
0.776471 0.627451 0.164706
0.882353 0.619608 0.113725
0.972549 0.611765 0.054902
0.996078 0.647059 0.094118
0.094118 0.666667 0.109804
0.000000 0.666667 0.109804
0.003922 0.698039 0.152941
0.223529 0.729412 0.211765
0.517647 0.725490 0.294118
0.717647 0.721569 0.266667
0.858824 0.752941 0.266667
0.937255 0.745098 0.203922
0.996078 0.737255 0.113725
0.125490 0.843137 0.133333
0.003922 0.827451 0.137255
0.000000 0.858824 0.164706
0.141176 0.949020 0.219608
0.443137 0.905882 0.301961
0.670588 0.870588 0.439216
0.796078 0.882353 0.458824
0.941176 0.972549 0.419608
0.992157 0.980392 0.337255
0.200000 1.000000 0.192157
0.015686 1.000000 0.149020
0.015686 1.000000 0.152941
0.098039 1.000000 0.231373
0.400000 1.000000 0.317647
0.674510 1.000000 0.525490
0.819608 1.000000 0.639216
0.898039 1.000000 0.654902
0.988235 1.000000 0.627451
0.027451 1.000000 0.156863
0.003922 1.000000 0.152941
0.003922 1.000000 0.152941
0.050980 1.000000 0.192157
0.352941 1.000000 0.301961
0.643137 1.000000 0.537255
0.823529 1.000000 0.682353
0.913725 1.000000 0.717647
0.992157 1.000000 0.639216
0.031373 0.031373 0.062745
0.050980 0.058824 0.094118
0.105882 0.082353 0.121569
0.286275 0.082353 0.117647
0.619608 0.078431 0.101961
0.819608 0.082353 0.074510
0.925490 0.094118 0.050980
0.996078 0.105882 0.039216
0.996078 0.094118 0.070588
0.050980 0.113725 0.121569
0.066667 0.125490 0.125490
0.152941 0.145098 0.121569
0.329412 0.145098 0.145098
0.635294 0.156863 0.121569
0.800000 0.196078 0.109804
0.882353 0.227451 0.101961
0.992157 0.247059 0.105882
1.000000 0.274510 0.098039
0.047059 0.309804 0.156863
0.066667 0.317647 0.149020
0.192157 0.317647 0.184314
0.431373 0.337255 0.133333
0.662745 0.372549 0.145098
0.788235 0.419608 0.160784
0.890196 0.454902 0.164706
0.972549 0.486275 0.160784
0.992157 0.494118 0.141176
0.011765 0.466667 0.141176
0.015686 0.458824 0.141176
0.109804 0.478431 0.176471
0.400000 0.490196 0.172549
0.631373 0.494118 0.145098
0.756863 0.513726 0.160784
0.866667 0.572549 0.188235
0.980392 0.584314 0.200000
1.000000 0.592157 0.200000
0.011765 0.572549 0.133333
0.011765 0.564706 0.125490
0.050980 0.580392 0.160784
0.317647 0.619608 0.266667
0.603922 0.619608 0.235294
0.768627 0.635294 0.239216
0.870588 0.627451 0.203922
0.949020 0.647059 0.192157
0.992157 0.654902 0.219608
0.011765 0.666667 0.141176
0.003922 0.658824 0.133333
0.019608 0.658824 0.152941
0.227451 0.725490 0.243137
0.529412 0.737255 0.372549
0.717647 0.721569 0.349020
0.858824 0.756863 0.360784
0.921569 0.749020 0.282353
0.992157 0.737255 0.219608
0.066667 0.819608 0.149020
0.011765 0.815686 0.156863
0.007843 0.827451 0.172549
0.141176 0.878431 0.239216
0.435294 0.901961 0.376471
0.662745 0.870588 0.494118
0.776471 0.886275 0.509804
0.937255 0.984314 0.443137
0.984314 0.988235 0.431373
0.160784 1.000000 0.200000
0.011765 1.000000 0.176471
0.007843 1.000000 0.184314
0.117647 1.000000 0.243137
0.388235 1.000000 0.380392
0.666667 1.000000 0.568627
0.792157 1.000000 0.647059
0.909804 1.000000 0.666667
0.976471 1.000000 0.682353
0.043137 1.000000 0.180392
0.007843 1.000000 0.164706
0.007843 1.000000 0.164706
0.054902 1.000000 0.203922
0.352941 1.000000 0.380392
0.647059 1.000000 0.572549
0.807843 1.000000 0.690196
0.909804 1.000000 0.701961
0.988235 1.000000 0.741176
0.043137 0.050980 0.129412
0.066667 0.074510 0.145098
0.113725 0.098039 0.160784
0.321569 0.101961 0.219608
0.662745 0.082353 0.247059
0.839216 0.074510 0.254902
0.960784 0.086275 0.227451
0.996078 0.098039 0.180392
1.000000 0.086275 0.121569
0.043137 0.145098 0.200000
0.078431 0.137255 0.207843
0.168627 0.152941 0.235294
0.396078 0.137255 0.258824
0.694118 0.141176 0.258824
0.839216 0.152941 0.239216
0.976471 0.180392 0.180392
1.000000 0.211765 0.137255
0.996078 0.239216 0.145098
0.039216 0.333333 0.325490
0.074510 0.325490 0.305882
0.223529 0.325490 0.309804
0.443137 0.317647 0.301961
0.666667 0.337255 0.290196
0.807843 0.388235 0.298039
0.894118 0.427451 0.317647
0.984314 0.462745 0.309804
0.992157 0.474510 0.286275
0.000000 0.509804 0.364706
0.011765 0.498039 0.337255
0.137255 0.458824 0.309804
0.403922 0.486275 0.364706
0.647059 0.501961 0.329412
0.760784 0.533333 0.364706
0.878431 0.564706 0.388235
0.968627 0.580392 0.388235
0.992157 0.607843 0.364706
0.003922 0.603922 0.356863
0.000000 0.596078 0.286275
0.078431 0.572549 0.270588
0.305882 0.607843 0.372549
0.615686 0.615686 0.392157
0.760784 0.619608 0.384314
0.858824 0.631373 0.388235
0.976471 0.647059 0.411765
0.992157 0.650980 0.439216
0.050980 0.690196 0.317647
0.000000 0.670588 0.270588
0.023529 0.643137 0.215686
0.211765 0.678431 0.329412
0.498039 0.729412 0.466667
0.694118 0.713726 0.490196
0.858824 0.752941 0.458824
0.949020 0.745098 0.396078
0.988235 0.749020 0.427451
0.074510 0.839216 0.321569
0.003922 0.827451 0.270588
0.019608 0.768627 0.219608
0.141176 0.792157 0.266667
0.392157 0.866667 0.447059
0.666667 0.862745 0.549020
0.796078 0.870588 0.576471
0.945098 0.925490 0.509804
0.996078 0.929412 0.498039
0.098039 1.000000 0.337255
0.015686 1.000000 0.274510
0.011765 1.000000 0.247059
0.078431 1.000000 0.250980
0.384314 1.000000 0.462745
0.654902 1.000000 0.596078
0.807843 1.000000 0.690196
0.894118 1.000000 0.709804
0.984314 1.000000 0.760784
0.027451 1.000000 0.301961
0.015686 1.000000 0.274510
0.019608 1.000000 0.243137
0.050980 1.000000 0.250980
0.349020 1.000000 0.447059
0.627451 1.000000 0.600000
0.815686 1.000000 0.709804
0.921569 1.000000 0.752941
0.992157 1.000000 0.752941
0.047059 0.078431 0.219608
0.078431 0.090196 0.215686
0.133333 0.113725 0.266667
0.305882 0.113725 0.341176
0.556863 0.117647 0.423529
0.764706 0.117647 0.435294
0.937255 0.086275 0.470588
1.000000 0.078431 0.470588
0.984314 0.125490 0.443137
0.039216 0.164706 0.345098
0.086275 0.149020 0.360784
0.196078 0.152941 0.352941
0.341176 0.164706 0.392157
0.619608 0.176471 0.458824
0.792157 0.176471 0.474510
0.937255 0.184314 0.474510
0.996078 0.196078 0.454902
0.988235 0.231373 0.435294
0.015686 0.352941 0.482353
0.039216 0.356863 0.482353
0.211765 0.333333 0.482353
0.407843 0.337255 0.478431
0.666667 0.341176 0.486275
0.835294 0.349020 0.474510
0.956863 0.372549 0.454902
0.996078 0.407843 0.407843
0.996078 0.419608 0.388235
0.000000 0.501961 0.517647
0.019608 0.505882 0.513726
0.184314 0.478431 0.501961
0.423529 0.490196 0.470588
0.639216 0.498039 0.470588
0.756863 0.521569 0.470588
0.870588 0.537255 0.474510
0.992157 0.564706 0.470588
0.992157 0.572549 0.466667
0.000000 0.623529 0.549020
0.039216 0.623529 0.541176
0.156863 0.619608 0.490196
0.337255 0.611765 0.458824
0.596078 0.619608 0.501961
0.741176 0.627451 0.490196
0.843137 0.650980 0.513726
0.976471 0.670588 0.525490
0.992157 0.654902 0.521569
0.000000 0.749020 0.549020
0.019608 0.745098 0.533333
0.070588 0.701961 0.443137
0.231373 0.647059 0.439216
0.525490 0.698039 0.517647
0.709804 0.701961 0.556863
0.827451 0.733333 0.513726
0.937255 0.749020 0.517647
0.984314 0.760784 0.529412
0.000000 0.980392 0.533333
0.000000 0.898039 0.498039
0.003922 0.839216 0.415686
0.125490 0.749020 0.372549
0.423529 0.800000 0.490196
0.635294 0.854902 0.596078
0.796078 0.847059 0.615686
0.929412 0.917647 0.580392
0.992157 0.862745 0.541176
0.129412 1.000000 0.513726
0.003922 1.000000 0.482353
0.000000 0.996078 0.435294
0.074510 0.901961 0.380392
0.298039 0.905882 0.439216
0.647059 1.000000 0.623529
0.819608 1.000000 0.701961
0.913725 1.000000 0.733333
0.996078 1.000000 0.741176
0.011765 1.000000 0.490196
0.000000 1.000000 0.458824
0.000000 0.988235 0.427451
0.043137 1.000000 0.388235
0.294118 1.000000 0.439216
0.627451 1.000000 0.623529
0.807843 1.000000 0.729412
0.925490 1.000000 0.807843
0.988235 1.000000 0.800000
0.043137 0.109804 0.349020
0.086275 0.105882 0.372549
0.176471 0.113725 0.411765
0.337255 0.113725 0.474510
0.537255 0.109804 0.513726
0.741176 0.121569 0.564706
0.886275 0.133333 0.576471
0.996078 0.101961 0.627451
0.996078 0.086275 0.615686
0.035294 0.176471 0.470588
0.094118 0.156863 0.482353
0.227451 0.156863 0.482353
0.380392 0.172549 0.533333
0.603922 0.172549 0.552941
0.756863 0.211765 0.580392
0.882353 0.227451 0.576471
0.988235 0.219608 0.611765
0.992157 0.231373 0.615686
0.000000 0.388235 0.572549
0.000000 0.392157 0.560784
0.207843 0.349020 0.592157
0.458824 0.341176 0.560784
0.635294 0.364706 0.580392
0.768627 0.400000 0.592157
0.913725 0.396078 0.600000
0.992157 0.403922 0.588235
0.992157 0.419608 0.576471
0.000000 0.509804 0.596078
0.000000 0.501961 0.600000
0.152941 0.505882 0.600000
0.411765 0.494118 0.580392
0.643137 0.501961 0.596078
0.749020 0.513726 0.600000
0.886275 0.517647 0.584314
0.988235 0.537255 0.549020
0.988235 0.545098 0.549020
0.000000 0.627451 0.623529
0.031373 0.623529 0.623529
0.203922 0.623529 0.623529
0.427451 0.615686 0.607843
0.596078 0.627451 0.572549
0.729412 0.615686 0.584314
0.847059 0.631373 0.588235
0.952941 0.635294 0.592157
0.992157 0.639216 0.576471
0.000000 0.768627 0.662745
0.090196 0.764706 0.650980
0.243137 0.745098 0.635294
0.384314 0.713726 0.596078
0.549020 0.678431 0.588235
0.725490 0.698039 0.623529
0.847059 0.705882 0.603922
0.937255 0.749020 0.619608
0.992157 0.760784 0.623529
0.023529 1.000000 0.658824
0.090196 1.000000 0.650980
0.164706 0.913725 0.623529
0.223529 0.811765 0.541176
0.423529 0.749020 0.549020
0.666667 0.811765 0.627451
0.800000 0.839216 0.662745
0.925490 0.878431 0.623529
0.992157 0.862745 0.603922
0.039216 1.000000 0.666667
0.031373 1.000000 0.639216
0.090196 1.000000 0.592157
0.176471 1.000000 0.525490
0.290196 0.866667 0.517647
0.564706 0.929412 0.615686
0.811765 1.000000 0.737255
0.901961 1.000000 0.768627
0.984314 1.000000 0.870588
0.000000 1.000000 0.643137
0.000000 1.000000 0.623529
0.011765 1.000000 0.576471
0.113725 1.000000 0.525490
0.274510 1.000000 0.541176
0.572549 1.000000 0.623529
0.788235 1.000000 0.725490
0.925490 1.000000 0.843137
0.992157 1.000000 0.901961
0.043137 0.121569 0.474510
0.101961 0.113725 0.501961
0.215686 0.113725 0.525490
0.380392 0.117647 0.560784
0.560784 0.109804 0.615686
0.749020 0.121569 0.654902
0.878431 0.133333 0.690196
0.988235 0.168627 0.717647
0.996078 0.188235 0.733333
0.027451 0.188235 0.580392
0.090196 0.172549 0.576471
0.258824 0.164706 0.576471
0.435294 0.172549 0.603922
0.615686 0.184314 0.615686
0.752941 0.203922 0.654902
0.870588 0.243137 0.690196
1.000000 0.262745 0.717647
0.992157 0.262745 0.709804
0.000000 0.403922 0.654902
0.000000 0.392157 0.670588
0.227451 0.345098 0.686275
0.466667 0.341176 0.643137
0.654902 0.364706 0.654902
0.764706 0.392157 0.666667
0.882353 0.443137 0.698039
0.996078 0.415686 0.717647
0.980392 0.443137 0.698039
0.000000 0.533333 0.666667
0.000000 0.533333 0.666667
0.098039 0.525490 0.690196
0.411765 0.509804 0.709804
0.627451 0.513726 0.678431
0.741176 0.517647 0.670588
0.850980 0.556863 0.705882
0.984314 0.533333 0.690196
0.992157 0.533333 0.674510
0.000000 0.631373 0.725490
0.007843 0.635294 0.725490
0.145098 0.627451 0.717647
0.376471 0.627451 0.698039
0.584314 0.635294 0.694118
0.733333 0.623529 0.674510
0.847059 0.623529 0.686275
0.980392 0.615686 0.666667
0.988235 0.631373 0.650980
0.000000 0.749020 0.796078
0.054902 0.752941 0.784314
0.247059 0.749020 0.760784
0.443137 0.733333 0.737255
0.592157 0.698039 0.698039
0.709804 0.686275 0.666667
0.862745 0.694118 0.674510
0.921569 0.725490 0.678431
0.988235 0.749020 0.666667
0.039216 1.000000 0.839216
0.125490 1.000000 0.819608
0.321569 0.952941 0.792157
0.490196 0.894118 0.749020
0.560784 0.854902 0.701961
0.694118 0.788235 0.678431
0.807843 0.839216 0.713726
0.921569 0.847059 0.705882
0.984314 0.886275 0.721569
0.262745 1.000000 0.850980
0.211765 1.000000 0.839216
0.407843 1.000000 0.796078
0.482353 1.000000 0.737255
0.458824 0.968627 0.674510
0.576471 0.878431 0.643137
0.792157 1.000000 0.749020
0.925490 1.000000 0.792157
0.992157 1.000000 0.901961
0.125490 1.000000 0.835294
0.219608 1.000000 0.823529
0.341176 1.000000 0.749020
0.384314 1.000000 0.674510
0.450980 1.000000 0.678431
0.525490 1.000000 0.623529
0.752941 1.000000 0.737255
0.952941 1.000000 0.874510
1.000000 1.000000 0.988235
0.054902 0.113725 0.588235
0.113725 0.117647 0.603922
0.247059 0.113725 0.623529
0.415686 0.117647 0.647059
0.631373 0.109804 0.701961
0.752941 0.125490 0.745098
0.870588 0.149020 0.784314
0.972549 0.176471 0.819608
1.000000 0.247059 0.874510
0.019608 0.200000 0.658824
0.094118 0.192157 0.670588
0.298039 0.172549 0.666667
0.474510 0.176471 0.694118
0.639216 0.176471 0.729412
0.768627 0.207843 0.749020
0.866667 0.235294 0.776471
0.976471 0.282353 0.827451
1.000000 0.321569 0.854902
0.000000 0.415686 0.803922
0.000000 0.396078 0.807843
0.239216 0.360784 0.874510
0.490196 0.356863 0.764706
0.658824 0.380392 0.756863
0.764706 0.396078 0.776471
0.847059 0.435294 0.792157
0.960784 0.486275 0.839216
0.992157 0.490196 0.874510
0.000000 0.576471 0.827451
0.000000 0.576471 0.819608
0.066667 0.556863 0.870588
0.435294 0.501961 0.854902
0.643137 0.517647 0.796078
0.749020 0.529412 0.788235
0.858824 0.537255 0.792157
0.929412 0.584314 0.839216
0.988235 0.596078 0.847059
0.000000 0.650980 0.937255
0.000000 0.650980 0.866667
0.074510 0.650980 0.854902
0.294118 0.658824 0.854902
0.596078 0.619608 0.835294
0.717647 0.635294 0.784314
0.831373 0.639216 0.784314
0.937255 0.658824 0.839216
0.992157 0.623529 0.815686
0.082353 0.756863 0.976471
0.019608 0.760784 0.988235
0.180392 0.749020 0.952941
0.372549 0.752941 0.850980
0.541176 0.749020 0.839216
0.666667 0.721569 0.823529
0.800000 0.733333 0.788235
0.929412 0.733333 0.815686
0.996078 0.705882 0.792157
0.145098 0.988235 0.964706
0.082353 0.964706 0.976471
0.270588 0.890196 1.000000
0.470588 0.886275 0.929412
0.607843 0.870588 0.870588
0.725490 0.800000 0.827451
0.823529 0.811765 0.796078
0.905882 0.854902 0.784314
1.000000 0.866667 0.800000
0.321569 1.000000 0.980392
0.223529 1.000000 0.976471
0.482353 1.000000 0.996078
0.627451 1.000000 0.972549
0.701961 1.000000 0.929412
0.733333 1.000000 0.850980
0.780392 0.937255 0.784314
0.925490 1.000000 0.870588
0.992157 1.000000 0.929412
0.282353 1.000000 0.964706
0.415686 1.000000 0.992157
0.607843 1.000000 0.976471
0.682353 1.000000 0.960784
0.701961 1.000000 0.890196
0.678431 1.000000 0.780392
0.749020 1.000000 0.752941
0.925490 1.000000 0.886275
1.000000 1.000000 1.000000
0.031373 0.121569 0.639216
0.137255 0.113725 0.650980
0.290196 0.117647 0.682353
0.450980 0.113725 0.733333
0.666667 0.109804 0.792157
0.788235 0.121569 0.882353
0.882353 0.156863 0.976471
0.980392 0.176471 1.000000
0.996078 0.200000 1.000000
0.019608 0.211765 0.737255
0.086275 0.203922 0.721569
0.313726 0.172549 0.752941
0.490196 0.176471 0.800000
0.647059 0.180392 0.858824
0.760784 0.223529 0.921569
0.862745 0.250980 0.984314
0.976471 0.278431 1.000000
1.000000 0.317647 0.992157
0.000000 0.427451 0.980392
0.000000 0.407843 0.972549
0.250980 0.345098 1.000000
0.505882 0.360784 0.992157
0.666667 0.376471 0.980392
0.768627 0.419608 0.976471
0.866667 0.450980 0.988235
0.960784 0.478431 1.000000
0.988235 0.501961 1.000000
0.000000 0.592157 0.976471
0.000000 0.580392 0.976471
0.070588 0.552941 0.996078
0.400000 0.549020 0.992157
0.670588 0.517647 0.992157
0.745098 0.525490 0.996078
0.823529 0.576471 0.964706
0.949020 0.560784 0.996078
0.992157 0.611765 1.000000
0.000000 0.674510 0.976471
0.000000 0.678431 0.972549
0.011765 0.686275 0.980392
0.262745 0.662745 0.996078
0.549020 0.635294 0.988235
0.729412 0.647059 0.992157
0.819608 0.643137 0.960784
0.917647 0.643137 0.980392
0.988235 0.666667 0.992157
0.000000 0.776471 0.956863
0.000000 0.776471 0.956863
0.098039 0.752941 0.992157
0.258824 0.776471 0.980392
0.486275 0.760784 1.000000
0.678431 0.756863 0.988235
0.811765 0.717647 0.988235
0.921569 0.752941 0.980392
0.988235 0.776471 0.996078
0.007843 1.000000 0.972549
0.058824 1.000000 0.988235
0.219608 0.921569 0.996078
0.439216 0.870588 0.988235
0.541176 0.886275 1.000000
0.658824 0.882353 0.996078
0.811765 0.878431 0.996078
0.909804 0.870588 1.000000
0.996078 0.866667 0.996078
0.270588 1.000000 0.992157
0.164706 1.000000 0.992157
0.435294 1.000000 0.988235
0.592157 1.000000 0.984314
0.709804 1.000000 0.976471
0.780392 1.000000 0.980392
0.843137 1.000000 0.988235
0.925490 1.000000 0.980392
1.000000 1.000000 1.000000
0.188235 1.000000 0.996078
0.360784 1.000000 0.984314
0.588235 1.000000 0.972549
0.713726 1.000000 0.976471
0.803922 1.000000 0.980392
0.862745 1.000000 0.988235
0.898039 1.000000 0.992157
0.925490 1.000000 0.929412
1.000000 1.000000 1.000000
0.062745 0.137255 0.694118
0.152941 0.117647 0.701961
0.309804 0.117647 0.752941
0.486275 0.113725 0.815686
0.674510 0.121569 0.964706
0.768627 0.137255 1.000000
0.898039 0.152941 0.996078
0.988235 0.180392 1.000000
1.000000 0.215686 1.000000
0.015686 0.223529 0.823529
0.098039 0.200000 0.839216
0.333333 0.176471 0.870588
0.529412 0.172549 0.968627
0.674510 0.184314 1.000000
0.768627 0.219608 0.996078
0.890196 0.247059 0.996078
0.976471 0.301961 1.000000
1.000000 0.313726 1.000000
0.000000 0.443137 0.980392
0.000000 0.415686 0.984314
0.227451 0.372549 1.000000
0.529412 0.349020 1.000000
0.682353 0.376471 1.000000
0.780392 0.407843 0.992157
0.866667 0.443137 0.996078
0.976471 0.474510 0.996078
0.992157 0.498039 0.996078
0.000000 0.588235 0.976471
0.000000 0.580392 0.980392
0.078431 0.564706 1.000000
0.411765 0.537255 1.000000
0.662745 0.521569 0.996078
0.752941 0.545098 1.000000
0.839216 0.572549 1.000000
0.933333 0.576471 0.996078
0.980392 0.615686 1.000000
0.019608 0.698039 1.000000
0.000000 0.686275 0.972549
0.000000 0.678431 0.992157
0.258824 0.658824 1.000000
0.572549 0.647059 1.000000
0.749020 0.635294 0.988235
0.835294 0.647059 0.996078
0.913725 0.658824 0.988235
0.988235 0.666667 0.992157
0.129412 0.803922 1.000000
0.000000 0.803922 0.972549
0.023529 0.811765 1.000000
0.215686 0.788235 0.992157
0.478431 0.752941 1.000000
0.690196 0.737255 1.000000
0.843137 0.725490 1.000000
0.921569 0.749020 0.992157
0.992157 0.772549 0.996078
0.152941 1.000000 0.980392
0.023529 1.000000 0.972549
0.129412 0.980392 0.992157
0.329412 0.905882 1.000000
0.478431 0.890196 0.996078
0.631373 0.890196 1.000000
0.800000 0.866667 0.996078
0.925490 0.850980 1.000000
0.996078 0.866667 0.996078
0.250980 1.000000 1.000000
0.129412 1.000000 1.000000
0.415686 1.000000 0.992157
0.564706 1.000000 0.968627
0.666667 1.000000 0.988235
0.760784 1.000000 0.980392
0.843137 1.000000 0.988235
0.937255 1.000000 0.988235
1.000000 1.000000 1.000000
0.043137 1.000000 0.964706
0.262745 1.000000 0.992157
0.513726 1.000000 0.976471
0.670588 1.000000 0.984314
0.768627 1.000000 0.992157
0.843137 1.000000 0.988235
0.925490 1.000000 0.976471
0.964706 1.000000 0.988235
1.000000 1.000000 1.000000
