Luts/panasonic/(晴天薄荷）Sunny Mint-port.cube
TITLE "Generated by LUMIX Lab"
#LUMIXPHOTOSTYLE PORT
LUT_3D_SIZE 5
0.031373 0.027451 0.050980
0.101961 0.066667 0.086275
0.556863 0.090196 0.074510
0.921569 0.109804 0.050980
0.992157 0.133333 0.043137
0.047059 0.305882 0.101961
0.196078 0.325490 0.137255
0.654902 0.372549 0.035294
0.886275 0.458824 0.070588
0.992157 0.501961 0.090196
0.003922 0.560784 0.094118
0.047059 0.584314 0.152941
0.615686 0.627451 0.149020
0.882353 0.619608 0.113725
0.996078 0.647059 0.094118
0.125490 0.843137 0.133333
0.000000 0.858824 0.164706
0.443137 0.905882 0.301961
0.796078 0.882353 0.458824
0.992157 0.980392 0.337255
0.027451 1.000000 0.156863
0.003922 1.000000 0.152941
0.352941 1.000000 0.301961
0.823529 1.000000 0.682353
0.992157 1.000000 0.639216
0.043137 0.050980 0.129412
0.113725 0.098039 0.160784
0.662745 0.082353 0.247059
0.960784 0.086275 0.227451
1.000000 0.086275 0.121569
0.039216 0.333333 0.325490
0.223529 0.325490 0.309804
0.666667 0.337255 0.290196
0.894118 0.427451 0.317647
0.992157 0.474510 0.286275
0.003922 0.603922 0.356863
0.078431 0.572549 0.270588
0.615686 0.615686 0.392157
0.858824 0.631373 0.388235
0.992157 0.650980 0.439216
0.074510 0.839216 0.321569
0.019608 0.768627 0.219608
0.392157 0.866667 0.447059
0.796078 0.870588 0.576471
0.996078 0.929412 0.498039
0.027451 1.000000 0.301961
0.019608 1.000000 0.243137
0.349020 1.000000 0.447059
0.815686 1.000000 0.709804
0.992157 1.000000 0.752941
0.043137 0.109804 0.349020
0.176471 0.113725 0.411765
0.537255 0.109804 0.513726
0.886275 0.133333 0.576471
0.996078 0.086275 0.615686
0.000000 0.388235 0.572549
0.207843 0.349020 0.592157
0.635294 0.364706 0.580392
0.913725 0.396078 0.600000
0.992157 0.419608 0.576471
0.000000 0.627451 0.623529
0.203922 0.623529 0.623529
0.596078 0.627451 0.572549
0.847059 0.631373 0.588235
0.992157 0.639216 0.576471
0.023529 1.000000 0.658824
0.164706 0.913725 0.623529
0.423529 0.749020 0.549020
0.800000 0.839216 0.662745
0.992157 0.862745 0.603922
0.000000 1.000000 0.643137
0.011765 1.000000 0.576471
0.274510 1.000000 0.541176
0.788235 1.000000 0.725490
0.992157 1.000000 0.901961
0.054902 0.113725 0.588235
0.247059 0.113725 0.623529
0.631373 0.109804 0.701961
0.870588 0.149020 0.784314
1.000000 0.247059 0.874510
0.000000 0.415686 0.803922
0.239216 0.360784 0.874510
0.658824 0.380392 0.756863
0.847059 0.435294 0.792157
0.992157 0.490196 0.874510
0.000000 0.650980 0.937255
0.074510 0.650980 0.854902
0.596078 0.619608 0.835294
0.831373 0.639216 0.784314
0.992157 0.623529 0.815686
0.145098 0.988235 0.964706
0.270588 0.890196 1.000000
0.607843 0.870588 0.870588
0.823529 0.811765 0.796078
1.000000 0.866667 0.800000
0.282353 1.000000 0.964706
0.607843 1.000000 0.976471
0.701961 1.000000 0.890196
0.749020 1.000000 0.752941
1.000000 1.000000 1.000000
0.062745 0.137255 0.694118
0.309804 0.117647 0.752941
0.674510 0.121569 0.964706
0.898039 0.152941 0.996078
1.000000 0.215686 1.000000
0.000000 0.443137 0.980392
0.227451 0.372549 1.000000
0.682353 0.376471 1.000000
0.866667 0.443137 0.996078
0.992157 0.498039 0.996078
0.019608 0.698039 1.000000
0.000000 0.678431 0.992157
0.572549 0.647059 1.000000
0.835294 0.647059 0.996078
0.988235 0.666667 0.992157
0.152941 1.000000 0.980392
0.129412 0.980392 0.992157
0.478431 0.890196 0.996078
0.800000 0.866667 0.996078
0.996078 0.866667 0.996078
0.043137 1.000000 0.964706
0.513726 1.000000 0.976471
0.768627 1.000000 0.992157
0.925490 1.000000 0.976471
1.000000 1.000000 1.000000
