Luts/panasonic/Patina of Rain-std.cube
TITLE "Generated by LUMIX Lab"
#LUMIXPHOTOSTYLE STD
LUT_3D_SIZE 9
0.000000 0.000000 0.011765
0.082353 0.000000 0.027451
0.184314 0.000000 0.023529
0.282353 0.000000 0.007843
0.380392 0.000000 0.007843
0.466667 0.000000 0.000000
0.545098 0.000000 0.000000
0.623529 0.000000 0.000000
0.701961 0.000000 0.003922
0.003922 0.160784 0.058824
0.070588 0.145098 0.058824
0.176471 0.117647 0.050980
0.274510 0.105882 0.043137
0.356863 0.101961 0.039216
0.450980 0.101961 0.031373
0.549020 0.101961 0.023529
0.631373 0.109804 0.011765
0.709804 0.101961 0.003922
0.000000 0.301961 0.098039
0.070588 0.282353 0.078431
0.156863 0.266667 0.078431
0.266667 0.250980 0.074510
0.364706 0.227451 0.062745
0.462745 0.215686 0.066667
0.556863 0.227451 0.047059
0.639216 0.223529 0.058824
0.733333 0.215686 0.054902
0.003922 0.415686 0.105882
0.090196 0.400000 0.098039
0.172549 0.392157 0.090196
0.258824 0.384314 0.098039
0.372549 0.360784 0.098039
0.466667 0.360784 0.098039
0.572549 0.349020 0.086275
0.666667 0.341176 0.098039
0.756863 0.337255 0.094118
0.035294 0.517647 0.105882
0.105882 0.517647 0.109804
0.196078 0.509804 0.113725
0.274510 0.509804 0.117647
0.360784 0.509804 0.121569
0.478431 0.490196 0.125490
0.600000 0.466667 0.129412
0.690196 0.474510 0.133333
0.788235 0.458824 0.137255
0.058824 0.603922 0.129412
0.133333 0.611765 0.137255
0.231373 0.623529 0.137255
0.317647 0.623529 0.137255
0.396078 0.631373 0.152941
0.498039 0.619608 0.156863
0.588235 0.627451 0.160784
0.713726 0.588235 0.168627
0.815686 0.568627 0.168627
0.094118 0.701961 0.152941
0.172549 0.721569 0.152941
0.262745 0.721569 0.152941
0.349020 0.721569 0.164706
0.447059 0.725490 0.168627
0.529412 0.725490 0.184314
0.615686 0.721569 0.192157
0.705882 0.713726 0.196078
0.823529 0.682353 0.215686
0.133333 0.788235 0.176471
0.219608 0.807843 0.176471
0.301961 0.811765 0.176471
0.384314 0.827451 0.184314
0.490196 0.831373 0.192157
0.564706 0.823529 0.196078
0.654902 0.819608 0.223529
0.733333 0.811765 0.243137
0.819608 0.792157 0.239216
0.184314 0.886275 0.196078
0.258824 0.894118 0.200000
0.345098 0.901961 0.203922
0.439216 0.913725 0.211765
0.521569 0.909804 0.215686
0.596078 0.909804 0.223529
0.678431 0.909804 0.247059
0.764706 0.894118 0.247059
0.839216 0.878431 0.270588
0.000000 0.023529 0.090196
0.098039 0.000000 0.086275
0.207843 0.000000 0.082353
0.294118 0.003922 0.070588
0.376471 0.000000 0.066667
0.443137 0.000000 0.058824
0.509804 0.000000 0.050980
0.607843 0.000000 0.043137
0.674510 0.000000 0.023529
0.000000 0.145098 0.109804
0.078431 0.141176 0.101961
0.176471 0.129412 0.090196
0.274510 0.121569 0.101961
0.372549 0.098039 0.094118
0.435294 0.086275 0.078431
0.525490 0.082353 0.074510
0.607843 0.098039 0.070588
0.694118 0.098039 0.070588
0.003922 0.286275 0.125490
0.050980 0.282353 0.125490
0.149020 0.278431 0.125490
0.266667 0.258824 0.129412
0.368627 0.235294 0.109804
0.470588 0.219608 0.105882
0.556863 0.215686 0.109804
0.639216 0.219608 0.109804
0.725490 0.219608 0.109804
0.000000 0.407843 0.141176
0.070588 0.400000 0.149020
0.152941 0.388235 0.137255
0.254902 0.388235 0.145098
0.372549 0.372549 0.145098
0.478431 0.360784 0.149020
0.572549 0.349020 0.125490
0.662745 0.349020 0.133333
0.768627 0.341176 0.141176
0.003922 0.513726 0.152941
0.086275 0.521569 0.164706
0.156863 0.521569 0.156863
0.262745 0.517647 0.156863
0.352941 0.509804 0.176471
0.490196 0.494118 0.180392
0.600000 0.474510 0.188235
0.686275 0.482353 0.176471
0.792157 0.462745 0.192157
0.043137 0.607843 0.176471
0.113725 0.611765 0.176471
0.192157 0.623529 0.180392
0.290196 0.627451 0.184314
0.403922 0.631373 0.211765
0.490196 0.639216 0.215686
0.596078 0.623529 0.215686
0.721569 0.592157 0.227451
0.811765 0.580392 0.219608
0.090196 0.694118 0.192157
0.149020 0.713726 0.211765
0.243137 0.733333 0.215686
0.325490 0.733333 0.211765
0.431373 0.737255 0.219608
0.521569 0.737255 0.243137
0.631373 0.733333 0.254902
0.725490 0.733333 0.247059
0.815686 0.694118 0.254902
0.125490 0.792157 0.223529
0.207843 0.815686 0.227451
0.294118 0.819608 0.235294
0.380392 0.835294 0.243137
0.486275 0.843137 0.243137
0.576471 0.835294 0.254902
0.650980 0.839216 0.274510
0.737255 0.823529 0.294118
0.827451 0.800000 0.286275
0.188235 0.886275 0.243137
0.250980 0.905882 0.247059
0.333333 0.909804 0.254902
0.423529 0.925490 0.262745
0.509804 0.921569 0.266667
0.600000 0.925490 0.274510
0.678431 0.925490 0.286275
0.764706 0.909804 0.309804
0.835294 0.890196 0.309804
0.000000 0.054902 0.262745
0.090196 0.039216 0.219608
0.215686 0.003922 0.200000
0.313726 0.003922 0.184314
0.403922 0.000000 0.164706
0.470588 0.003922 0.152941
0.541176 0.000000 0.133333
0.619608 0.000000 0.113725
0.690196 0.000000 0.105882
0.000000 0.164706 0.192157
0.070588 0.152941 0.188235
0.180392 0.133333 0.180392
0.286275 0.113725 0.164706
0.376471 0.105882 0.149020
0.462745 0.098039 0.141176
0.552941 0.090196 0.137255
0.619608 0.098039 0.133333
0.705882 0.101961 0.125490
0.007843 0.278431 0.192157
0.066667 0.266667 0.192157
0.164706 0.270588 0.196078
0.270588 0.250980 0.180392
0.364706 0.247059 0.176471
0.454902 0.235294 0.168627
0.560784 0.227451 0.172549
0.643137 0.223529 0.184314
0.737255 0.223529 0.168627
0.007843 0.392157 0.196078
0.058824 0.403922 0.207843
0.152941 0.392157 0.211765
0.262745 0.396078 0.215686
0.368627 0.388235 0.215686
0.474510 0.376471 0.211765
0.572549 0.364706 0.207843
0.670588 0.349020 0.207843
0.760784 0.337255 0.200000
0.011765 0.505882 0.211765
0.078431 0.509804 0.215686
0.160784 0.517647 0.231373
0.266667 0.521569 0.239216
0.372549 0.521569 0.250980
0.490196 0.498039 0.254902
0.596078 0.498039 0.250980
0.709804 0.482353 0.250980
0.792157 0.478431 0.262745
0.050980 0.607843 0.223529
0.101961 0.619608 0.239216
0.184314 0.627451 0.250980
0.282353 0.643137 0.254902
0.384314 0.650980 0.262745
0.494118 0.647059 0.282353
0.603922 0.619608 0.301961
0.721569 0.607843 0.286275
0.811765 0.596078 0.286275
0.098039 0.705882 0.258824
0.156863 0.713726 0.258824
0.227451 0.733333 0.282353
0.321569 0.741176 0.270588
0.427451 0.745098 0.286275
0.521569 0.752941 0.305882
0.623529 0.764706 0.333333
0.725490 0.737255 0.325490
0.835294 0.694118 0.333333
0.141176 0.800000 0.278431
0.203922 0.811765 0.286275
0.270588 0.835294 0.294118
0.372549 0.835294 0.298039
0.478431 0.843137 0.305882
0.564706 0.847059 0.313726
0.658824 0.843137 0.333333
0.749020 0.835294 0.345098
0.823529 0.823529 0.352941
0.180392 0.894118 0.301961
0.250980 0.913725 0.305882
0.329412 0.929412 0.313726
0.415686 0.925490 0.313726
0.501961 0.933333 0.325490
0.600000 0.937255 0.321569
0.682353 0.929412 0.337255
0.760784 0.925490 0.368627
0.827451 0.909804 0.372549
0.011765 0.078431 0.396078
0.098039 0.058824 0.360784
0.203922 0.039216 0.329412
0.313726 0.019608 0.305882
0.411765 0.007843 0.278431
0.466667 0.003922 0.254902
0.556863 0.003922 0.243137
0.639216 0.011765 0.227451
0.709804 0.000000 0.200000
0.003922 0.196078 0.317647
0.082353 0.160784 0.290196
0.180392 0.145098 0.274510
0.298039 0.129412 0.270588
0.396078 0.113725 0.254902
0.470588 0.113725 0.235294
0.560784 0.101961 0.223529
0.635294 0.109804 0.231373
0.721569 0.105882 0.211765
0.000000 0.286275 0.266667
0.062745 0.278431 0.258824
0.164706 0.274510 0.270588
0.274510 0.266667 0.262745
0.388235 0.243137 0.258824
0.470588 0.235294 0.250980
0.564706 0.235294 0.243137
0.662745 0.231373 0.250980
0.745098 0.227451 0.235294
0.035294 0.400000 0.282353
0.082353 0.392157 0.278431
0.168627 0.396078 0.294118
0.266667 0.400000 0.305882
0.380392 0.392157 0.282353
0.478431 0.392157 0.286275
0.572549 0.384314 0.298039
0.682353 0.368627 0.286275
0.764706 0.364706 0.294118
0.039216 0.501961 0.290196
0.098039 0.509804 0.301961
0.164706 0.517647 0.321569
0.266667 0.525490 0.329412
0.376471 0.525490 0.341176
0.494118 0.513726 0.341176
0.592157 0.513726 0.333333
0.713726 0.498039 0.333333
0.803922 0.486275 0.325490
0.054902 0.611765 0.305882
0.125490 0.619608 0.317647
0.200000 0.631373 0.337255
0.290196 0.654902 0.356863
0.392157 0.650980 0.352941
0.498039 0.666667 0.372549
0.611765 0.639216 0.380392
0.721569 0.627451 0.360784
0.827451 0.600000 0.364706
0.098039 0.717647 0.329412
0.160784 0.721569 0.345098
0.223529 0.741176 0.356863
0.321569 0.749020 0.376471
0.427451 0.764706 0.376471
0.529412 0.764706 0.388235
0.623529 0.760784 0.400000
0.741176 0.729412 0.419608
0.847059 0.709804 0.396078
0.137255 0.807843 0.345098
0.215686 0.831373 0.364706
0.270588 0.839216 0.372549
0.356863 0.847059 0.384314
0.478431 0.850980 0.388235
0.564706 0.862745 0.384314
0.654902 0.862745 0.411765
0.745098 0.847059 0.431373
0.823529 0.835294 0.431373
0.188235 0.901961 0.372549
0.254902 0.921569 0.376471
0.325490 0.929412 0.380392
0.411765 0.937255 0.400000
0.494118 0.945098 0.392157
0.600000 0.945098 0.407843
0.686275 0.945098 0.419608
0.752941 0.937255 0.427451
0.843137 0.921569 0.443137
0.023529 0.094118 0.490196
0.101961 0.070588 0.454902
0.207843 0.054902 0.443137
0.305882 0.043137 0.411765
0.411765 0.027451 0.392157
0.501961 0.023529 0.372549
0.568627 0.023529 0.352941
0.647059 0.023529 0.341176
0.729412 0.007843 0.317647
0.003922 0.203922 0.415686
0.078431 0.176471 0.392157
0.164706 0.168627 0.392157
0.294118 0.156863 0.372549
0.403922 0.137255 0.360784
0.490196 0.137255 0.349020
0.576471 0.125490 0.345098
0.654902 0.129412 0.321569
0.733333 0.121569 0.325490
0.011765 0.305882 0.372549
0.070588 0.290196 0.372549
0.168627 0.290196 0.364706
0.286275 0.278431 0.376471
0.392157 0.262745 0.360784
0.486275 0.243137 0.356863
0.580392 0.243137 0.349020
0.662745 0.239216 0.345098
0.756863 0.239216 0.349020
0.031373 0.407843 0.356863
0.094118 0.403922 0.368627
0.176471 0.403922 0.364706
0.270588 0.407843 0.376471
0.384314 0.396078 0.384314
0.490196 0.388235 0.384314
0.596078 0.388235 0.384314
0.694118 0.372549 0.376471
0.788235 0.356863 0.376471
0.050980 0.513726 0.372549
0.105882 0.517647 0.376471
0.180392 0.521569 0.400000
0.286275 0.525490 0.411765
0.392157 0.529412 0.427451
0.501961 0.525490 0.423529
0.603922 0.517647 0.431373
0.709804 0.509804 0.411765
0.815686 0.494118 0.415686
0.058824 0.615686 0.380392
0.129412 0.627451 0.396078
0.223529 0.643137 0.427451
0.301961 0.650980 0.439216
0.392157 0.662745 0.447059
0.505882 0.662745 0.466667
0.627451 0.639216 0.470588
0.721569 0.635294 0.450980
0.819608 0.603922 0.450980
0.121569 0.721569 0.392157
0.184314 0.729412 0.419608
0.254902 0.741176 0.443137
0.329412 0.756863 0.454902
0.427451 0.760784 0.474510
0.525490 0.772549 0.474510
0.623529 0.764706 0.490196
0.741176 0.741176 0.498039
0.831373 0.721569 0.482353
0.164706 0.823529 0.435294
0.219608 0.831373 0.450980
0.286275 0.847059 0.470588
0.376471 0.854902 0.474510
0.466667 0.858824 0.478431
0.564706 0.862745 0.482353
0.662745 0.854902 0.494118
0.741176 0.854902 0.501961
0.843137 0.823529 0.509804
0.196078 0.909804 0.454902
0.262745 0.925490 0.466667
0.333333 0.933333 0.462745
0.411765 0.945098 0.466667
0.494118 0.949020 0.474510
0.596078 0.952941 0.482353
0.686275 0.949020 0.494118
0.764706 0.949020 0.501961
0.847059 0.929412 0.525490
0.031373 0.109804 0.588235
0.117647 0.082353 0.529412
0.207843 0.074510 0.517647
0.313726 0.058824 0.486275
0.407843 0.050980 0.474510
0.501961 0.043137 0.470588
0.580392 0.035294 0.450980
0.670588 0.031373 0.443137
0.745098 0.035294 0.431373
0.007843 0.215686 0.486275
0.094118 0.196078 0.490196
0.160784 0.184314 0.478431
0.270588 0.180392 0.458824
0.403922 0.172549 0.450980
0.501961 0.160784 0.439216
0.592157 0.156863 0.443137
0.662745 0.149020 0.447059
0.745098 0.129412 0.415686
0.011765 0.317647 0.462745
0.078431 0.301961 0.458824
0.156863 0.298039 0.447059
0.258824 0.294118 0.470588
0.400000 0.278431 0.466667
0.521569 0.270588 0.454902
0.607843 0.254902 0.443137
0.694118 0.254902 0.458824
0.768627 0.247059 0.439216
0.047059 0.407843 0.450980
0.098039 0.411765 0.454902
0.168627 0.423529 0.462745
0.282353 0.423529 0.470588
0.396078 0.407843 0.482353
0.509804 0.403922 0.478431
0.607843 0.388235 0.478431
0.713726 0.376471 0.474510
0.796078 0.372549 0.482353
0.062745 0.529412 0.458824
0.109804 0.537255 0.470588
0.188235 0.537255 0.474510
0.301961 0.537255 0.486275
0.380392 0.545098 0.513726
0.517647 0.537255 0.513726
0.615686 0.517647 0.517647
0.717647 0.513726 0.505882
0.811765 0.490196 0.505882
0.090196 0.623529 0.470588
0.156863 0.635294 0.490196
0.227451 0.650980 0.501961
0.321569 0.658824 0.529412
0.419608 0.658824 0.537255
0.521569 0.662745 0.568627
0.619608 0.662745 0.552941
0.725490 0.643137 0.537255
0.839216 0.615686 0.556863
0.133333 0.729412 0.486275
0.192157 0.741176 0.501961
0.258824 0.756863 0.533333
0.345098 0.756863 0.545098
0.447059 0.768627 0.564706
0.533333 0.780392 0.580392
0.631373 0.772549 0.580392
0.741176 0.752941 0.584314
0.827451 0.737255 0.572549
0.164706 0.815686 0.501961
0.227451 0.839216 0.529412
0.317647 0.843137 0.552941
0.400000 0.854902 0.556863
0.486275 0.870588 0.576471
0.560784 0.874510 0.580392
0.654902 0.878431 0.576471
0.749020 0.874510 0.596078
0.850980 0.835294 0.603922
0.215686 0.921569 0.525490
0.290196 0.933333 0.541176
0.341176 0.937255 0.549020
0.423529 0.949020 0.556863
0.498039 0.952941 0.564706
0.596078 0.952941 0.588235
0.686275 0.960784 0.584314
0.776471 0.952941 0.596078
0.858824 0.933333 0.611765
0.019608 0.125490 0.635294
0.113725 0.101961 0.607843
0.215686 0.090196 0.584314
0.313726 0.078431 0.568627
0.411765 0.070588 0.552941
0.505882 0.062745 0.541176
0.596078 0.058824 0.529412
0.674510 0.054902 0.521569
0.756863 0.062745 0.505882
0.011765 0.231373 0.568627
0.098039 0.207843 0.560784
0.180392 0.200000 0.552941
0.278431 0.200000 0.537255
0.400000 0.192157 0.533333
0.498039 0.184314 0.529412
0.600000 0.164706 0.529412
0.686275 0.160784 0.525490
0.768627 0.172549 0.521569
0.019608 0.329412 0.545098
0.090196 0.325490 0.556863
0.168627 0.313726 0.537255
0.262745 0.309804 0.552941
0.392157 0.298039 0.549020
0.509804 0.286275 0.549020
0.607843 0.278431 0.537255
0.701961 0.274510 0.545098
0.780392 0.270588 0.541176
0.043137 0.435294 0.533333
0.105882 0.431373 0.552941
0.180392 0.435294 0.549020
0.282353 0.431373 0.568627
0.372549 0.431373 0.572549
0.498039 0.419608 0.576471
0.607843 0.403922 0.572549
0.721569 0.384314 0.576471
0.807843 0.376471 0.576471
0.074510 0.545098 0.525490
0.125490 0.549020 0.552941
0.207843 0.541176 0.568627
0.294118 0.552941 0.603922
0.392157 0.549020 0.596078
0.513726 0.545098 0.611765
0.615686 0.525490 0.603922
0.725490 0.517647 0.603922
0.827451 0.494118 0.592157
0.109804 0.639216 0.560784
0.160784 0.650980 0.576471
0.235294 0.662745 0.588235
0.321569 0.670588 0.607843
0.427451 0.674510 0.619608
0.525490 0.666667 0.635294
0.643137 0.654902 0.639216
0.749020 0.643137 0.631373
0.839216 0.619608 0.631373
0.141176 0.741176 0.576471
0.211765 0.749020 0.592157
0.282353 0.760784 0.615686
0.376471 0.760784 0.647059
0.458824 0.768627 0.654902
0.545098 0.776471 0.666667
0.635294 0.772549 0.662745
0.741176 0.756863 0.670588
0.835294 0.749020 0.662745
0.176471 0.831373 0.596078
0.247059 0.839216 0.615686
0.317647 0.847059 0.627451
0.396078 0.862745 0.643137
0.478431 0.866667 0.650980
0.576471 0.866667 0.674510
0.658824 0.878431 0.686275
0.756863 0.870588 0.690196
0.858824 0.847059 0.694118
0.215686 0.917647 0.607843
0.282353 0.921569 0.619608
0.352941 0.933333 0.635294
0.435294 0.956863 0.654902
0.517647 0.956863 0.666667
0.607843 0.956863 0.682353
0.686275 0.968627 0.678431
0.784314 0.968627 0.694118
0.858824 0.952941 0.709804
0.015686 0.137255 0.698039
0.113725 0.113725 0.650980
0.203922 0.105882 0.631373
0.321569 0.090196 0.643137
0.419608 0.086275 0.619608
0.509804 0.082353 0.607843
0.588235 0.082353 0.603922
0.682353 0.074510 0.592157
0.768627 0.070588 0.568627
0.019608 0.239216 0.627451
0.109804 0.215686 0.615686
0.200000 0.223529 0.615686
0.286275 0.215686 0.611765
0.400000 0.211765 0.607843
0.498039 0.200000 0.611765
0.603922 0.196078 0.596078
0.694118 0.184314 0.588235
0.784314 0.180392 0.584314
0.035294 0.341176 0.619608
0.109804 0.333333 0.631373
0.172549 0.333333 0.611765
0.278431 0.321569 0.627451
0.364706 0.329412 0.643137
0.494118 0.309804 0.631373
0.607843 0.301961 0.615686
0.705882 0.286275 0.607843
0.792157 0.286275 0.619608
0.062745 0.450980 0.623529
0.109804 0.443137 0.643137
0.192157 0.443137 0.639216
0.286275 0.439216 0.647059
0.392157 0.450980 0.662745
0.517647 0.435294 0.654902
0.623529 0.419608 0.658824
0.725490 0.403922 0.650980
0.823529 0.392157 0.654902
0.090196 0.560784 0.611765
0.137255 0.564706 0.647059
0.223529 0.556863 0.666667
0.305882 0.568627 0.698039
0.415686 0.560784 0.690196
0.521569 0.552941 0.705882
0.619608 0.549020 0.694118
0.733333 0.533333 0.678431
0.827451 0.509804 0.678431
0.129412 0.658824 0.627451
0.184314 0.662745 0.658824
0.254902 0.666667 0.686275
0.345098 0.666667 0.705882
0.431373 0.674510 0.709804
0.533333 0.674510 0.717647
0.639216 0.654902 0.717647
0.745098 0.639216 0.713726
0.843137 0.615686 0.713726
0.164706 0.752941 0.662745
0.239216 0.760784 0.694118
0.298039 0.760784 0.713726
0.392157 0.784314 0.721569
0.486275 0.788235 0.733333
0.560784 0.780392 0.745098
0.650980 0.772549 0.752941
0.768627 0.752941 0.756863
0.850980 0.749020 0.752941
0.211765 0.839216 0.686275
0.286275 0.847059 0.709804
0.352941 0.858824 0.717647
0.415686 0.870588 0.737255
0.517647 0.866667 0.749020
0.596078 0.870588 0.768627
0.670588 0.866667 0.776471
0.760784 0.870588 0.784314
0.850980 0.858824 0.784314
0.247059 0.921569 0.701961
0.298039 0.933333 0.725490
0.364706 0.937255 0.729412
0.458824 0.952941 0.752941
0.529412 0.960784 0.764706
0.607843 0.956863 0.776471
0.701961 0.960784 0.784314
0.784314 0.976471 0.792157
0.866667 0.972549 0.835294
0.011765 0.145098 0.756863
0.117647 0.125490 0.709804
0.215686 0.117647 0.686275
0.325490 0.105882 0.686275
0.415686 0.101961 0.674510
0.505882 0.101961 0.674510
0.600000 0.101961 0.666667
0.690196 0.094118 0.654902
0.776471 0.094118 0.635294
0.031373 0.250980 0.690196
0.117647 0.243137 0.674510
0.211765 0.235294 0.670588
0.294118 0.231373 0.674510
0.400000 0.223529 0.678431
0.501961 0.223529 0.682353
0.611765 0.211765 0.666667
0.701961 0.200000 0.662745
0.780392 0.200000 0.658824
0.047059 0.356863 0.674510
0.121569 0.341176 0.678431
0.200000 0.341176 0.674510
0.286275 0.337255 0.701961
0.388235 0.337255 0.705882
0.498039 0.329412 0.705882
0.615686 0.321569 0.701961
0.717647 0.309804 0.698039
0.807843 0.298039 0.694118
0.078431 0.458824 0.690196
0.141176 0.450980 0.698039
0.207843 0.447059 0.709804
0.298039 0.450980 0.733333
0.392157 0.454902 0.745098
0.505882 0.443137 0.745098
0.623529 0.435294 0.741176
0.733333 0.415686 0.733333
0.835294 0.400000 0.725490
0.109804 0.564706 0.701961
0.172549 0.560784 0.725490
0.239216 0.564706 0.745098
0.333333 0.564706 0.776471
0.419608 0.568627 0.772549
0.533333 0.568627 0.776471
0.635294 0.552941 0.760784
0.737255 0.533333 0.764706
0.839216 0.509804 0.760784
0.145098 0.670588 0.717647
0.203922 0.670588 0.737255
0.266667 0.674510 0.768627
0.352941 0.678431 0.800000
0.450980 0.678431 0.803922
0.556863 0.678431 0.807843
0.647059 0.670588 0.811765
0.756863 0.658824 0.800000
0.847059 0.627451 0.792157
0.192157 0.776471 0.749020
0.250980 0.772549 0.776471
0.305882 0.788235 0.788235
0.392157 0.788235 0.803922
0.494118 0.780392 0.823529
0.560784 0.792157 0.831373
0.658824 0.784314 0.835294
0.756863 0.768627 0.843137
0.854902 0.741176 0.827451
0.227451 0.850980 0.780392
0.278431 0.870588 0.792157
0.345098 0.862745 0.811765
0.431373 0.870588 0.831373
0.513726 0.874510 0.835294
0.603922 0.874510 0.843137
0.678431 0.878431 0.850980
0.768627 0.874510 0.858824
0.866667 0.850980 0.862745
0.262745 0.937255 0.792157
0.325490 0.941176 0.811765
0.392157 0.945098 0.827451
0.474510 0.952941 0.843137
0.533333 0.960784 0.854902
0.623529 0.972549 0.862745
0.713726 0.956863 0.874510
0.803922 0.968627 0.890196
0.898039 0.968627 0.913725
