Luts/panasonic/Patina of Rain-std.cube
TITLE "Generated by LUMIX Lab"
#LUMIXPHOTOSTYLE STD
LUT_3D_SIZE 5
0.000000 0.000000 0.011765
0.184314 0.000000 0.023529
0.380392 0.000000 0.007843
0.545098 0.000000 0.000000
0.701961 0.000000 0.003922
0.000000 0.301961 0.098039
0.156863 0.266667 0.078431
0.364706 0.227451 0.062745
0.556863 0.227451 0.047059
0.733333 0.215686 0.054902
0.035294 0.517647 0.105882
0.196078 0.509804 0.113725
0.360784 0.509804 0.121569
0.600000 0.466667 0.129412
0.788235 0.458824 0.137255
0.094118 0.701961 0.152941
0.262745 0.721569 0.152941
0.447059 0.725490 0.168627
0.615686 0.721569 0.192157
0.823529 0.682353 0.215686
0.184314 0.886275 0.196078
0.345098 0.901961 0.203922
0.521569 0.909804 0.215686
0.678431 0.909804 0.247059
0.839216 0.878431 0.270588
0.000000 0.054902 0.262745
0.215686 0.003922 0.200000
0.403922 0.000000 0.164706
0.541176 0.000000 0.133333
0.690196 0.000000 0.105882
0.007843 0.278431 0.192157
0.164706 0.270588 0.196078
0.364706 0.247059 0.176471
0.560784 0.227451 0.172549
0.737255 0.223529 0.168627
0.011765 0.505882 0.211765
0.160784 0.517647 0.231373
0.372549 0.521569 0.250980
0.596078 0.498039 0.250980
0.792157 0.478431 0.262745
0.098039 0.705882 0.258824
0.227451 0.733333 0.282353
0.427451 0.745098 0.286275
0.623529 0.764706 0.333333
0.835294 0.694118 0.333333
0.180392 0.894118 0.301961
0.329412 0.929412 0.313726
0.501961 0.933333 0.325490
0.682353 0.929412 0.337255
0.827451 0.909804 0.372549
0.023529 0.094118 0.490196
0.207843 0.054902 0.443137
0.411765 0.027451 0.392157
0.568627 0.023529 0.352941
0.729412 0.007843 0.317647
0.011765 0.305882 0.372549
0.168627 0.290196 0.364706
0.392157 0.262745 0.360784
0.580392 0.243137 0.349020
0.756863 0.239216 0.349020
0.050980 0.513726 0.372549
0.180392 0.521569 0.400000
0.392157 0.529412 0.427451
0.603922 0.517647 0.431373
0.815686 0.494118 0.415686
0.121569 0.721569 0.392157
0.254902 0.741176 0.443137
0.427451 0.760784 0.474510
0.623529 0.764706 0.490196
0.831373 0.721569 0.482353
0.196078 0.909804 0.454902
0.333333 0.933333 0.462745
0.494118 0.949020 0.474510
0.686275 0.949020 0.494118
0.847059 0.929412 0.525490
0.019608 0.125490 0.635294
0.215686 0.090196 0.584314
0.411765 0.070588 0.552941
0.596078 0.058824 0.529412
0.756863 0.062745 0.505882
0.019608 0.329412 0.545098
0.168627 0.313726 0.537255
0.392157 0.298039 0.549020
0.607843 0.278431 0.537255
0.780392 0.270588 0.541176
0.074510 0.545098 0.525490
0.207843 0.541176 0.568627
0.392157 0.549020 0.596078
0.615686 0.525490 0.603922
0.827451 0.494118 0.592157
0.141176 0.741176 0.576471
0.282353 0.760784 0.615686
0.458824 0.768627 0.654902
0.635294 0.772549 0.662745
0.835294 0.749020 0.662745
0.215686 0.917647 0.607843
0.352941 0.933333 0.635294
0.517647 0.956863 0.666667
0.686275 0.968627 0.678431
0.858824 0.952941 0.709804
0.011765 0.145098 0.756863
0.215686 0.117647 0.686275
0.415686 0.101961 0.674510
0.600000 0.101961 0.666667
0.776471 0.094118 0.635294
0.047059 0.356863 0.674510
0.200000 0.341176 0.674510
0.388235 0.337255 0.705882
0.615686 0.321569 0.701961
0.807843 0.298039 0.694118
0.109804 0.564706 0.701961
0.239216 0.564706 0.745098
0.419608 0.568627 0.772549
0.635294 0.552941 0.760784
0.839216 0.509804 0.760784
0.192157 0.776471 0.749020
0.305882 0.788235 0.788235
0.494118 0.780392 0.823529
0.658824 0.784314 0.835294
0.854902 0.741176 0.827451
0.262745 0.937255 0.792157
0.392157 0.945098 0.827451
0.533333 0.960784 0.854902
0.713726 0.956863 0.874510
0.898039 0.968627 0.913725
