Luts/panasonic/Patina of Rain-std.cube
TITLE "Generated by LUMIX Lab"
#LUMIXPHOTOSTYLE STD
LUT_3D_SIZE 33
0.000000 0.000000 0.011765
0.000000 0.000000 0.007843
0.023529 0.000000 0.015686
0.062745 0.000000 0.019608
0.082353 0.000000 0.027451
0.105882 0.003922 0.019608
0.137255 0.000000 0.019608
0.160784 0.000000 0.023529
0.184314 0.000000 0.023529
0.203922 0.003922 0.023529
0.227451 0.000000 0.019608
0.250980 0.000000 0.015686
0.282353 0.000000 0.007843
0.305882 0.000000 0.011765
0.329412 0.003922 0.003922
0.352941 0.000000 0.000000
0.380392 0.000000 0.007843
0.403922 0.000000 0.003922
0.431373 0.000000 0.003922
0.443137 0.000000 0.000000
0.466667 0.000000 0.000000
0.490196 0.000000 0.000000
0.505882 0.000000 0.000000
0.529412 0.000000 0.000000
0.545098 0.000000 0.000000
0.568627 0.000000 0.000000
0.592157 0.000000 0.000000
0.603922 0.003922 0.003922
0.623529 0.000000 0.000000
0.639216 0.000000 0.003922
0.662745 0.000000 0.000000
0.678431 0.000000 0.000000
0.701961 0.000000 0.003922
0.003922 0.027451 0.027451
0.000000 0.031373 0.019608
0.023529 0.023529 0.031373
0.047059 0.027451 0.015686
0.074510 0.031373 0.027451
0.098039 0.031373 0.027451
0.129412 0.031373 0.023529
0.149020 0.023529 0.027451
0.180392 0.023529 0.027451
0.203922 0.023529 0.027451
0.227451 0.023529 0.031373
0.247059 0.019608 0.027451
0.278431 0.019608 0.019608
0.301961 0.023529 0.019608
0.325490 0.023529 0.015686
0.349020 0.027451 0.007843
0.372549 0.023529 0.007843
0.400000 0.019608 0.007843
0.419608 0.023529 0.007843
0.435294 0.019608 0.000000
0.458824 0.019608 0.000000
0.478431 0.023529 0.000000
0.501961 0.023529 0.003922
0.521569 0.019608 0.000000
0.541176 0.023529 0.000000
0.560784 0.019608 0.000000
0.584314 0.027451 0.003922
0.603922 0.023529 0.000000
0.615686 0.019608 0.000000
0.639216 0.019608 0.000000
0.654902 0.019608 0.000000
0.678431 0.019608 0.007843
0.694118 0.019608 0.000000
0.000000 0.074510 0.039216
0.003922 0.070588 0.039216
0.031373 0.074510 0.043137
0.047059 0.062745 0.031373
0.078431 0.066667 0.039216
0.105882 0.066667 0.039216
0.125490 0.062745 0.035294
0.149020 0.062745 0.035294
0.176471 0.054902 0.039216
0.203922 0.050980 0.039216
0.223529 0.047059 0.027451
0.254902 0.050980 0.031373
0.282353 0.050980 0.031373
0.301961 0.047059 0.035294
0.325490 0.047059 0.031373
0.345098 0.043137 0.027451
0.368627 0.047059 0.027451
0.400000 0.043137 0.023529
0.415686 0.047059 0.011765
0.431373 0.047059 0.003922
0.454902 0.047059 0.011765
0.478431 0.047059 0.011765
0.501961 0.050980 0.003922
0.521569 0.047059 0.003922
0.545098 0.047059 0.003922
0.572549 0.047059 0.003922
0.592157 0.043137 0.000000
0.596078 0.043137 0.000000
0.623529 0.054902 0.003922
0.639216 0.047059 0.000000
0.658824 0.050980 0.003922
0.678431 0.047059 0.007843
0.698039 0.050980 0.003922
0.000000 0.117647 0.050980
0.003922 0.117647 0.047059
0.019608 0.109804 0.039216
0.047059 0.113725 0.043137
0.082353 0.101961 0.047059
0.109804 0.101961 0.043137
0.133333 0.098039 0.047059
0.152941 0.094118 0.043137
0.176471 0.082353 0.043137
0.203922 0.078431 0.043137
0.231373 0.082353 0.043137
0.254902 0.074510 0.039216
0.278431 0.074510 0.043137
0.301961 0.070588 0.039216
0.317647 0.074510 0.039216
0.341176 0.074510 0.035294
0.368627 0.074510 0.047059
0.384314 0.078431 0.039216
0.403922 0.074510 0.027451
0.427451 0.074510 0.031373
0.454902 0.074510 0.023529
0.482353 0.078431 0.015686
0.501961 0.074510 0.019608
0.525490 0.074510 0.015686
0.541176 0.074510 0.011765
0.564706 0.070588 0.003922
0.588235 0.066667 0.007843
0.603922 0.078431 0.003922
0.623529 0.074510 0.000000
0.643137 0.078431 0.003922
0.662745 0.074510 0.000000
0.686275 0.074510 0.000000
0.705882 0.078431 0.000000
0.003922 0.160784 0.058824
0.003922 0.160784 0.050980
0.027451 0.152941 0.054902
0.047059 0.152941 0.054902
0.070588 0.145098 0.058824
0.090196 0.145098 0.054902
0.129412 0.129412 0.050980
0.156863 0.129412 0.050980
0.176471 0.117647 0.050980
0.196078 0.117647 0.047059
0.231373 0.109804 0.050980
0.254902 0.105882 0.054902
0.274510 0.105882 0.043137
0.294118 0.101961 0.047059
0.317647 0.101961 0.043137
0.333333 0.101961 0.039216
0.356863 0.101961 0.039216
0.380392 0.105882 0.035294
0.403922 0.101961 0.039216
0.431373 0.098039 0.039216
0.450980 0.101961 0.031373
0.478431 0.101961 0.031373
0.501961 0.098039 0.023529
0.525490 0.101961 0.023529
0.549020 0.101961 0.023529
0.564706 0.101961 0.023529
0.588235 0.101961 0.015686
0.603922 0.101961 0.019608
0.631373 0.109804 0.011765
0.647059 0.105882 0.015686
0.666667 0.105882 0.003922
0.694118 0.109804 0.003922
0.709804 0.101961 0.003922
0.000000 0.192157 0.066667
0.003922 0.192157 0.058824
0.031373 0.184314 0.062745
0.050980 0.180392 0.058824
0.066667 0.180392 0.054902
0.090196 0.180392 0.062745
0.121569 0.176471 0.070588
0.149020 0.164706 0.062745
0.180392 0.149020 0.058824
0.203922 0.149020 0.058824
0.223529 0.149020 0.054902
0.250980 0.141176 0.050980
0.266667 0.141176 0.050980
0.290196 0.141176 0.050980
0.317647 0.137255 0.047059
0.333333 0.141176 0.047059
0.356863 0.137255 0.047059
0.388235 0.137255 0.050980
0.403922 0.129412 0.043137
0.427451 0.129412 0.050980
0.450980 0.129412 0.039216
0.478431 0.129412 0.035294
0.501961 0.129412 0.035294
0.529412 0.129412 0.035294
0.552941 0.129412 0.039216
0.576471 0.133333 0.039216
0.596078 0.129412 0.023529
0.611765 0.129412 0.031373
0.631373 0.133333 0.027451
0.643137 0.129412 0.019608
0.670588 0.125490 0.019608
0.694118 0.137255 0.019608
0.713726 0.133333 0.007843
0.000000 0.235294 0.074510
0.011765 0.235294 0.070588
0.035294 0.227451 0.066667
0.058824 0.223529 0.070588
0.078431 0.219608 0.070588
0.098039 0.215686 0.074510
0.105882 0.207843 0.062745
0.141176 0.203922 0.062745
0.168627 0.188235 0.070588
0.192157 0.184314 0.058824
0.215686 0.184314 0.062745
0.243137 0.172549 0.054902
0.262745 0.176471 0.054902
0.286275 0.176471 0.054902
0.309804 0.172549 0.054902
0.337255 0.168627 0.054902
0.360784 0.172549 0.054902
0.384314 0.160784 0.047059
0.411765 0.164706 0.050980
0.427451 0.160784 0.047059
0.462745 0.160784 0.050980
0.482353 0.156863 0.047059
0.505882 0.156863 0.054902
0.525490 0.156863 0.039216
0.560784 0.164706 0.047059
0.568627 0.160784 0.039216
0.596078 0.160784 0.039216
0.615686 0.160784 0.031373
0.635294 0.160784 0.039216
0.654902 0.160784 0.035294
0.678431 0.160784 0.031373
0.701961 0.160784 0.031373
0.721569 0.164706 0.031373
0.000000 0.270588 0.082353
0.015686 0.262745 0.078431
0.035294 0.258824 0.082353
0.058824 0.254902 0.078431
0.082353 0.250980 0.074510
0.101961 0.247059 0.070588
0.113725 0.247059 0.074510
0.137255 0.235294 0.070588
0.156863 0.231373 0.074510
0.184314 0.227451 0.070588
0.211765 0.211765 0.070588
0.239216 0.211765 0.062745
0.266667 0.211765 0.066667
0.290196 0.207843 0.062745
0.309804 0.203922 0.058824
0.341176 0.200000 0.058824
0.364706 0.200000 0.058824
0.396078 0.200000 0.062745
0.403922 0.196078 0.054902
0.439216 0.196078 0.066667
0.458824 0.192157 0.054902
0.490196 0.192157 0.058824
0.513726 0.192157 0.058824
0.529412 0.192157 0.047059
0.556863 0.192157 0.047059
0.580392 0.188235 0.047059
0.603922 0.188235 0.047059
0.623529 0.192157 0.047059
0.631373 0.188235 0.047059
0.662745 0.188235 0.043137
0.678431 0.188235 0.039216
0.709804 0.188235 0.043137
0.725490 0.188235 0.039216
0.000000 0.301961 0.098039
0.015686 0.301961 0.086275
0.039216 0.290196 0.078431
0.062745 0.294118 0.082353
0.070588 0.282353 0.078431
0.094118 0.278431 0.074510
0.113725 0.270588 0.078431
0.133333 0.266667 0.082353
0.156863 0.266667 0.078431
0.180392 0.266667 0.078431
0.200000 0.270588 0.074510
0.235294 0.250980 0.078431
0.266667 0.250980 0.074510
0.294118 0.243137 0.070588
0.313726 0.239216 0.066667
0.337255 0.235294 0.066667
0.364706 0.227451 0.062745
0.392157 0.227451 0.062745
0.419608 0.227451 0.062745
0.443137 0.227451 0.066667
0.462745 0.215686 0.066667
0.482353 0.227451 0.070588
0.505882 0.223529 0.058824
0.533333 0.223529 0.058824
0.556863 0.227451 0.047059
0.580392 0.227451 0.054902
0.596078 0.223529 0.058824
0.615686 0.227451 0.058824
0.639216 0.223529 0.058824
0.666667 0.215686 0.054902
0.690196 0.215686 0.054902
0.709804 0.215686 0.050980
0.733333 0.215686 0.054902
0.000000 0.333333 0.094118
0.019608 0.333333 0.086275
0.043137 0.325490 0.090196
0.062745 0.317647 0.082353
0.082353 0.313726 0.086275
0.101961 0.305882 0.078431
0.117647 0.305882 0.074510
0.141176 0.301961 0.082353
0.156863 0.298039 0.078431
0.172549 0.301961 0.086275
0.196078 0.301961 0.086275
0.223529 0.298039 0.082353
0.258824 0.278431 0.082353
0.286275 0.270588 0.078431
0.313726 0.266667 0.070588
0.349020 0.262745 0.070588
0.368627 0.258824 0.074510
0.396078 0.254902 0.074510
0.419608 0.254902 0.078431
0.447059 0.258824 0.070588
0.458824 0.254902 0.074510
0.494118 0.258824 0.070588
0.509804 0.258824 0.070588
0.533333 0.262745 0.062745
0.560784 0.266667 0.066667
0.588235 0.258824 0.066667
0.600000 0.254902 0.066667
0.623529 0.247059 0.070588
0.643137 0.250980 0.062745
0.678431 0.247059 0.062745
0.694118 0.247059 0.066667
0.717647 0.247059 0.070588
0.737255 0.247059 0.058824
0.000000 0.364706 0.101961
0.027451 0.360784 0.090196
0.043137 0.352941 0.090196
0.062745 0.349020 0.086275
0.086275 0.341176 0.082353
0.101961 0.337255 0.086275
0.121569 0.333333 0.082353
0.141176 0.333333 0.070588
0.160784 0.333333 0.086275
0.172549 0.325490 0.094118
0.196078 0.329412 0.086275
0.211765 0.329412 0.086275
0.250980 0.321569 0.086275
0.278431 0.313726 0.082353
0.317647 0.301961 0.078431
0.345098 0.294118 0.082353
0.372549 0.290196 0.086275
0.400000 0.294118 0.078431
0.419608 0.290196 0.082353
0.443137 0.290196 0.082353
0.462745 0.294118 0.082353
0.486275 0.290196 0.074510
0.513726 0.290196 0.074510
0.549020 0.286275 0.074510
0.564706 0.290196 0.070588
0.588235 0.286275 0.074510
0.611765 0.286275 0.074510
0.635294 0.286275 0.082353
0.654902 0.274510 0.074510
0.678431 0.274510 0.074510
0.705882 0.278431 0.078431
0.725490 0.274510 0.074510
0.745098 0.278431 0.074510
0.007843 0.388235 0.101961
0.027451 0.388235 0.098039
0.050980 0.380392 0.098039
0.066667 0.372549 0.090196
0.086275 0.364706 0.090196
0.098039 0.372549 0.090196
0.125490 0.368627 0.082353
0.141176 0.368627 0.090196
0.164706 0.364706 0.086275
0.180392 0.356863 0.086275
0.203922 0.356863 0.086275
0.223529 0.352941 0.090196
0.254902 0.352941 0.090196
0.282353 0.349020 0.094118
0.305882 0.337255 0.094118
0.341176 0.325490 0.090196
0.372549 0.325490 0.090196
0.396078 0.325490 0.090196
0.419608 0.325490 0.090196
0.439216 0.321569 0.094118
0.462745 0.321569 0.086275
0.494118 0.325490 0.082353
0.509804 0.321569 0.086275
0.545098 0.321569 0.074510
0.568627 0.321569 0.082353
0.588235 0.317647 0.078431
0.611765 0.313726 0.082353
0.635294 0.313726 0.082353
0.662745 0.309804 0.086275
0.682353 0.313726 0.086275
0.701961 0.309804 0.082353
0.725490 0.309804 0.090196
0.737255 0.309804 0.078431
0.003922 0.415686 0.105882
0.031373 0.407843 0.109804
0.054902 0.403922 0.098039
0.070588 0.403922 0.101961
0.090196 0.400000 0.098039
0.105882 0.400000 0.090196
0.121569 0.400000 0.086275
0.152941 0.400000 0.086275
0.172549 0.392157 0.090196
0.188235 0.392157 0.090196
0.211765 0.388235 0.094118
0.231373 0.380392 0.098039
0.258824 0.384314 0.098039
0.286275 0.380392 0.098039
0.313726 0.376471 0.094118
0.329412 0.376471 0.094118
0.372549 0.360784 0.098039
0.388235 0.360784 0.098039
0.419608 0.360784 0.098039
0.443137 0.352941 0.094118
0.466667 0.360784 0.098039
0.486275 0.356863 0.098039
0.517647 0.349020 0.094118
0.552941 0.352941 0.090196
0.572549 0.349020 0.086275
0.596078 0.349020 0.094118
0.623529 0.345098 0.094118
0.647059 0.345098 0.101961
0.666667 0.341176 0.098039
0.690196 0.341176 0.090196
0.709804 0.337255 0.094118
0.729412 0.341176 0.098039
0.756863 0.337255 0.094118
0.019608 0.443137 0.109804
0.039216 0.439216 0.105882
0.058824 0.435294 0.105882
0.078431 0.431373 0.109804
0.090196 0.427451 0.101961
0.109804 0.431373 0.101961
0.129412 0.427451 0.094118
0.152941 0.427451 0.101961
0.168627 0.427451 0.090196
0.196078 0.419608 0.094118
0.211765 0.419608 0.098039
0.235294 0.419608 0.098039
0.262745 0.415686 0.105882
0.278431 0.415686 0.101961
0.305882 0.411765 0.101961
0.329412 0.411765 0.101961
0.349020 0.407843 0.105882
0.380392 0.403922 0.105882
0.419608 0.396078 0.105882
0.443137 0.388235 0.101961
0.478431 0.384314 0.101961
0.494118 0.388235 0.101961
0.533333 0.388235 0.098039
0.560784 0.380392 0.101961
0.584314 0.380392 0.105882
0.603922 0.376471 0.101961
0.623529 0.372549 0.105882
0.643137 0.376471 0.105882
0.670588 0.372549 0.101961
0.690196 0.368627 0.101961
0.713726 0.368627 0.101961
0.733333 0.364706 0.098039
0.760784 0.364706 0.105882
0.023529 0.466667 0.105882
0.047059 0.466667 0.113725
0.062745 0.458824 0.105882
0.078431 0.458824 0.101961
0.098039 0.462745 0.105882
0.121569 0.462745 0.105882
0.137255 0.454902 0.105882
0.149020 0.458824 0.101961
0.176471 0.454902 0.094118
0.207843 0.454902 0.101961
0.223529 0.450980 0.101961
0.243137 0.447059 0.105882
0.266667 0.447059 0.113725
0.290196 0.447059 0.113725
0.309804 0.447059 0.109804
0.329412 0.450980 0.105882
0.360784 0.447059 0.113725
0.384314 0.439216 0.117647
0.407843 0.435294 0.113725
0.450980 0.427451 0.113725
0.482353 0.419608 0.101961
0.505882 0.415686 0.101961
0.545098 0.411765 0.113725
0.564706 0.411765 0.109804
0.588235 0.411765 0.109804
0.611765 0.411765 0.109804
0.631373 0.407843 0.113725
0.662745 0.403922 0.117647
0.674510 0.400000 0.109804
0.690196 0.403922 0.109804
0.721569 0.400000 0.117647
0.737255 0.396078 0.109804
0.760784 0.396078 0.113725
0.031373 0.494118 0.117647
0.047059 0.494118 0.113725
0.062745 0.494118 0.105882
0.086275 0.486275 0.109804
0.101961 0.494118 0.109804
0.121569 0.490196 0.105882
0.145098 0.490196 0.113725
0.160784 0.490196 0.109804
0.188235 0.482353 0.109804
0.211765 0.486275 0.101961
0.231373 0.482353 0.105882
0.250980 0.482353 0.105882
0.278431 0.482353 0.113725
0.298039 0.478431 0.113725
0.309804 0.478431 0.117647
0.333333 0.478431 0.117647
0.356863 0.478431 0.117647
0.376471 0.478431 0.113725
0.411765 0.470588 0.113725
0.443137 0.462745 0.113725
0.482353 0.450980 0.117647
0.521569 0.443137 0.125490
0.549020 0.435294 0.121569
0.572549 0.435294 0.121569
0.596078 0.439216 0.117647
0.611765 0.439216 0.121569
0.635294 0.439216 0.121569
0.662745 0.431373 0.117647
0.686275 0.431373 0.125490
0.705882 0.435294 0.121569
0.721569 0.427451 0.121569
0.745098 0.427451 0.121569
0.780392 0.423529 0.121569
0.035294 0.517647 0.105882
0.054902 0.521569 0.113725
0.070588 0.521569 0.109804
0.086275 0.521569 0.113725
0.105882 0.517647 0.109804
0.125490 0.513726 0.113725
0.149020 0.513726 0.117647
0.168627 0.513726 0.125490
0.196078 0.509804 0.113725
0.219608 0.509804 0.113725
0.235294 0.513726 0.105882
0.254902 0.509804 0.109804
0.274510 0.509804 0.117647
0.290196 0.513726 0.117647
0.313726 0.509804 0.121569
0.337255 0.501961 0.117647
0.360784 0.509804 0.121569
0.380392 0.505882 0.125490
0.423529 0.501961 0.121569
0.447059 0.501961 0.121569
0.478431 0.490196 0.125490
0.501961 0.482353 0.129412
0.552941 0.466667 0.125490
0.568627 0.470588 0.129412
0.600000 0.466667 0.129412
0.623529 0.470588 0.129412
0.647059 0.470588 0.129412
0.658824 0.466667 0.125490
0.690196 0.474510 0.133333
0.705882 0.466667 0.117647
0.733333 0.466667 0.133333
0.756863 0.458824 0.137255
0.788235 0.458824 0.137255
0.047059 0.537255 0.121569
0.066667 0.541176 0.113725
0.082353 0.541176 0.117647
0.094118 0.541176 0.117647
0.113725 0.545098 0.117647
0.133333 0.541176 0.121569
0.160784 0.541176 0.121569
0.172549 0.541176 0.117647
0.200000 0.541176 0.121569
0.219608 0.537255 0.117647
0.243137 0.537255 0.125490
0.262745 0.537255 0.113725
0.282353 0.537255 0.121569
0.301961 0.541176 0.129412
0.321569 0.537255 0.125490
0.345098 0.533333 0.141176
0.376471 0.525490 0.137255
0.400000 0.529412 0.133333
0.423529 0.529412 0.125490
0.454902 0.521569 0.129412
0.486275 0.517647 0.133333
0.509804 0.517647 0.133333
0.529412 0.513726 0.137255
0.580392 0.509804 0.141176
0.600000 0.505882 0.137255
0.619608 0.501961 0.137255
0.654902 0.505882 0.141176
0.670588 0.501961 0.145098
0.694118 0.505882 0.137255
0.725490 0.501961 0.145098
0.745098 0.498039 0.141176
0.768627 0.490196 0.145098
0.788235 0.482353 0.141176
0.050980 0.560784 0.121569
0.070588 0.564706 0.125490
0.094118 0.572549 0.129412
0.105882 0.560784 0.117647
0.125490 0.564706 0.117647
0.145098 0.560784 0.121569
0.160784 0.560784 0.125490
0.184314 0.560784 0.121569
0.203922 0.556863 0.117647
0.227451 0.564706 0.121569
0.247059 0.564706 0.113725
0.274510 0.568627 0.125490
0.290196 0.564706 0.129412
0.309804 0.568627 0.137255
0.325490 0.568627 0.133333
0.349020 0.568627 0.133333
0.376471 0.564706 0.141176
0.415686 0.552941 0.137255
0.435294 0.556863 0.133333
0.470588 0.552941 0.141176
0.486275 0.556863 0.133333
0.513726 0.556863 0.141176
0.541176 0.552941 0.141176
0.560784 0.552941 0.141176
0.600000 0.537255 0.149020
0.623529 0.537255 0.152941
0.654902 0.529412 0.149020
0.678431 0.529412 0.149020
0.709804 0.529412 0.149020
0.729412 0.525490 0.152941
0.749020 0.521569 0.152941
0.776471 0.513726 0.149020
0.800000 0.513726 0.156863
0.054902 0.588235 0.117647
0.070588 0.584314 0.121569
0.094118 0.584314 0.121569
0.109804 0.584314 0.125490
0.129412 0.588235 0.129412
0.149020 0.584314 0.133333
0.168627 0.580392 0.129412
0.196078 0.584314 0.121569
0.215686 0.588235 0.125490
0.243137 0.592157 0.129412
0.258824 0.596078 0.129412
0.282353 0.596078 0.129412
0.301961 0.600000 0.129412
0.317647 0.603922 0.137255
0.337255 0.600000 0.137255
0.356863 0.596078 0.145098
0.392157 0.588235 0.149020
0.419608 0.584314 0.145098
0.447059 0.580392 0.145098
0.462745 0.588235 0.137255
0.494118 0.592157 0.145098
0.509804 0.588235 0.149020
0.533333 0.588235 0.156863
0.564706 0.588235 0.149020
0.588235 0.588235 0.149020
0.611765 0.584314 0.152941
0.650980 0.564706 0.152941
0.686275 0.556863 0.160784
0.709804 0.556863 0.164706
0.733333 0.552941 0.168627
0.756863 0.549020 0.156863
0.788235 0.545098 0.156863
0.796078 0.549020 0.160784
0.058824 0.603922 0.129412
0.070588 0.603922 0.125490
0.101961 0.607843 0.133333
0.113725 0.607843 0.129412
0.133333 0.611765 0.137255
0.149020 0.611765 0.125490
0.184314 0.611765 0.129412
0.203922 0.619608 0.137255
0.231373 0.623529 0.137255
0.250980 0.619608 0.133333
0.266667 0.623529 0.133333
0.294118 0.623529 0.141176
0.317647 0.623529 0.137255
0.337255 0.627451 0.145098
0.345098 0.627451 0.149020
0.376471 0.623529 0.149020
0.396078 0.631373 0.152941
0.419608 0.619608 0.152941
0.450980 0.619608 0.152941
0.478431 0.615686 0.156863
0.498039 0.619608 0.156863
0.517647 0.623529 0.156863
0.533333 0.627451 0.164706
0.560784 0.627451 0.160784
0.588235 0.627451 0.160784
0.627451 0.615686 0.164706
0.650980 0.607843 0.168627
0.690196 0.596078 0.172549
0.713726 0.588235 0.168627
0.741176 0.580392 0.172549
0.749020 0.584314 0.168627
0.780392 0.576471 0.168627
0.815686 0.568627 0.168627
0.062745 0.627451 0.133333
0.086275 0.635294 0.137255
0.105882 0.631373 0.133333
0.129412 0.635294 0.133333
0.137255 0.635294 0.137255
0.164706 0.635294 0.133333
0.180392 0.639216 0.141176
0.207843 0.639216 0.141176
0.219608 0.647059 0.133333
0.258824 0.647059 0.141176
0.278431 0.647059 0.149020
0.301961 0.650980 0.149020
0.325490 0.650980 0.149020
0.337255 0.654902 0.149020
0.360784 0.654902 0.145098
0.388235 0.650980 0.152941
0.411765 0.658824 0.160784
0.427451 0.658824 0.156863
0.454902 0.654902 0.164706
0.486275 0.650980 0.164706
0.501961 0.650980 0.160784
0.521569 0.658824 0.168627
0.545098 0.654902 0.164706
0.572549 0.650980 0.172549
0.603922 0.650980 0.172549
0.627451 0.647059 0.164706
0.662745 0.627451 0.168627
0.686275 0.627451 0.172549
0.717647 0.611765 0.176471
0.745098 0.611765 0.184314
0.764706 0.607843 0.184314
0.788235 0.600000 0.180392
0.815686 0.592157 0.184314
0.078431 0.654902 0.149020
0.086275 0.654902 0.133333
0.109804 0.654902 0.133333
0.133333 0.654902 0.141176
0.156863 0.666667 0.141176
0.176471 0.658824 0.145098
0.196078 0.670588 0.141176
0.215686 0.670588 0.141176
0.239216 0.678431 0.149020
0.266667 0.674510 0.152941
0.282353 0.674510 0.149020
0.305882 0.674510 0.149020
0.325490 0.674510 0.156863
0.352941 0.674510 0.152941
0.376471 0.682353 0.164706
0.400000 0.682353 0.164706
0.427451 0.682353 0.164706
0.450980 0.682353 0.164706
0.466667 0.682353 0.168627
0.494118 0.686275 0.168627
0.517647 0.682353 0.172549
0.537255 0.674510 0.176471
0.541176 0.682353 0.172549
0.588235 0.678431 0.176471
0.607843 0.674510 0.176471
0.639216 0.662745 0.180392
0.662745 0.666667 0.180392
0.686275 0.654902 0.180392
0.709804 0.647059 0.188235
0.737255 0.647059 0.192157
0.760784 0.627451 0.188235
0.788235 0.631373 0.192157
0.811765 0.627451 0.188235
0.090196 0.686275 0.145098
0.094118 0.682353 0.141176
0.129412 0.686275 0.145098
0.141176 0.686275 0.141176
0.156863 0.690196 0.149020
0.188235 0.694118 0.149020
0.207843 0.698039 0.149020
0.227451 0.701961 0.149020
0.250980 0.701961 0.149020
0.278431 0.694118 0.152941
0.298039 0.690196 0.149020
0.321569 0.698039 0.156863
0.337255 0.701961 0.164706
0.368627 0.701961 0.156863
0.392157 0.698039 0.164706
0.411765 0.701961 0.164706
0.431373 0.705882 0.172549
0.458824 0.701961 0.176471
0.478431 0.709804 0.168627
0.509804 0.705882 0.176471
0.521569 0.701961 0.180392
0.545098 0.698039 0.184314
0.580392 0.694118 0.184314
0.592157 0.698039 0.192157
0.619608 0.694118 0.188235
0.639216 0.690196 0.188235
0.666667 0.686275 0.188235
0.690196 0.686275 0.184314
0.709804 0.678431 0.188235
0.733333 0.674510 0.192157
0.749020 0.674510 0.188235
0.788235 0.662745 0.203922
0.811765 0.658824 0.200000
0.094118 0.701961 0.152941
0.109804 0.701961 0.149020
0.137255 0.705882 0.145098
0.152941 0.709804 0.152941
0.172549 0.721569 0.152941
0.188235 0.717647 0.164706
0.223529 0.721569 0.152941
0.243137 0.717647 0.156863
0.262745 0.721569 0.152941
0.290196 0.717647 0.164706
0.313726 0.717647 0.168627
0.329412 0.717647 0.164706
0.349020 0.721569 0.164706
0.380392 0.717647 0.172549
0.396078 0.721569 0.172549
0.419608 0.729412 0.172549
0.447059 0.725490 0.168627
0.470588 0.733333 0.172549
0.494118 0.733333 0.176471
0.505882 0.733333 0.180392
0.529412 0.725490 0.184314
0.552941 0.725490 0.188235
0.576471 0.725490 0.196078
0.607843 0.717647 0.196078
0.615686 0.721569 0.192157
0.650980 0.721569 0.196078
0.670588 0.717647 0.192157
0.690196 0.721569 0.196078
0.705882 0.713726 0.196078
0.741176 0.705882 0.203922
0.760784 0.701961 0.207843
0.792157 0.698039 0.215686
0.823529 0.682353 0.215686
0.109804 0.725490 0.149020
0.117647 0.729412 0.152941
0.145098 0.733333 0.160784
0.172549 0.733333 0.152941
0.180392 0.741176 0.160784
0.196078 0.745098 0.160784
0.227451 0.745098 0.156863
0.254902 0.741176 0.164706
0.270588 0.741176 0.168627
0.294118 0.741176 0.168627
0.317647 0.737255 0.172549
0.341176 0.737255 0.172549
0.368627 0.741176 0.176471
0.384314 0.741176 0.176471
0.400000 0.752941 0.180392
0.435294 0.749020 0.172549
0.454902 0.752941 0.176471
0.482353 0.756863 0.172549
0.501961 0.760784 0.180392
0.521569 0.756863 0.184314
0.541176 0.760784 0.184314
0.556863 0.760784 0.180392
0.584314 0.756863 0.196078
0.603922 0.749020 0.200000
0.635294 0.749020 0.207843
0.650980 0.745098 0.203922
0.674510 0.749020 0.207843
0.705882 0.737255 0.211765
0.717647 0.733333 0.203922
0.745098 0.729412 0.211765
0.760784 0.729412 0.207843
0.780392 0.725490 0.203922
0.807843 0.717647 0.215686
0.117647 0.745098 0.160784
0.137255 0.749020 0.160784
0.152941 0.756863 0.160784
0.176471 0.756863 0.160784
0.196078 0.760784 0.160784
0.207843 0.768627 0.164706
0.235294 0.764706 0.164706
0.262745 0.764706 0.172549
0.286275 0.760784 0.168627
0.309804 0.756863 0.176471
0.329412 0.760784 0.176471
0.356863 0.768627 0.184314
0.372549 0.764706 0.180392
0.392157 0.776471 0.184314
0.415686 0.780392 0.180392
0.443137 0.784314 0.176471
0.470588 0.788235 0.180392
0.494118 0.792157 0.180392
0.513726 0.788235 0.180392
0.525490 0.788235 0.188235
0.545098 0.792157 0.192157
0.564706 0.780392 0.192157
0.588235 0.780392 0.200000
0.615686 0.776471 0.207843
0.639216 0.772549 0.211765
0.658824 0.768627 0.215686
0.674510 0.772549 0.223529
0.698039 0.764706 0.219608
