Luts/panasonic/TXD ColorHarmony LUT -std.cube
# Created by Adobe Lightroom plugin Export LUT (1.24.0)
# www.johnrellis.com/lightroom/exportlut.htm
# Photo: P1069527_1 拷贝.jpg
# Color profile: C:\Program Files (x86)\Common Files\Adobe\Color\Profiles\Recommended\sRGB Color Space Profile.icm
LUT_3D_SIZE 9
DOMAIN_MIN 0.0 0.0 0.0
DOMAIN_MAX 1.0 1.0 1.0
0.026093 0.082826 0.065278
0.089998 0.084535 0.060151
0.255772 0.107362 0.051820
0.519585 0.140963 0.033967
0.762051 0.190768 0.038727
0.907866 0.294377 0.059907
0.991882 0.376501 0.076448
0.997467 0.424567 0.086000
0.996338 0.462531 0.090028
0.030854 0.129641 0.088655
0.079744 0.138247 0.073854
0.242283 0.172854 0.060792
0.518669 0.229618 0.046815
0.755917 0.281956 0.056855
0.899901 0.355169 0.071260
0.989319 0.411170 0.083192
0.997131 0.451820 0.088808
0.994354 0.485786 0.092470
0.040070 0.227695 0.138460
0.082124 0.230045 0.135286
0.220981 0.266636 0.098146
0.516533 0.356054 0.069459
0.751583 0.432868 0.083345
0.896788 0.479255 0.090028
0.980621 0.504417 0.094240
0.991821 0.528283 0.096712
0.991516 0.547997 0.099489
0.033021 0.394751 0.216831
0.103792 0.395636 0.218387
0.207523 0.409491 0.192508
0.471870 0.466499 0.085634
0.720089 0.539391 0.093050
0.874022 0.599420 0.101350
0.963592 0.614435 0.104799
0.990692 0.623041 0.105867
0.990570 0.629541 0.106111
0.145449 0.564782 0.329473
0.189731 0.563897 0.328801
0.275486 0.564416 0.316075
0.422827 0.585901 0.242374
0.658259 0.620417 0.102632
0.821439 0.653010 0.106264
0.928710 0.690089 0.110536
0.989746 0.709651 0.205142
0.990478 0.714839 0.235142
0.347936 0.687984 0.473121
0.368353 0.686519 0.471321
0.418860 0.686915 0.467750
0.497475 0.692256 0.441962
0.609674 0.705592 0.345647
0.769589 0.721645 0.190707
0.889097 0.735103 0.116579
0.978332 0.766049 0.275639
0.991150 0.788144 0.403784
0.526879 0.775021 0.610346
0.534813 0.774228 0.609644
0.555932 0.773404 0.607752
0.591943 0.774502 0.600000
0.645136 0.781888 0.569146
0.732753 0.792142 0.486885
0.848447 0.801602 0.370031
0.947509 0.808957 0.302922
0.991150 0.829557 0.411566
0.658656 0.851652 0.708705
0.662440 0.851286 0.708522
0.673365 0.851499 0.709102
0.690822 0.851499 0.707454
0.714961 0.853330 0.699001
0.753689 0.860990 0.672724
0.821927 0.870726 0.619562
0.915251 0.877195 0.526909
0.991119 0.877714 0.462287
0.754269 0.920623 0.778103
0.756191 0.920439 0.777951
0.762112 0.920684 0.778286
0.772976 0.920745 0.778012
0.788479 0.921447 0.775082
0.809079 0.925475 0.762570
0.847654 0.932219 0.735775
0.914855 0.939727 0.689937
0.992798 0.942840 0.629358
0.029633 0.089204 0.131533
0.082490 0.103517 0.116854
0.210849 0.091188 0.104189
0.510399 0.021942 0.116976
0.755276 0.000214 0.058503
0.913146 0.081727 0.020874
0.996002 0.258640 0.057099
0.994812 0.360143 0.073121
0.997436 0.428229 0.086336
0.013245 0.156588 0.136263
0.087648 0.152926 0.133791
0.253880 0.156374 0.118349
0.523369 0.180117 0.125795
0.759365 0.184695 0.066377
0.906279 0.259770 0.053346
0.988739 0.343877 0.070161
0.996521 0.412696 0.083650
0.996521 0.460212 0.089845
0.068727 0.248936 0.176608
0.110262 0.248997 0.182284
0.226688 0.275944 0.160250
0.519371 0.355230 0.155459
0.750790 0.406409 0.082399
0.894408 0.445991 0.086549
0.978637 0.477729 0.091707
0.992523 0.509514 0.094423
0.991577 0.536278 0.097963
0.092012 0.406683 0.259068
0.139315 0.406470 0.260472
0.222416 0.412665 0.246494
0.465766 0.467140 0.170077
0.713649 0.531731 0.092348
0.865385 0.587671 0.100252
0.956237 0.603143 0.103395
0.990875 0.615167 0.105531
0.990631 0.624994 0.106020
0.188632 0.569268 0.368231
0.222263 0.567559 0.367926
0.296971 0.566827 0.361700
0.434333 0.586023 0.307866
0.653590 0.617243 0.175967
0.816373 0.649317 0.105684
0.924773 0.690913 0.231418
0.991516 0.711666 0.311437
0.991211 0.716823 0.323186
0.366369 0.688563 0.497292
0.386419 0.687678 0.497658
0.431281 0.687495 0.495491
0.504173 0.691493 0.478340
0.611109 0.704158 0.397498
0.764920 0.721035 0.276768
0.885801 0.736477 0.232700
0.971344 0.769589 0.362127
0.991302 0.792508 0.467536
0.539300 0.776181 0.624048
0.546990 0.775479 0.623743
0.566461 0.775082 0.622950
0.600885 0.776120 0.618769
0.650050 0.783017 0.593683
0.731991 0.793454 0.521813
0.847166 0.803799 0.421454
0.945434 0.811948 0.372503
0.990875 0.833066 0.471473
0.662257 0.851530 0.713558
0.665980 0.851255 0.713527
0.676173 0.851102 0.713832
0.693446 0.851408 0.712581
0.716732 0.852506 0.705318
0.754086 0.859373 0.681880
0.820493 0.869535 0.632563
0.913970 0.878294 0.555077
0.992676 0.881041 0.502770
0.758602 0.922301 0.782834
0.760616 0.922210 0.782803
0.766110 0.922271 0.782925
0.775875 0.921965 0.782071
0.791012 0.922271 0.779416
0.811337 0.926085 0.767666
0.849180 0.933196 0.742519
0.915373 0.940520 0.699092
0.993744 0.944579 0.645136
0.027070 0.104982 0.291173
0.120943 0.125704 0.277165
0.219944 0.148745 0.242710
0.386053 0.128481 0.199527
0.708797 0.018891 0.231022
0.903655 0.001526 0.223239
0.992157 0.081270 0.210666
0.994568 0.303960 0.211124
0.995605 0.411994 0.212131
0.014405 0.169192 0.284855
0.088197 0.172519 0.289036
0.223941 0.201480 0.257633
0.428168 0.179782 0.221134
0.736110 0.017304 0.239353
0.902922 0.035065 0.224796
0.987823 0.269780 0.232731
0.994842 0.387396 0.237980
0.995239 0.458900 0.237644
0.016876 0.307897 0.289586
0.016968 0.305516 0.288670
0.228336 0.300664 0.289891
0.531182 0.329137 0.279210
0.750149 0.354528 0.278080
0.885893 0.403449 0.270817
0.970489 0.455879 0.275425
0.992370 0.503990 0.284001
0.992493 0.538964 0.286442
0.078096 0.444495 0.322972
0.179660 0.447852 0.345769
0.283238 0.447547 0.368872
0.479774 0.485267 0.323095
0.718746 0.550042 0.332586
0.856687 0.588373 0.350103
0.947936 0.607355 0.358618
0.992187 0.625208 0.376989
0.991272 0.640284 0.387060
0.259922 0.592218 0.449042
0.294621 0.590967 0.454017
0.361913 0.589868 0.460792
0.465766 0.600031 0.443336
0.657557 0.629267 0.354589
0.814298 0.665126 0.362554
0.913817 0.708400 0.449470
0.989929 0.726467 0.491279
0.994568 0.732509 0.495705
0.415473 0.696559 0.553643
0.431464 0.695094 0.554833
0.468605 0.693446 0.557092
0.525170 0.694026 0.551690
0.618463 0.707637 0.502647
0.760159 0.723507 0.414099
0.876829 0.740200 0.404730
0.961151 0.778256 0.507378
0.992279 0.801022 0.571283
0.569421 0.782437 0.655451
0.576410 0.781949 0.655940
0.592828 0.780819 0.656001
0.619898 0.780117 0.654383
0.660517 0.784390 0.640436
0.733333 0.796048 0.591424
0.841917 0.806271 0.516350
0.939086 0.817258 0.492988
0.992065 0.842618 0.573327
0.674434 0.853788 0.727291
0.678248 0.853635 0.727535
0.687709 0.853605 0.727901
0.703243 0.853574 0.727138
0.725307 0.854002 0.722347
0.757687 0.859556 0.704616
0.820554 0.871550 0.666224
0.912444 0.880522 0.608850
0.991516 0.885039 0.577813
0.759609 0.921752 0.787167
0.761074 0.921294 0.786770
0.766323 0.921141 0.786893
0.776394 0.920958 0.786557
0.791196 0.920897 0.784634
0.811460 0.924254 0.775113
0.847654 0.931762 0.751980
0.913970 0.939879 0.712734
0.993683 0.945129 0.668299
0.019654 0.124178 0.538262
0.109743 0.141329 0.536248
0.325109 0.186831 0.518608
0.486610 0.218051 0.479927
0.583185 0.155276 0.382574
0.785916 0.042939 0.378119
0.963439 0.043305 0.422309
0.996185 0.307286 0.470069
0.994263 0.446845 0.490883
0.021698 0.194186 0.530053
0.021576 0.196658 0.531579
0.300877 0.234012 0.516442
0.481910 0.277745 0.481941
0.587396 0.217380 0.390997
0.805447 0.157107 0.401099
0.958129 0.208804 0.442359
0.996551 0.378271 0.482521
0.995056 0.481300 0.496681
0.017975 0.320256 0.528679
0.017273 0.314488 0.528252
0.229343 0.326146 0.532341
0.486061 0.391424 0.500572
0.620081 0.347509 0.423285
0.847807 0.346929 0.468727
0.952178 0.430335 0.495796
0.996277 0.512139 0.519493
0.995087 0.566674 0.535668
0.022461 0.526421 0.523827
0.022950 0.524590 0.523339
0.151980 0.520653 0.523430
0.484108 0.516991 0.529870
0.718715 0.550561 0.533043
0.844785 0.583642 0.548669
0.929992 0.617151 0.569238
0.991974 0.642939 0.579553
0.991730 0.665492 0.588678
0.166629 0.621912 0.499886
0.262516 0.622309 0.515526
0.411078 0.623896 0.551568
0.521630 0.624842 0.581842
0.660060 0.650996 0.548821
0.804135 0.691951 0.581384
0.897063 0.723537 0.616327
0.973327 0.736934 0.624323
0.990448 0.747005 0.629877
0.469886 0.717128 0.617334
0.494820 0.717006 0.624048
0.540429 0.716152 0.636042
0.585687 0.714778 0.642298
0.640528 0.720241 0.630671
0.759792 0.740658 0.581933
0.869017 0.764523 0.597528
0.952239 0.800290 0.655329
0.994324 0.815274 0.672755
0.609064 0.793484 0.693324
0.617151 0.793362 0.695369
0.633997 0.792752 0.698848
0.653773 0.789639 0.698512
0.684993 0.789792 0.694759
0.738521 0.801511 0.670985
0.837613 0.815732 0.626581
0.931701 0.830381 0.625208
0.993225 0.856107 0.673030
0.693111 0.859892 0.746853
0.697047 0.859617 0.747402
0.706416 0.859281 0.748501
0.720424 0.858457 0.748653
0.740505 0.858061 0.746914
0.767147 0.861814 0.736599
0.821408 0.874144 0.709163
0.908934 0.885985 0.671809
0.989868 0.891112 0.655238
0.772091 0.927550 0.802518
0.773709 0.927031 0.802213
0.779507 0.926635 0.802518
0.789120 0.926116 0.802640
0.802701 0.925658 0.801694
0.821836 0.927153 0.795773
0.853666 0.934020 0.775937
0.916594 0.943450 0.741085
0.993988 0.947295 0.704219
0.023011 0.126772 0.705531
0.151278 0.127321 0.706661
0.397345 0.164279 0.706630
0.582666 0.274937 0.690211
0.693965 0.320165 0.667506
0.746029 0.245853 0.584100
0.838773 0.251804 0.531945
0.970855 0.327764 0.577264
0.994079 0.440803 0.619074
0.023590 0.202853 0.707973
0.023560 0.203067 0.708766
0.370855 0.236240 0.708309
0.582361 0.333959 0.693202
0.693111 0.379400 0.670314
0.745327 0.306493 0.588495
0.839658 0.313848 0.545708
0.974640 0.380102 0.590845
0.996216 0.479194 0.628321
0.020111 0.326513 0.702022
0.019867 0.329259 0.702815
0.290532 0.345800 0.708736
0.570581 0.434913 0.698939
0.685786 0.485237 0.676417
0.743526 0.420874 0.600702
0.856046 0.437140 0.584466
0.980102 0.495918 0.629603
0.992737 0.570581 0.656947
0.031403 0.512932 0.692744
0.030915 0.509422 0.692073
0.122499 0.504692 0.691341
0.502922 0.527153 0.695857
0.666804 0.584436 0.677699
0.740688 0.548150 0.625605
0.887175 0.576165 0.648280
0.974884 0.623163 0.674403
0.994537 0.661494 0.685481
0.034363 0.683894 0.677699
0.034485 0.681605 0.677058
0.166476 0.677089 0.674678
0.454810 0.666896 0.675624
0.650843 0.661830 0.677699
0.790494 0.691096 0.690272
0.886351 0.713252 0.697780
0.964538 0.732570 0.704585
0.990326 0.748836 0.706752
0.364599 0.738064 0.642664
0.413306 0.736019 0.648219
0.510430 0.735225 0.664607
0.616785 0.737942 0.692348
0.680995 0.736873 0.708705
0.756313 0.752987 0.692012
0.863798 0.787472 0.715114
0.947051 0.812467 0.732662
0.992767 0.820371 0.732692
0.603204 0.802274 0.710994
0.616907 0.802152 0.714443
0.647028 0.802792 0.723598
0.685420 0.803159 0.734707
0.715846 0.801053 0.739193
0.749264 0.805478 0.730404
0.835447 0.825040 0.708736
0.928130 0.843259 0.714778
0.991913 0.869566 0.741726
0.705959 0.869261 0.766293
0.711666 0.869047 0.767758
0.724697 0.868711 0.770993
0.741909 0.867948 0.774502
0.760647 0.866728 0.776150
0.783719 0.866148 0.771481
0.825559 0.877226 0.752956
0.908904 0.890227 0.725887
0.986877 0.900084 0.718715
0.783230 0.934112 0.819089
0.785946 0.933837 0.819608
0.792630 0.933288 0.820890
0.803037 0.932677 0.822568
0.816281 0.931762 0.823026
0.834501 0.931273 0.820890
0.861387 0.935912 0.805936
0.918944 0.946441 0.776211
0.992859 0.951812 0.748013
0.167147 0.140749 0.793576
0.289555 0.141207 0.797452
0.470741 0.155215 0.794156
0.638209 0.301488 0.789548
0.743069 0.444434 0.777310
0.811002 0.479591 0.762142
0.852445 0.413611 0.713741
0.903624 0.404517 0.667842
0.983490 0.488716 0.680201
0.046296 0.198581 0.792416
0.238712 0.202914 0.794369
0.454108 0.246952 0.795834
0.633814 0.357122 0.789151
0.738582 0.483864 0.777462
0.804837 0.513573 0.761501
0.845090 0.448066 0.711971
0.898375 0.436774 0.669276
0.983001 0.509422 0.684627
0.028809 0.335332 0.786770
0.136599 0.340581 0.789120
0.400122 0.363043 0.792203
0.613031 0.452705 0.788022
0.730220 0.554131 0.775509
0.793912 0.583764 0.761990
0.833616 0.524224 0.715785
0.892699 0.515526 0.681819
0.988861 0.568841 0.702449
0.035828 0.497871 0.780453
0.035767 0.499977 0.780209
0.309026 0.510765 0.781979
0.561913 0.548943 0.782254
0.716060 0.626307 0.774655
0.779141 0.653803 0.761349
0.817777 0.604059 0.718715
0.892119 0.602136 0.699428
0.993835 0.635889 0.724941
0.041566 0.661646 0.771084
0.041627 0.659693 0.770260
0.259922 0.656977 0.769619
0.486702 0.653498 0.767849
0.676722 0.676936 0.770260
0.766812 0.711910 0.760678
0.811460 0.676448 0.727382
0.929747 0.696620 0.741756
0.992462 0.726955 0.757656
0.039948 0.776791 0.753048
0.199313 0.775479 0.755154
0.360143 0.772061 0.754574
0.505882 0.767391 0.756344
0.642664 0.762112 0.755520
0.754635 0.757961 0.758724
0.860563 0.783413 0.771847
0.943999 0.800992 0.778775
0.992554 0.815457 0.782589
0.483284 0.818357 0.724636
0.509697 0.817258 0.726894
0.569024 0.816037 0.732998
0.648127 0.813657 0.744350
0.725093 0.815061 0.764828
0.772641 0.814176 0.777127
0.832395 0.826902 0.764553
0.927794 0.858824 0.785611
0.993042 0.878904 0.797055
0.677485 0.875914 0.772122
0.687007 0.876219 0.774777
0.709651 0.877104 0.781491
0.742885 0.877684 0.791135
0.778775 0.877134 0.801938
0.805081 0.875059 0.805417
0.833524 0.879271 0.796414
0.908476 0.894591 0.777157
0.983642 0.908263 0.781094
0.778805 0.941283 0.830716
0.783627 0.941253 0.832425
0.795224 0.941222 0.836728
0.812375 0.940795 0.842588
0.830564 0.939910 0.847501
0.848844 0.938689 0.849699
0.872404 0.939635 0.843076
0.920745 0.948821 0.817533
0.992004 0.955871 0.794766
0.344182 0.151583 0.865019
0.414954 0.149294 0.861631
0.545220 0.211795 0.859037
0.678401 0.357610 0.856992
0.772030 0.512413 0.848142
0.829953 0.607355 0.834867
0.877409 0.621729 0.823941
0.914336 0.576745 0.791867
0.954894 0.554345 0.758236
0.314824 0.202090 0.860258
0.393103 0.220096 0.860990
0.535149 0.283757 0.860227
0.672267 0.402808 0.855344
0.767361 0.537438 0.846342
0.826169 0.624323 0.833402
0.873198 0.637598 0.823331
0.909148 0.591272 0.790402
0.950683 0.567498 0.757809
0.272801 0.351354 0.855436
0.352026 0.359472 0.854978
0.503471 0.394903 0.857359
0.652461 0.481697 0.851591
0.757534 0.586053 0.844419
0.819394 0.658442 0.831662
0.865263 0.670558 0.821012
0.899107 0.625757 0.789456
0.945190 0.599847 0.758480
0.217594 0.510246 0.850248
0.305516 0.515404 0.850126
0.455543 0.531579 0.850492
0.622431 0.576226 0.850675
0.745754 0.649348 0.843259
0.816098 0.707637 0.833860
0.858579 0.719631 0.823911
0.890135 0.676387 0.792203
0.942840 0.652155 0.765316
0.129854 0.643885 0.838895
0.250431 0.645441 0.839170
0.397375 0.646754 0.837583
0.558679 0.658625 0.838895
0.707301 0.692500 0.840635
0.805356 0.743130 0.833738
0.851041 0.759854 0.824369
0.880308 0.717067 0.790188
0.945586 0.706233 0.774533
0.150423 0.759091 0.827298
0.246250 0.757717 0.827054
0.373754 0.754971 0.825772
0.511315 0.751369 0.825193
0.647608 0.750973 0.826352
0.771328 0.767544 0.829191
0.841611 0.794553 0.820859
0.874937 0.759091 0.789059
0.982635 0.776791 0.804654
0.365026 0.850889 0.816770
0.395850 0.849912 0.816434
0.461097 0.847044 0.816159
0.553887 0.843931 0.815732
0.653681 0.842161 0.817777
0.745754 0.838804 0.819699
0.834318 0.833188 0.820127
0.930388 0.859464 0.838712
0.993835 0.875364 0.847105
0.552361 0.894530 0.788083
0.570764 0.894072 0.788968
0.613519 0.892729 0.792386
0.673030 0.889952 0.799039
0.741543 0.888884 0.810330
0.809964 0.888914 0.829587
0.853605 0.888182 0.844846
0.908843 0.900877 0.831998
0.981323 0.923735 0.853086
0.727443 0.946227 0.827420
0.735256 0.946197 0.829618
0.753933 0.946380 0.835477
0.784848 0.947112 0.845914
0.822660 0.947936 0.860563
0.861601 0.948089 0.876829
0.887083 0.945617 0.880858
0.921996 0.952087 0.865446
0.986816 0.960693 0.847898
0.466560 0.157076 0.924315
0.515221 0.192935 0.923857
0.608362 0.297734 0.922881
0.708675 0.436835 0.921050
0.789639 0.573236 0.913207
0.848478 0.664881 0.902403
0.891051 0.716335 0.891478
0.930999 0.719539 0.881315
0.964446 0.691920 0.858366
0.450324 0.233097 0.924437
0.501183 0.263981 0.923980
0.598260 0.339971 0.921172
0.701350 0.462989 0.918090
0.784787 0.585382 0.910979
0.845335 0.672236 0.900420
0.888487 0.722316 0.889708
0.928466 0.726101 0.879973
0.961425 0.698024 0.857176
0.437659 0.382208 0.920745
0.483497 0.395239 0.921721
0.578790 0.439063 0.922759
0.690517 0.533074 0.919219
0.778683 0.626642 0.911803
0.842710 0.698604 0.901671
0.885832 0.741817 0.890288
0.925017 0.745785 0.880583
0.956970 0.716732 0.857725
0.409644 0.529564 0.918883
0.454078 0.536828 0.918273
0.547570 0.557397 0.917662
0.664179 0.602106 0.917082
0.764920 0.672755 0.911437
0.838102 0.731960 0.904448
0.885069 0.772213 0.894987
0.922179 0.777493 0.885740
0.955016 0.746059 0.860441
0.356420 0.640681 0.908263
0.401129 0.642176 0.906950
0.491066 0.650721 0.908385
0.611872 0.670954 0.908141
0.729976 0.705776 0.909575
0.823484 0.757046 0.904601
0.880644 0.797848 0.897185
0.919615 0.805081 0.886564
0.950134 0.771633 0.858396
0.335454 0.746914 0.901671
0.374609 0.746334 0.901488
0.444984 0.742733 0.899351
0.556512 0.745083 0.899718
0.676020 0.755612 0.902556
0.790005 0.781521 0.905089
0.874693 0.824887 0.900023
0.916869 0.837827 0.889372
0.946227 0.799008 0.855253
0.364630 0.844572 0.898405
0.393622 0.843778 0.898375
0.456886 0.841642 0.898070
0.547204 0.838224 0.897734
0.650019 0.835935 0.899107
0.747524 0.834318 0.899290
0.851560 0.849973 0.903136
0.916136 0.875303 0.896117
0.951141 0.840177 0.861021
0.448157 0.922026 0.887205
0.466773 0.921324 0.887633
0.510155 0.919951 0.887907
0.576684 0.917327 0.886473
0.657893 0.915862 0.888762
0.739895 0.913298 0.888670
0.825559 0.910765 0.892790
0.907256 0.906523 0.894163
0.979004 0.931579 0.917693
0.592401 0.967620 0.854337
0.605768 0.967132 0.855009
0.638697 0.965026 0.856931
0.690120 0.963317 0.861051
0.754147 0.961089 0.870451
0.823545 0.958343 0.884306
0.893034 0.958648 0.911742
0.934966 0.957855 0.927703
0.980865 0.967864 0.923308
0.549248 0.247257 0.979370
0.583734 0.291447 0.979400
0.653529 0.384161 0.978882
0.729458 0.512169 0.976471
0.798032 0.623926 0.969909
0.856718 0.703731 0.962737
0.904082 0.758236 0.953124
0.940154 0.788663 0.943267
0.974426 0.790097 0.936522
0.541192 0.299870 0.978851
0.574426 0.332616 0.978149
0.646967 0.416999 0.979187
0.725917 0.533654 0.977173
0.795285 0.635615 0.969696
0.855436 0.711086 0.962890
0.903838 0.763394 0.953155
0.939544 0.793027 0.943084
0.973388 0.794156 0.936553
0.524285 0.411505 0.980468
0.555016 0.425727 0.980346
0.624323 0.476692 0.979675
0.712123 0.569085 0.975219
0.787625 0.656275 0.969085
0.851347 0.725551 0.963073
0.902831 0.774899 0.953429
0.938933 0.804868 0.943664
0.971801 0.806027 0.938262
0.506188 0.545037 0.977203
0.535485 0.553948 0.977081
0.601038 0.576501 0.975921
0.689448 0.619837 0.975341
0.774594 0.688624 0.970550
0.845304 0.747646 0.965148
0.900481 0.793820 0.955261
0.938781 0.823911 0.946258
0.970886 0.826108 0.941070
0.465461 0.648249 0.975372
0.493935 0.651698 0.975280
0.560510 0.662654 0.974945
0.654261 0.685817 0.974701
0.746304 0.719142 0.973449
0.832822 0.771267 0.967407
0.896574 0.816526 0.959564
0.938384 0.846769 0.950195
0.970672 0.851164 0.944793
0.402686 0.730495 0.969238
0.432837 0.731411 0.969024
0.499031 0.733455 0.969116
0.595727 0.743618 0.970214
0.702022 0.763882 0.969909
0.801633 0.791897 0.969848
0.881559 0.830045 0.961975
0.933806 0.864744 0.951476
0.966857 0.871305 0.945006
0.393622 0.824857 0.969238
0.419593 0.824094 0.969177
0.479164 0.822446 0.968841
0.564660 0.823484 0.969665
0.663447 0.826291 0.968933
0.761563 0.835691 0.968750
0.862608 0.860624 0.968688
0.935515 0.898711 0.962524
0.969329 0.910399 0.955474
0.443793 0.916381 0.970367
0.463630 0.915923 0.970306
0.505699 0.914549 0.970336
0.569909 0.912078 0.969635
0.652338 0.909239 0.970184
0.741085 0.907530 0.969360
0.831296 0.908934 0.969146
0.921294 0.925322 0.969543
0.970031 0.947539 0.964904
0.528527 0.988891 0.961242
0.541711 0.988495 0.961639
0.533165 0.985107 0.957275
0.585626 0.983520 0.957702
0.656855 0.980926 0.958740
0.744076 0.978820 0.961364
0.836881 0.975036 0.963958
0.922271 0.973175 0.967956
0.973144 0.974365 0.974182
