Luts/panasonic/TXD ColorHarmony LUT -std.cube
# Created by Adobe Lightroom plugin Export LUT (1.24.0)
# www.johnrellis.com/lightroom/exportlut.htm
# Photo: P1069527_1 拷贝.jpg
# Color profile: C:\Program Files (x86)\Common Files\Adobe\Color\Profiles\Recommended\sRGB Color Space Profile.icm
LUT_3D_SIZE 5
DOMAIN_MIN 0.0 0.0 0.0
DOMAIN_MAX 1.0 1.0 1.0
0.026093 0.082826 0.065278
0.255772 0.107362 0.051820
0.762051 0.190768 0.038727
0.991882 0.376501 0.076448
0.996338 0.462531 0.090028
0.040070 0.227695 0.138460
0.220981 0.266636 0.098146
0.751583 0.432868 0.083345
0.980621 0.504417 0.094240
0.991516 0.547997 0.099489
0.145449 0.564782 0.329473
0.275486 0.564416 0.316075
0.658259 0.620417 0.102632
0.928710 0.690089 0.110536
0.990478 0.714839 0.235142
0.526879 0.775021 0.610346
0.555932 0.773404 0.607752
0.645136 0.781888 0.569146
0.848447 0.801602 0.370031
0.991150 0.829557 0.411566
0.754269 0.920623 0.778103
0.762112 0.920684 0.778286
0.788479 0.921447 0.775082
0.847654 0.932219 0.735775
0.992798 0.942840 0.629358
0.027070 0.104982 0.291173
0.219944 0.148745 0.242710
0.708797 0.018891 0.231022
0.992157 0.081270 0.210666
0.995605 0.411994 0.212131
0.016876 0.307897 0.289586
0.228336 0.300664 0.289891
0.750149 0.354528 0.278080
0.970489 0.455879 0.275425
0.992493 0.538964 0.286442
0.259922 0.592218 0.449042
0.361913 0.589868 0.460792
0.657557 0.629267 0.354589
0.913817 0.708400 0.449470
0.994568 0.732509 0.495705
0.569421 0.782437 0.655451
0.592828 0.780819 0.656001
0.660517 0.784390 0.640436
0.841917 0.806271 0.516350
0.992065 0.842618 0.573327
0.759609 0.921752 0.787167
0.766323 0.921141 0.786893
0.791196 0.920897 0.784634
0.847654 0.931762 0.751980
0.993683 0.945129 0.668299
0.023011 0.126772 0.705531
0.397345 0.164279 0.706630
0.693965 0.320165 0.667506
0.838773 0.251804 0.531945
0.994079 0.440803 0.619074
0.020111 0.326513 0.702022
0.290532 0.345800 0.708736
0.685786 0.485237 0.676417
0.856046 0.437140 0.584466
0.992737 0.570581 0.656947
0.034363 0.683894 0.677699
0.166476 0.677089 0.674678
0.650843 0.661830 0.677699
0.886351 0.713252 0.697780
0.990326 0.748836 0.706752
0.603204 0.802274 0.710994
0.647028 0.802792 0.723598
0.715846 0.801053 0.739193
0.835447 0.825040 0.708736
0.991913 0.869566 0.741726
0.783230 0.934112 0.819089
0.792630 0.933288 0.820890
0.816281 0.931762 0.823026
0.861387 0.935912 0.805936
0.992859 0.951812 0.748013
0.344182 0.151583 0.865019
0.545220 0.211795 0.859037
0.772030 0.512413 0.848142
0.877409 0.621729 0.823941
0.954894 0.554345 0.758236
0.272801 0.351354 0.855436
0.503471 0.394903 0.857359
0.757534 0.586053 0.844419
0.865263 0.670558 0.821012
0.945190 0.599847 0.758480
0.129854 0.643885 0.838895
0.397375 0.646754 0.837583
0.707301 0.692500 0.840635
0.851041 0.759854 0.824369
0.945586 0.706233 0.774533
0.365026 0.850889 0.816770
0.461097 0.847044 0.816159
0.653681 0.842161 0.817777
0.834318 0.833188 0.820127
0.993835 0.875364 0.847105
0.727443 0.946227 0.827420
0.753933 0.946380 0.835477
0.822660 0.947936 0.860563
0.887083 0.945617 0.880858
0.986816 0.960693 0.847898
0.549248 0.247257 0.979370
0.653529 0.384161 0.978882
0.798032 0.623926 0.969909
0.904082 0.758236 0.953124
0.974426 0.790097 0.936522
0.524285 0.411505 0.980468
0.624323 0.476692 0.979675
0.787625 0.656275 0.969085
0.902831 0.774899 0.953429
0.971801 0.806027 0.938262
0.465461 0.648249 0.975372
0.560510 0.662654 0.974945
0.746304 0.719142 0.973449
0.896574 0.816526 0.959564
0.970672 0.851164 0.944793
0.393622 0.824857 0.969238
0.479164 0.822446 0.968841
0.663447 0.826291 0.968933
0.862608 0.860624 0.968688
0.969329 0.910399 0.955474
0.528527 0.988891 0.961242
0.533165 0.985107 0.957275
0.656855 0.980926 0.958740
0.836881 0.975036 0.963958
0.973144 0.974365 0.974182
