Luts/panasonic/TXD ColorHarmony LUT -std.cube
# Created by Adobe Lightroom plugin Export LUT (1.24.0)
# www.johnrellis.com/lightroom/exportlut.htm
# Photo: P1069527_1 拷贝.jpg
# Color profile: C:\Program Files (x86)\Common Files\Adobe\Color\Profiles\Recommended\sRGB Color Space Profile.icm
LUT_3D_SIZE 33
DOMAIN_MIN 0.0 0.0 0.0
DOMAIN_MAX 1.0 1.0 1.0
0.026093 0.082826 0.065278
0.037842 0.083406 0.064393
0.051179 0.082734 0.063294
0.069032 0.082795 0.061952
0.089998 0.084535 0.060151
0.114626 0.088045 0.058381
0.145113 0.092195 0.055268
0.190249 0.098665 0.051850
0.255772 0.107362 0.051820
0.327886 0.117739 0.052918
0.394202 0.127749 0.050690
0.458625 0.135531 0.044587
0.519585 0.140963 0.033967
0.584009 0.148409 0.034607
0.647852 0.158145 0.035340
0.706935 0.171786 0.035859
0.762051 0.190768 0.038727
0.809567 0.216434 0.043610
0.848508 0.242710 0.049378
0.880461 0.269718 0.055024
0.907866 0.294377 0.059907
0.931182 0.319341 0.065156
0.951781 0.341436 0.069581
0.973297 0.361089 0.073182
0.991882 0.376501 0.076448
0.994842 0.390295 0.079255
0.995666 0.402045 0.081392
0.996612 0.413581 0.083772
0.997467 0.424567 0.086000
0.997345 0.434638 0.087129
0.997223 0.444404 0.088045
0.997101 0.453590 0.089204
0.996338 0.462531 0.090028
0.025635 0.091920 0.069520
0.033326 0.094392 0.067079
0.048127 0.095888 0.064973
0.065248 0.098573 0.063813
0.087495 0.100923 0.060853
0.113130 0.103182 0.058534
0.143374 0.107118 0.054261
0.188968 0.113283 0.051484
0.253513 0.121462 0.049897
0.325933 0.131258 0.050172
0.392401 0.142824 0.048188
0.456855 0.153079 0.042817
0.516991 0.160189 0.036439
0.582391 0.168612 0.038331
0.646082 0.179538 0.039368
0.704128 0.194003 0.039490
0.758755 0.212100 0.042695
0.806394 0.235264 0.047395
0.845335 0.260166 0.053193
0.877348 0.284794 0.057954
0.905180 0.309331 0.062989
0.928832 0.331548 0.067750
0.950713 0.350500 0.071321
0.972747 0.368109 0.074525
0.991333 0.381842 0.077333
0.995026 0.394324 0.079866
0.996063 0.406897 0.082490
0.996979 0.418189 0.084688
0.997406 0.429358 0.086519
0.997284 0.439124 0.087526
0.997162 0.448554 0.088624
0.996735 0.457801 0.089448
0.995941 0.466865 0.090639
0.026642 0.102510 0.075349
0.031739 0.103365 0.072847
0.045197 0.106203 0.068482
0.063874 0.108644 0.066041
0.084657 0.113191 0.064637
0.109957 0.116732 0.062135
0.142000 0.120455 0.056519
0.188418 0.126101 0.051850
0.253361 0.135225 0.049348
0.324895 0.146242 0.048585
0.392096 0.159945 0.046845
0.457038 0.170626 0.040681
0.516411 0.179538 0.038636
0.582147 0.188724 0.041291
0.644556 0.201053 0.043091
0.702480 0.216068 0.043000
0.756954 0.233860 0.046937
0.804105 0.255741 0.051392
0.842832 0.278233 0.056580
0.874754 0.301946 0.061372
0.903288 0.322698 0.065583
0.927459 0.341222 0.069764
0.949798 0.358923 0.072938
0.971771 0.374121 0.075502
0.989929 0.387823 0.078584
0.995514 0.400122 0.081239
0.996490 0.412329 0.083406
0.997436 0.423865 0.085725
0.997345 0.433967 0.086885
0.997253 0.443458 0.088014
0.997131 0.452979 0.089174
0.996399 0.461799 0.090089
0.995636 0.470680 0.091096
0.028626 0.114992 0.081758
0.033478 0.115206 0.080293
0.042359 0.117372 0.076387
0.061738 0.120943 0.070680
0.083558 0.124300 0.067628
0.106783 0.129549 0.066072
0.138064 0.135653 0.061433
0.182895 0.142397 0.057038
0.249088 0.153750 0.053223
0.323827 0.167239 0.052003
0.392737 0.181796 0.049958
0.458167 0.192874 0.043915
0.516716 0.202823 0.042237
0.582055 0.212619 0.045258
0.643336 0.225284 0.046723
0.701991 0.238895 0.047089
0.755947 0.256657 0.051484
0.802853 0.277897 0.056001
0.841367 0.298009 0.060639
0.873686 0.319432 0.065126
0.902373 0.336736 0.068513
0.926452 0.354223 0.072328
0.949645 0.369482 0.075166
0.971160 0.384131 0.077577
0.989593 0.397223 0.080446
0.996307 0.409735 0.082979
0.997253 0.421607 0.085420
0.997375 0.431922 0.086641
0.997253 0.441352 0.087617
0.997162 0.450660 0.088716
0.996582 0.459571 0.089845
0.995850 0.468299 0.090730
0.995087 0.477058 0.091707
0.030854 0.129641 0.088655
0.035950 0.129610 0.087587
0.042145 0.130617 0.084993
0.056672 0.133669 0.079835
0.079744 0.138247 0.073854
0.106203 0.143435 0.070466
0.135836 0.149935 0.066468
0.178378 0.159243 0.063142
0.242283 0.172854 0.060792
0.318639 0.189609 0.060670
0.391485 0.206821 0.057160
0.459266 0.220127 0.049104
0.518669 0.229618 0.046815
0.582788 0.240177 0.049195
0.643275 0.253880 0.050752
0.702388 0.266361 0.052491
0.755917 0.281956 0.056855
0.801877 0.302403 0.060945
0.839628 0.321752 0.065492
0.871519 0.339025 0.068208
0.899901 0.355169 0.071260
0.925292 0.371160 0.075715
0.948394 0.385962 0.078553
0.969848 0.399023 0.080232
0.989319 0.411170 0.083192
0.997375 0.422858 0.085481
0.997345 0.433204 0.086946
0.997253 0.442756 0.088045
0.997131 0.451820 0.088808
0.996490 0.460822 0.089876
0.995758 0.469368 0.090913
0.995026 0.477729 0.091920
0.994354 0.485786 0.092470
0.032868 0.147066 0.096864
0.038148 0.146883 0.096132
0.045167 0.147250 0.095064
0.055695 0.149294 0.091096
0.074342 0.153841 0.085695
0.102876 0.160189 0.079469
0.134890 0.166049 0.072389
0.175418 0.176211 0.068544
0.235142 0.191958 0.066651
0.312718 0.213016 0.067689
0.388190 0.233066 0.066682
0.456733 0.249088 0.060060
0.519860 0.260258 0.052033
0.585168 0.272862 0.054719
0.644923 0.287297 0.057160
0.703548 0.299351 0.060273
0.755459 0.315801 0.063783
0.800778 0.333715 0.067201
0.837858 0.350042 0.070863
0.869841 0.365148 0.073182
0.898283 0.380560 0.075868
0.924895 0.394232 0.080079
0.947356 0.407050 0.082094
0.968383 0.418769 0.083497
0.987793 0.429328 0.085756
0.997192 0.446082 0.088258
0.996979 0.454871 0.089235
0.996277 0.463386 0.090120
0.995575 0.471321 0.091096
0.994934 0.479103 0.092012
0.994293 0.486671 0.092744
0.993744 0.494026 0.093233
0.993164 0.501396 0.093843
0.035126 0.171084 0.108675
0.042451 0.170840 0.108248
0.049866 0.170718 0.107546
0.059449 0.171695 0.105257
0.074739 0.175631 0.101320
0.099672 0.182437 0.094362
0.135073 0.192111 0.086549
0.179171 0.201144 0.076326
0.236759 0.214908 0.071809
0.316197 0.238926 0.072114
0.394934 0.264378 0.071199
0.466041 0.285313 0.065126
0.529778 0.299229 0.059754
0.593286 0.313481 0.062928
0.654414 0.329015 0.065980
0.712490 0.343786 0.068666
0.762844 0.360906 0.072023
0.805570 0.375708 0.074311
0.841886 0.389532 0.078096
0.873838 0.401770 0.079957
0.903197 0.414496 0.081910
0.929717 0.427039 0.084413
0.951781 0.436713 0.085878
0.972076 0.446204 0.087373
0.991394 0.455299 0.089113
0.996216 0.463813 0.090272
0.995544 0.471931 0.091096
0.994903 0.479591 0.092103
0.994263 0.487251 0.092744
0.993683 0.494728 0.093385
0.993133 0.501701 0.093812
0.992615 0.508629 0.094453
0.992157 0.515129 0.095094
0.037171 0.197208 0.122957
0.044984 0.196994 0.122744
0.053498 0.197055 0.122286
0.064057 0.197604 0.120912
0.077058 0.199924 0.117342
0.097169 0.205478 0.111482
0.129183 0.215763 0.104402
0.172519 0.226749 0.093141
0.230259 0.237675 0.079805
0.304540 0.256657 0.074220
0.383886 0.283696 0.072999
0.458961 0.310826 0.067689
0.525597 0.331090 0.065980
0.590814 0.350011 0.070008
0.652125 0.367041 0.072206
0.707851 0.382147 0.075135
0.757992 0.398138 0.078309
0.801511 0.413458 0.080995
0.839384 0.425116 0.084199
0.872282 0.436011 0.085512
0.901579 0.446754 0.086488
0.926665 0.455787 0.087709
0.948760 0.463386 0.088991
0.968750 0.471138 0.090730
0.986877 0.479286 0.091890
0.994293 0.486824 0.092592
0.993774 0.493782 0.093202
0.993194 0.500877 0.093812
0.992706 0.507439 0.094270
0.992218 0.513878 0.095003
0.992035 0.519890 0.095644
0.991913 0.525689 0.096407
0.991730 0.531243 0.097108
0.040070 0.227695 0.138460
0.048371 0.227665 0.138582
0.057282 0.227604 0.138338
0.068727 0.228092 0.137423
0.082124 0.230045 0.135286
0.099458 0.234409 0.130892
0.127504 0.243595 0.124331
0.166384 0.255283 0.114778
0.220981 0.266636 0.098146
0.295232 0.282444 0.081331
0.372961 0.304326 0.074556
0.449836 0.332158 0.067353
0.516533 0.356054 0.069459
0.584314 0.380316 0.074098
0.647852 0.401373 0.077882
0.702693 0.418311 0.081147
0.751583 0.432868 0.083345
0.795621 0.446845 0.085969
0.834806 0.458045 0.087800
0.868254 0.469581 0.088991
0.896788 0.479255 0.090028
0.921508 0.486244 0.090486
0.943359 0.491157 0.091737
0.962921 0.497261 0.093751
0.980621 0.504417 0.094240
0.992401 0.510918 0.094636
0.992126 0.516991 0.095369
0.991943 0.522698 0.096010
0.991821 0.528283 0.096712
0.991669 0.533440 0.097475
0.991516 0.538598 0.098207
0.991394 0.543511 0.098848
0.991516 0.547997 0.099489
0.041199 0.262425 0.155184
0.049622 0.262577 0.155245
0.060243 0.262791 0.155550
0.072389 0.262852 0.155123
0.086946 0.264164 0.154788
0.103792 0.267216 0.151278
0.128298 0.273869 0.145449
0.162539 0.285954 0.136477
0.212131 0.298558 0.121981
0.278019 0.312749 0.098573
0.362676 0.332708 0.079530
0.440040 0.353368 0.066682
0.504387 0.377874 0.072572
0.572808 0.403632 0.077394
0.636927 0.427253 0.081697
0.694606 0.449012 0.084535
0.745815 0.467262 0.087129
0.790951 0.482338 0.089265
0.828702 0.493721 0.090944
0.860807 0.502556 0.091768
0.890043 0.510002 0.093233
0.915496 0.516411 0.092866
0.938323 0.520714 0.093812
0.958251 0.525444 0.095674
0.976074 0.531243 0.097414
0.991577 0.537041 0.097993
0.991455 0.542077 0.098756
0.991485 0.546441 0.099367
0.991577 0.550683 0.099977
0.991699 0.554742 0.100740
0.991791 0.558709 0.101350
0.991913 0.562646 0.102174
0.992004 0.566430 0.102632
0.040681 0.301335 0.174014
0.050202 0.301366 0.173953
0.061982 0.301457 0.173556
0.075929 0.301946 0.173465
0.091615 0.302464 0.172763
0.109804 0.304875 0.170901
0.132235 0.309514 0.166049
0.160342 0.319036 0.157168
0.204318 0.331762 0.144869
0.263645 0.345800 0.123507
0.341375 0.363134 0.096498
0.428473 0.382696 0.072389
0.493446 0.401404 0.076570
0.558251 0.423835 0.080171
0.623072 0.447700 0.082979
0.683436 0.472938 0.086244
0.738613 0.495003 0.089113
0.784909 0.512718 0.091463
0.822721 0.526024 0.093538
0.854398 0.533562 0.094636
0.882841 0.539910 0.096132
0.908721 0.544427 0.095705
0.931945 0.548882 0.096407
0.953491 0.553704 0.097902
0.972808 0.558404 0.100099
0.989380 0.562890 0.101961
0.992004 0.566522 0.102754
0.992126 0.569787 0.103212
0.992126 0.573114 0.103670
0.992035 0.576287 0.103792
0.991913 0.579461 0.104128
0.991791 0.582696 0.104158
0.991699 0.585565 0.104311
0.034546 0.344244 0.193484
0.047425 0.343908 0.193515
0.061769 0.344182 0.193942
0.078706 0.344701 0.193790
0.097047 0.345251 0.192752
0.116091 0.345922 0.190829
0.137972 0.348577 0.186709
0.162478 0.355932 0.177920
0.202243 0.366155 0.167086
0.255711 0.380804 0.151034
0.320806 0.396185 0.122866
0.405280 0.413306 0.089387
0.482246 0.430793 0.082216
0.547051 0.446876 0.083528
0.610468 0.468055 0.085725
0.670405 0.492744 0.087861
0.725887 0.514855 0.090333
0.786526 0.545617 0.094728
0.824674 0.561578 0.097566
0.857206 0.570764 0.098970
0.884581 0.577295 0.099519
0.908721 0.580163 0.099855
0.931487 0.583490 0.100282
0.952819 0.586938 0.101472
0.972198 0.590661 0.102907
0.989075 0.593652 0.104463
0.991363 0.596155 0.104891
0.991272 0.598413 0.105104
0.991211 0.600427 0.105104
0.991150 0.602747 0.105257
0.991089 0.604944 0.105257
0.991058 0.607111 0.105318
0.990997 0.609125 0.105470
0.033021 0.394751 0.216831
0.048463 0.395117 0.217807
0.064332 0.395178 0.218296
0.083070 0.395453 0.218936
0.103792 0.395636 0.218387
0.124880 0.395911 0.216251
0.147005 0.397253 0.211185
0.172213 0.401434 0.202609
0.207523 0.409491 0.192508
0.256901 0.421546 0.177218
0.315587 0.435828 0.152071
0.388739 0.451423 0.114961
0.471870 0.466499 0.085634
0.546349 0.482795 0.088106
0.607935 0.498116 0.089052
0.666377 0.517937 0.090578
0.720089 0.539391 0.093050
0.768795 0.559289 0.096040
0.810269 0.576989 0.098726
0.844297 0.590356 0.100435
0.874022 0.599420 0.101350
0.899504 0.605066 0.102480
0.922484 0.608515 0.103334
0.943816 0.611444 0.103792
0.963592 0.614435 0.104799
0.981384 0.617365 0.105226
0.990753 0.619532 0.105715
0.990723 0.621424 0.105745
0.990692 0.623041 0.105867
0.990661 0.624598 0.105989
0.990631 0.626276 0.105989
0.990570 0.627985 0.105989
0.990570 0.629541 0.106111
0.039399 0.437232 0.240452
0.055390 0.437324 0.241001
0.071931 0.437049 0.240970
0.091524 0.437171 0.240818
0.112581 0.437354 0.240604
0.135622 0.438331 0.238163
0.159274 0.439765 0.235325
0.183536 0.443153 0.228794
0.216281 0.449439 0.219425
0.260716 0.459419 0.205570
0.313237 0.471382 0.184298
0.372259 0.484230 0.149538
0.447456 0.498390 0.102510
0.528649 0.512078 0.090608
0.596582 0.526024 0.092927
0.654170 0.539513 0.092866
0.705470 0.556390 0.095369
0.753170 0.574182 0.097780
0.795315 0.591333 0.099763
0.831571 0.606104 0.101595
0.862669 0.617517 0.103120
0.889281 0.626246 0.104585
0.913787 0.631678 0.105745
0.936156 0.635401 0.106111
0.955840 0.638331 0.106508
0.974090 0.641382 0.107179
0.990570 0.644221 0.107576
0.990600 0.645960 0.107637
0.990570 0.647486 0.107729
0.990570 0.648890 0.107942
0.990570 0.649866 0.108003
0.990570 0.650752 0.108125
0.990600 0.651606 0.108064
0.061982 0.482551 0.267430
0.077028 0.482948 0.268070
0.091066 0.482826 0.268528
0.108370 0.482582 0.267979
0.128817 0.481849 0.266148
0.151766 0.481849 0.265019
0.174868 0.482765 0.262333
0.198856 0.484199 0.256443
0.229068 0.488258 0.248386
0.269169 0.495460 0.236057
0.315862 0.505333 0.218112
0.365148 0.514763 0.187686
0.427192 0.527337 0.148074
0.502953 0.538323 0.092592
0.576349 0.551446 0.095125
0.638758 0.563012 0.096193
0.690608 0.575067 0.097414
0.736202 0.588006 0.099306
0.777951 0.602899 0.100282
0.816190 0.617243 0.102602
0.849393 0.629725 0.103944
0.877501 0.640742 0.105806
0.902770 0.648981 0.106935
0.926055 0.654444 0.107515
0.946990 0.658656 0.108034
0.966094 0.662287 0.108461
0.983490 0.666316 0.109560
0.990173 0.668696 0.109865
0.990112 0.670222 0.110140
0.990051 0.671351 0.110353
0.990021 0.672267 0.110414
0.990021 0.672816 0.110475
0.990021 0.672908 0.110384
0.098817 0.524926 0.296910
0.109865 0.525292 0.297307
0.121828 0.525017 0.296788
0.137209 0.524193 0.295933
0.155123 0.523735 0.295689
0.173587 0.523613 0.295018
0.195377 0.523949 0.292210
0.219364 0.525048 0.287877
0.247623 0.527092 0.280522
0.284031 0.531762 0.269535
0.325872 0.539422 0.253452
0.369574 0.546990 0.227939
0.417609 0.555871 0.193790
0.481575 0.566094 0.152560
0.553796 0.575738 0.095949
0.618769 0.587182 0.098909
0.676326 0.597711 0.100160
0.723018 0.607721 0.101503
0.763607 0.617273 0.101564
0.800473 0.628901 0.102785
0.835477 0.641260 0.105287
0.865751 0.652674 0.106752
0.892454 0.662593 0.108156
0.916289 0.670405 0.108888
0.938262 0.676112 0.108919
0.958556 0.681392 0.110048
0.976806 0.686885 0.111452
0.989410 0.690852 0.112520
0.990326 0.691493 0.128420
0.990997 0.691859 0.142092
0.990936 0.692592 0.148165
0.990875 0.693202 0.146883
0.990661 0.693751 0.134798
0.145449 0.564782 0.329473
0.154147 0.564813 0.329931
0.163119 0.564569 0.329900
0.174746 0.564233 0.329747
0.189731 0.563897 0.328801
0.206943 0.563500 0.327886
0.227024 0.563012 0.325841
0.249302 0.563043 0.322423
0.275486 0.564416 0.316075
0.307561 0.568048 0.307713
0.343816 0.573205 0.293248
0.382269 0.579095 0.271580
0.422827 0.585901 0.242374
0.473274 0.594171 0.207340
0.536156 0.602380 0.164981
0.599939 0.610498 0.100435
0.658259 0.620417 0.102632
0.708522 0.629511 0.103853
0.750851 0.636774 0.104250
0.787350 0.643122 0.104585
0.821439 0.653010 0.106264
0.853239 0.664118 0.107790
0.881498 0.674891 0.109224
0.906279 0.683375 0.110353
0.928710 0.690089 0.110536
0.949401 0.696162 0.111421
0.969696 0.702693 0.135958
0.987213 0.706538 0.180423
0.989746 0.709651 0.205142
0.989868 0.711818 0.221134
0.990234 0.713466 0.230259
0.990448 0.714534 0.234836
0.990478 0.714839 0.235142
0.192660 0.599603 0.362005
0.198825 0.599542 0.362097
0.205325 0.599268 0.361395
0.215061 0.598901 0.361059
0.227298 0.598474 0.360723
0.241703 0.597925 0.359686
0.259495 0.597467 0.358251
0.281041 0.597131 0.356390
0.305730 0.597742 0.352270
0.348333 0.609522 0.354711
0.379950 0.613031 0.342565
0.412421 0.616938 0.324437
0.444892 0.620630 0.298650
0.484016 0.626703 0.267552
0.533379 0.633356 0.231479
0.589532 0.639887 0.189700
0.646754 0.646052 0.129122
0.696590 0.653193 0.105684
0.741146 0.660426 0.107454
0.779507 0.665980 0.107668
0.812711 0.671138 0.107942
0.843565 0.679591 0.108888
0.872435 0.689021 0.110414
0.898009 0.697200 0.111879
0.921111 0.704402 0.112673
0.942382 0.710964 0.113344
0.964874 0.719081 0.184024
0.982238 0.725399 0.226139
0.991211 0.731044 0.256687
0.991547 0.734859 0.278935
0.990967 0.737362 0.293828
0.990906 0.738491 0.303014
0.990784 0.738949 0.307317
0.249668 0.636866 0.404517
0.254551 0.636561 0.404242
0.259800 0.635920 0.403571
0.266697 0.635218 0.402930
0.276493 0.634546 0.402014
0.289067 0.634058 0.400488
0.304662 0.633631 0.398810
0.324071 0.633692 0.396887
0.346563 0.634272 0.394232
0.372351 0.635554 0.388617
0.400641 0.638087 0.379461
0.429938 0.641230 0.366369
0.458747 0.644556 0.347082
0.491066 0.648249 0.319524
0.528954 0.654475 0.288487
0.576318 0.660090 0.253239
0.626307 0.665431 0.213687
0.676265 0.670222 0.164187
0.722316 0.676326 0.107759
0.763638 0.681697 0.109987
0.798978 0.686763 0.109346
0.829679 0.691463 0.110231
0.858701 0.698726 0.111147
0.885679 0.706813 0.112795
0.909880 0.714137 0.113924
0.932311 0.721309 0.114534
0.954925 0.729946 0.184207
0.974395 0.737819 0.232670
0.991638 0.744350 0.270665
0.990723 0.749813 0.299992
0.989837 0.754360 0.323888
0.989715 0.757229 0.340459
0.990143 0.758511 0.351659
0.298161 0.663691 0.438422
0.302098 0.663355 0.437873
0.306371 0.663142 0.437629
0.312657 0.662593 0.436896
0.321324 0.662013 0.436042
0.332708 0.661738 0.435157
0.346288 0.661616 0.434150
0.363531 0.661585 0.433204
0.383032 0.662196 0.431586
0.403815 0.663111 0.427710
0.427253 0.664363 0.420752
0.451392 0.666377 0.410346
0.477882 0.668696 0.395270
0.506035 0.671717 0.374548
0.535210 0.675502 0.346105
0.572107 0.681056 0.314916
0.616663 0.685817 0.281041
0.660883 0.690059 0.243565
0.704005 0.694667 0.200931
0.746731 0.698909 0.135622
0.785061 0.703578 0.111482
0.818082 0.707485 0.111574
0.846799 0.711696 0.112856
0.874174 0.717556 0.113985
0.899260 0.724392 0.115419
0.922362 0.731533 0.115999
0.944915 0.739528 0.176852
0.966217 0.748409 0.231937
0.985565 0.755703 0.274662
0.990112 0.762448 0.310857
0.989380 0.768276 0.340734
0.990082 0.772183 0.365179
0.990936 0.774563 0.383825
0.347936 0.687984 0.473121
0.351476 0.687648 0.472908
0.355200 0.687343 0.472389
0.360845 0.686885 0.471839
0.368353 0.686519 0.471321
0.378210 0.686152 0.470771
0.389776 0.686305 0.470039
0.403235 0.686488 0.468818
0.418860 0.686915 0.467750
0.435554 0.687495 0.465553
0.454658 0.688899 0.461067
0.474830 0.690364 0.453956
0.497475 0.692256 0.441962
0.522576 0.694392 0.425116
0.547967 0.697536 0.401801
0.575280 0.700923 0.375433
0.609674 0.705592 0.345647
0.650660 0.709621 0.312169
0.690455 0.713924 0.276127
0.730129 0.717617 0.236667
0.769589 0.721645 0.190707
0.804196 0.724147 0.123110
0.836179 0.727047 0.114321
0.863645 0.730007 0.115511
0.889097 0.735103 0.116579
0.912779 0.741848 0.118013
0.935821 0.749538 0.173190
0.958434 0.758175 0.228794
0.978332 0.766049 0.275639
0.989837 0.773648 0.314794
0.989471 0.780087 0.349767
0.990326 0.784756 0.379553
0.991150 0.788144 0.403784
0.396490 0.711849 0.509300
0.399268 0.711604 0.509117
0.402258 0.711299 0.508690
0.406836 0.711086 0.508537
0.412604 0.710903 0.507652
0.419898 0.710719 0.506889
0.429023 0.710628 0.505821
0.439734 0.710597 0.504784
0.452277 0.710689 0.503868
0.467231 0.710842 0.502556
0.483589 0.711818 0.500053
0.500847 0.713130 0.494606
0.519585 0.714687 0.486580
0.540429 0.717311 0.474342
0.563714 0.720058 0.457221
0.588739 0.722835 0.435889
0.615747 0.726040 0.410956
0.647578 0.731289 0.384100
0.683864 0.735164 0.352605
0.721187 0.739559 0.318547
0.757198 0.742580 0.283665
0.794095 0.745480 0.244877
0.826749 0.747799 0.204013
0.854887 0.748959 0.161471
0.882597 0.751614 0.135561
0.905821 0.756497 0.153902
0.929168 0.762783 0.194553
0.952300 0.770779 0.238651
0.972869 0.777737 0.283055
0.989441 0.785550 0.322911
0.989960 0.792142 0.360723
0.990723 0.797482 0.394965
0.990936 0.801938 0.424201
0.445747 0.736995 0.548913
0.447913 0.736812 0.548638
0.450294 0.736568 0.548211
0.453651 0.736294 0.547845
0.458045 0.735897 0.547326
0.463905 0.735470 0.546654
0.471229 0.735103 0.546105
0.480110 0.734768 0.545129
0.490364 0.734676 0.544152
0.502373 0.734676 0.542779
0.515679 0.735103 0.540703
0.529686 0.735866 0.536400
0.544793 0.737331 0.530053
0.561608 0.739071 0.521080
0.580835 0.741390 0.508629
0.601770 0.744411 0.491798
0.625818 0.746548 0.471199
0.651881 0.748928 0.446876
0.681178 0.752773 0.419776
0.712673 0.756039 0.389746
0.746395 0.759426 0.356573
0.778805 0.762753 0.322026
0.812131 0.764004 0.285496
0.843137 0.766934 0.251408
0.871275 0.768673 0.220706
0.895384 0.771817 0.205844
0.919921 0.775448 0.213993
0.943420 0.780301 0.242466
0.964721 0.786313 0.278477
0.983062 0.794034 0.315984
0.989929 0.800839 0.355230
0.990570 0.806912 0.392309
0.990967 0.812009 0.425025
0.487800 0.756954 0.580987
0.493355 0.758175 0.583612
0.495033 0.757870 0.583337
0.497322 0.757443 0.582818
0.500572 0.756893 0.582238
0.504845 0.756222 0.581476
0.510307 0.755612 0.580743
0.517113 0.755184 0.579797
0.525536 0.755367 0.579065
0.535149 0.755703 0.577783
0.546166 0.756069 0.576257
0.557641 0.756466 0.573236
0.569848 0.757229 0.568750
0.583612 0.758236 0.562249
0.598688 0.760006 0.553307
0.615534 0.762692 0.540856
0.634943 0.765499 0.525170
0.657069 0.768093 0.504417
0.681300 0.770596 0.480934
0.709407 0.773556 0.456367
0.739071 0.776761 0.428382
0.770016 0.779660 0.396948
0.801694 0.782528 0.365118
0.830900 0.783810 0.329625
0.860319 0.785000 0.297215
0.887755 0.787350 0.270787
0.912108 0.789120 0.258244
0.935119 0.792325 0.263218
0.956481 0.796658 0.284459
0.975555 0.803098 0.314977
0.989593 0.809384 0.348943
0.990631 0.815305 0.384314
0.991058 0.820615 0.417639
0.526879 0.775021 0.610346
0.528191 0.774929 0.610315
0.529839 0.774777 0.610193
0.531914 0.774563 0.610010
0.534813 0.774228 0.609644
0.538476 0.773892 0.609125
0.543267 0.773556 0.608820
0.549004 0.773373 0.608331
0.555932 0.773404 0.607752
0.563714 0.773495 0.606744
0.572473 0.773617 0.605493
0.581903 0.773922 0.603418
0.591943 0.774502 0.600000
0.603113 0.775692 0.595300
0.615564 0.777279 0.589105
0.629297 0.779385 0.580407
0.645136 0.781888 0.569146
0.662959 0.784482 0.554040
0.683070 0.787381 0.533593
0.706203 0.789456 0.510857
0.732753 0.792142 0.486885
0.760708 0.794949 0.460609
0.789822 0.797360 0.431006
0.819303 0.799771 0.401190
0.848447 0.801602 0.370031
0.875334 0.803250 0.340246
0.901884 0.805020 0.313481
0.925414 0.806485 0.300359
0.947509 0.808957 0.302922
0.967956 0.813321 0.321324
0.986511 0.818692 0.347143
0.990326 0.824125 0.379309
0.991150 0.829557 0.411566
0.561578 0.793668 0.636225
0.562768 0.793545 0.636164
0.563958 0.793454 0.636042
0.565728 0.793332 0.635859
0.568170 0.793240 0.635767
0.571283 0.793088 0.635431
0.575189 0.793027 0.635248
0.580011 0.792966 0.634943
0.585290 0.792874 0.634394
0.591485 0.792813 0.633692
0.598566 0.792782 0.632715
0.606500 0.792844 0.631342
0.615015 0.793149 0.629084
0.624353 0.793790 0.626093
0.634424 0.795010 0.621546
0.645441 0.797055 0.615229
0.658412 0.799161 0.607202
0.673426 0.801297 0.596460
0.689998 0.803586 0.581628
0.708919 0.805966 0.563043
0.730220 0.808499 0.541527
0.755489 0.810849 0.519280
0.782071 0.813565 0.494606
0.809842 0.816434 0.468513
0.837919 0.818967 0.440742
0.866300 0.821347 0.412055
0.892180 0.822629 0.384527
0.917784 0.824399 0.359625
0.940124 0.825803 0.346319
0.961456 0.827176 0.348333
0.980987 0.830625 0.362432
0.990387 0.835233 0.385412
0.991485 0.840085 0.412482
0.594720 0.813413 0.661677
0.595666 0.813352 0.661707
0.596857 0.813291 0.661646
0.598505 0.813199 0.661677
0.600549 0.813016 0.661524
0.603174 0.812863 0.661372
0.606317 0.812711 0.661067
0.610132 0.812558 0.660700
0.614618 0.812436 0.660334
0.619837 0.812284 0.659968
0.625757 0.812161 0.659297
0.632502 0.812070 0.658473
0.639826 0.812253 0.657221
0.647486 0.812772 0.655268
0.655848 0.813809 0.652033
0.664912 0.814969 0.647547
0.675563 0.816648 0.641566
0.687617 0.818814 0.634089
0.701656 0.821439 0.624292
