Luts/panasonic/夏日暖风.cube
# Created by Adobe Lightroom plugin Export LUT (1.34.0)
# www.johnrellis.com/lightroom/exportlut.htm
# Preset: Silver03
# Color profile: /Volumes/Media/影片/Lut/exportlut.lrplugin/color profiles/Rec709gamma2.4.icc
LUT_3D_SIZE 32
DOMAIN_MIN 0.0 0.0 0.0
DOMAIN_MAX 1.0 1.0 1.0
0.065888 0.063508 0.054414
0.065888 0.063508 0.054414
0.065888 0.063508 0.054414
0.072816 0.063813 0.055360
0.103365 0.067323 0.063752
0.126558 0.071748 0.075013
0.147768 0.078645 0.083467
0.171176 0.087587 0.088991
0.199405 0.091585 0.089906
0.232486 0.095186 0.090181
0.270237 0.098085 0.091341
0.311955 0.099702 0.094453
0.356268 0.099947 0.098421
0.401709 0.101045 0.103182
0.447272 0.103548 0.109834
0.491920 0.109926 0.117800
0.535393 0.121065 0.128328
0.576989 0.137026 0.141451
0.616510 0.156100 0.155947
0.653803 0.177035 0.172152
0.688685 0.199344 0.189425
0.721187 0.222293 0.207828
0.751553 0.245182 0.226963
0.781155 0.268528 0.246860
0.809781 0.291844 0.267857
0.836423 0.315587 0.290166
0.860868 0.339971 0.313909
0.883391 0.364691 0.338628
0.904265 0.389868 0.364569
0.924437 0.415290 0.391455
0.943908 0.441108 0.419379
0.962646 0.467536 0.448402
0.065888 0.063508 0.054414
0.065888 0.063508 0.054414
0.065888 0.063508 0.054414
0.074495 0.063569 0.056489
0.104524 0.066865 0.064881
0.127016 0.071534 0.074983
0.148074 0.080629 0.083894
0.171450 0.088869 0.088808
0.199435 0.093660 0.089631
0.232670 0.097414 0.089845
0.270542 0.099794 0.091463
0.312230 0.101320 0.094575
0.356542 0.102266 0.098421
0.401953 0.103700 0.103487
0.447395 0.106477 0.109773
0.492103 0.112581 0.118013
0.535546 0.123384 0.128511
0.577111 0.139254 0.141604
0.616663 0.158114 0.156222
0.653956 0.178744 0.172396
0.688808 0.200778 0.189670
0.721248 0.223545 0.208011
0.751614 0.246494 0.227207
0.781216 0.269474 0.247105
0.809842 0.292699 0.268070
0.836423 0.316442 0.290440
0.860899 0.340734 0.314153
0.883391 0.365393 0.338872
0.904265 0.390509 0.364813
0.924468 0.415808 0.391699
0.943877 0.441596 0.419623
0.962646 0.467933 0.448615
0.065888 0.063508 0.054414
0.065888 0.063508 0.054414
0.065888 0.063508 0.054414
0.082216 0.064637 0.057252
0.107607 0.073487 0.066011
0.127901 0.082765 0.076387
0.148440 0.090120 0.083772
0.172030 0.095674 0.087831
0.200412 0.099855 0.088655
0.233402 0.104402 0.089113
0.271397 0.107393 0.091402
0.313298 0.109590 0.094759
0.357641 0.110903 0.098878
0.403021 0.112734 0.103822
0.448463 0.115999 0.110567
0.493080 0.122225 0.118593
0.536309 0.133272 0.129397
0.577783 0.148165 0.142306
0.617243 0.165835 0.157229
0.654383 0.185824 0.173373
0.689174 0.207126 0.190768
0.721584 0.229160 0.209110
0.751888 0.251316 0.228183
0.781460 0.273838 0.248295
0.810025 0.296696 0.269291
0.836545 0.319921 0.291478
0.860960 0.343816 0.315099
0.883452 0.368139 0.339910
0.904295 0.392950 0.365850
0.924437 0.418067 0.392676
0.943847 0.443671 0.420508
0.962615 0.469734 0.449470
0.061860 0.087953 0.060487
0.061158 0.088380 0.060334
0.067689 0.088960 0.059998
0.089082 0.088960 0.060578
0.108888 0.092226 0.064973
0.128298 0.096986 0.075196
0.148898 0.102388 0.082155
0.172946 0.107301 0.085359
0.201297 0.112093 0.086336
0.235111 0.116518 0.089357
0.273594 0.120241 0.092195
0.315435 0.123598 0.095521
0.359686 0.126467 0.099641
0.405066 0.129305 0.104921
0.450294 0.133486 0.111330
0.494606 0.140291 0.120180
0.537804 0.150484 0.130861
0.579034 0.164401 0.144320
0.618341 0.180758 0.159243
0.655360 0.199161 0.175387
0.689967 0.219120 0.192782
0.722255 0.239597 0.211154
0.752468 0.260838 0.230411
0.781979 0.282261 0.250401
0.810361 0.304295 0.271366
0.836820 0.326787 0.293645
0.861143 0.349950 0.317205
0.883482 0.373724 0.342016
0.904265 0.397955 0.367895
0.924376 0.422644 0.394659
0.943755 0.447730 0.422461
0.962463 0.473487 0.451331
0.069459 0.109712 0.071717
0.073457 0.109590 0.071687
0.085725 0.109377 0.072602
0.097230 0.109377 0.073152
0.110903 0.108583 0.072663
0.127077 0.109712 0.075410
0.148226 0.116365 0.080171
0.172854 0.122377 0.082734
0.202609 0.127871 0.086549
0.237247 0.133547 0.089784
0.276066 0.138277 0.092988
0.318517 0.142916 0.096101
0.362829 0.147189 0.100404
0.407996 0.151431 0.106172
0.452918 0.156863 0.113313
0.497108 0.163912 0.121889
0.539971 0.173922 0.133547
0.580926 0.186740 0.147066
0.619928 0.201572 0.162051
0.656764 0.218357 0.178561
0.691127 0.236637 0.196201
0.723201 0.255436 0.214664
0.753323 0.274968 0.233646
0.782742 0.294987 0.253666
0.810971 0.315801 0.274784
0.837217 0.337224 0.297032
0.861418 0.359380 0.320592
0.883604 0.382208 0.345220
0.904295 0.405737 0.371069
0.924285 0.429694 0.397803
0.943603 0.454139 0.425544
0.962249 0.479377 0.454200
0.093019 0.127749 0.081086
0.094087 0.127932 0.081666
0.099275 0.127779 0.081544
0.107973 0.127565 0.081971
0.118227 0.127352 0.082307
0.130892 0.127016 0.081788
0.147372 0.128542 0.083070
0.171878 0.135775 0.085573
0.203555 0.145571 0.087770
0.239658 0.153445 0.090364
0.279271 0.160098 0.093477
0.321996 0.166201 0.096986
0.366278 0.171908 0.101595
0.411475 0.177768 0.107240
0.456397 0.183993 0.114931
0.500145 0.191745 0.124208
0.542687 0.201511 0.136660
0.583520 0.213413 0.150332
0.622126 0.226993 0.165957
0.658656 0.242100 0.182650
0.692714 0.258549 0.200443
0.724544 0.275578 0.218997
0.754452 0.293309 0.238071
0.783810 0.311711 0.258213
0.811795 0.331029 0.279301
0.837797 0.351049 0.301457
0.861723 0.372045 0.325078
0.883726 0.393774 0.349767
0.904265 0.416266 0.375555
0.924163 0.439307 0.402197
0.943389 0.462959 0.429725
0.961944 0.487343 0.458167
0.102571 0.150027 0.089052
0.103853 0.149935 0.089052
0.108675 0.149996 0.089326
0.117403 0.149752 0.090028
0.127352 0.149722 0.090150
0.140078 0.149325 0.090242
0.153689 0.149508 0.090089
0.172152 0.151308 0.090059
0.200717 0.159152 0.091341
0.239170 0.172152 0.091798
0.281437 0.183871 0.093812
0.325170 0.192447 0.097047
0.370031 0.199619 0.102113
0.415290 0.206607 0.108248
0.459937 0.214023 0.116548
0.503685 0.222202 0.127169
0.545892 0.231907 0.139712
0.586267 0.243107 0.154513
0.624628 0.255711 0.170382
0.660761 0.269413 0.187594
0.694636 0.283818 0.205478
0.726162 0.299199 0.224247
0.755947 0.315038 0.243626
0.785092 0.331853 0.263645
0.812772 0.349584 0.284916
0.838437 0.368261 0.307378
0.862119 0.387762 0.330968
0.883818 0.408270 0.355596
0.904234 0.429480 0.381262
0.924010 0.451392 0.407782
0.943145 0.474067 0.435065
0.961578 0.497536 0.463386
0.110842 0.177401 0.094972
0.111971 0.177340 0.094972
0.116884 0.177371 0.095247
0.125917 0.177401 0.095766
0.137484 0.177188 0.096254
0.150729 0.176913 0.096284
0.165377 0.176486 0.095827
0.182162 0.176791 0.095399
0.203494 0.179141 0.094697
0.234867 0.186801 0.095247
0.277653 0.202152 0.096101
0.325505 0.217472 0.097688
0.372869 0.229038 0.101564
0.418372 0.237644 0.108492
0.463233 0.246098 0.118166
0.506828 0.254765 0.129458
0.549004 0.264347 0.143435
0.589166 0.275151 0.158511
0.627314 0.286625 0.175540
0.663233 0.298894 0.193027
0.696681 0.311803 0.211490
0.728023 0.325292 0.230442
0.757565 0.339544 0.249973
0.786496 0.354772 0.270390
0.813870 0.370794 0.291691
0.839200 0.387976 0.314275
0.862516 0.406073 0.337896
0.883940 0.425086 0.362463
0.904173 0.445045 0.388128
0.923796 0.465797 0.414496
0.942748 0.487312 0.441627
0.961120 0.509697 0.469520
0.117983 0.210178 0.099580
0.119234 0.210239 0.099886
0.124422 0.210117 0.100191
0.134463 0.210025 0.100649
0.147463 0.209964 0.101350
0.161898 0.209812 0.101991
0.178347 0.209323 0.101869
0.195987 0.208927 0.101198
0.215396 0.209293 0.100069
0.239292 0.211704 0.099153
0.272709 0.218631 0.099855
0.318181 0.234745 0.100679
0.368780 0.252689 0.103182
0.418952 0.267826 0.108827
0.465614 0.278782 0.119142
0.509361 0.288151 0.131716
0.551568 0.298009 0.146456
0.591699 0.308232 0.163180
0.629755 0.318791 0.180667
0.665492 0.329870 0.199130
0.698756 0.341375 0.217838
0.729824 0.353368 0.237308
0.759304 0.365911 0.257145
0.788052 0.379644 0.277745
0.815000 0.394263 0.299382
0.839963 0.409827 0.322179
0.862974 0.426398 0.345769
0.884001 0.444068 0.370611
0.904082 0.462684 0.396063
0.923552 0.482155 0.422248
0.942351 0.502495 0.449195
0.960510 0.523766 0.476722
0.124849 0.247074 0.104982
0.126528 0.247105 0.104952
0.132052 0.247044 0.105165
0.142336 0.247044 0.105867
0.157229 0.246830 0.106508
0.173617 0.246677 0.107332
0.191470 0.246403 0.107729
0.210391 0.246036 0.107668
0.230747 0.245518 0.106813
0.252842 0.245914 0.105287
0.278904 0.248234 0.104128
0.313146 0.253513 0.105348
0.358709 0.269047 0.106996
0.410559 0.288457 0.111818
0.462074 0.306554 0.120729
0.509880 0.320958 0.133486
0.553124 0.331823 0.149844
0.593530 0.341711 0.167300
0.631647 0.351629 0.186007
0.667353 0.361669 0.204898
0.700587 0.371923 0.224613
0.731502 0.382422 0.244541
0.760983 0.393683 0.264775
0.789517 0.405951 0.285924
0.816068 0.419165 0.307836
0.840696 0.433265 0.330724
0.863249 0.448493 0.354650
0.884031 0.464790 0.379431
0.903899 0.482002 0.404944
0.923186 0.500175 0.430945
0.941833 0.519249 0.457496
0.959899 0.539300 0.484810
0.133425 0.286320 0.111299
0.134920 0.286351 0.111574
0.140627 0.286351 0.111727
0.151949 0.286290 0.112398
0.167453 0.286259 0.113497
0.185397 0.286137 0.114412
0.204746 0.285863 0.114961
0.224979 0.285405 0.115145
0.246067 0.284947 0.114870
0.268437 0.284367 0.113497
0.292699 0.284672 0.111635
0.319921 0.286687 0.110628
0.354101 0.290501 0.112184
0.398444 0.304234 0.116365
0.450019 0.324224 0.124269
0.501640 0.344335 0.136355
0.550195 0.361547 0.152956
0.593744 0.374640 0.171450
0.632502 0.384283 0.191135
0.668452 0.393500 0.210849
0.701778 0.402655 0.231388
0.732692 0.412116 0.252018
0.762325 0.422217 0.272740
0.790738 0.433234 0.294377
0.817014 0.445045 0.316808
0.841215 0.457954 0.340032
0.863401 0.471839 0.364172
0.883909 0.486671 0.388983
0.903655 0.502617 0.414466
0.922728 0.519463 0.440345
0.941253 0.537377 0.466712
0.959106 0.556268 0.493629
0.145785 0.326452 0.120577
0.147311 0.326390 0.120577
0.153414 0.326360 0.121004
0.164065 0.326329 0.121553
0.179843 0.326238 0.122499
0.198123 0.326085 0.123842
0.218479 0.325902 0.124758
0.239261 0.325658 0.125307
0.261234 0.325139 0.125521
0.284031 0.324468 0.124819
0.307836 0.323796 0.123293
0.333043 0.323919 0.121645
0.360937 0.325689 0.120577
0.394629 0.328649 0.123018
0.436713 0.339788 0.129244
0.486763 0.359350 0.140352
0.537865 0.380468 0.155825
0.586389 0.399176 0.175113
0.630030 0.414008 0.195773
0.668147 0.424781 0.216983
0.701900 0.433356 0.237980
0.733211 0.441810 0.259342
0.763180 0.451026 0.280949
0.791470 0.460914 0.303014
0.817533 0.471626 0.325933
0.841398 0.483253 0.349706
0.863279 0.495857 0.374121
0.883604 0.509422 0.399084
0.903227 0.524132 0.424445
0.922179 0.539818 0.450202
0.940551 0.556481 0.476356
0.958251 0.574212 0.502892
0.163027 0.366064 0.133516
0.164279 0.366033 0.133761
0.169741 0.366064 0.134096
0.180209 0.366003 0.134554
0.194888 0.365942 0.135592
0.213413 0.365698 0.136751
0.233402 0.365515 0.138216
0.254490 0.365301 0.138827
0.276646 0.364874 0.139345
0.299382 0.364294 0.138918
0.322881 0.363439 0.138155
0.347356 0.362860 0.136812
0.373175 0.362737 0.135134
0.401190 0.364172 0.134890
0.433997 0.366644 0.137636
0.473365 0.375097 0.146029
0.521263 0.393439 0.159396
0.571130 0.414343 0.177676
0.618769 0.433753 0.198703
0.661891 0.449897 0.221469
0.699733 0.462226 0.244327
0.732479 0.471229 0.266636
0.763027 0.479713 0.288975
0.791409 0.488746 0.311742
0.817441 0.498360 0.335210
0.841215 0.508843 0.359564
0.862852 0.520256 0.384161
0.883055 0.532769 0.409369
0.902586 0.546227 0.434760
0.921447 0.560784 0.460426
0.939666 0.576349 0.486366
0.957244 0.592950 0.512566
0.184726 0.404761 0.150484
0.185733 0.404761 0.150423
0.190829 0.404669 0.150546
0.200381 0.404639 0.151553
0.213748 0.404608 0.152377
0.230991 0.404425 0.153353
0.250309 0.404181 0.154574
0.271397 0.403937 0.155856
0.292760 0.403662 0.156619
0.315190 0.403143 0.156771
0.338140 0.402411 0.156466
0.362005 0.401556 0.155642
0.386603 0.400793 0.154025
0.412360 0.400641 0.152987
0.439948 0.401678 0.153231
0.471565 0.403601 0.156619
0.508049 0.409522 0.165438
0.553216 0.425696 0.180026
0.601282 0.445899 0.200107
0.647639 0.465522 0.222812
0.689845 0.482429 0.247623
0.727474 0.496254 0.272282
0.761196 0.507378 0.296452
0.790341 0.516167 0.320226
0.816495 0.524987 0.344488
0.840360 0.534478 0.369055
0.861845 0.544823 0.394263
0.882200 0.556207 0.419562
0.901701 0.568688 0.445136
0.920470 0.582177 0.470710
0.938628 0.596674 0.496407
0.956115 0.612146 0.522362
0.209781 0.441871 0.170321
0.210788 0.441871 0.170443
0.215122 0.441871 0.170687
0.223270 0.441749 0.171237
0.235508 0.441657 0.172122
0.251133 0.441505 0.173251
0.269383 0.441291 0.174594
0.289342 0.440955 0.175692
0.310063 0.440742 0.176791
0.331487 0.440345 0.177340
0.353765 0.439704 0.177371
0.376593 0.438880 0.176883
0.400183 0.437934 0.176120
0.424445 0.437110 0.174807
0.449775 0.436805 0.173861
0.476631 0.437507 0.174319
0.506950 0.438941 0.177981
0.540795 0.442725 0.186679
0.582940 0.456489 0.201999
0.628748 0.475380 0.222995
0.673396 0.494667 0.247532
0.714992 0.512413 0.273747
0.753262 0.528069 0.300511
0.786343 0.540703 0.326970
0.814420 0.550896 0.353033
0.838560 0.559808 0.378393
0.860258 0.569238 0.403906
0.880797 0.579706 0.429603
0.900420 0.591241 0.455238
0.919280 0.603723 0.480781
0.937407 0.617182 0.506401
0.954803 0.631678 0.532250
0.236271 0.477028 0.192264
0.237186 0.477028 0.192233
0.240909 0.476967 0.192599
0.247929 0.476936 0.193027
0.258671 0.476814 0.193790
0.272679 0.476631 0.194919
0.289372 0.476417 0.196048
0.307866 0.476143 0.197391
0.327794 0.475807 0.198489
0.348028 0.475532 0.199344
0.369085 0.475044 0.199893
0.391089 0.474342 0.199863
0.413489 0.473457 0.199252
0.436530 0.472480 0.198398
0.460365 0.471534 0.197360
0.485115 0.471046 0.196658
0.511131 0.471443 0.197330
0.540063 0.472450 0.201144
0.571771 0.474617 0.209293
0.610651 0.485634 0.224704
0.653803 0.502983 0.246250
0.697414 0.522240 0.272129
0.739101 0.541039 0.300084
0.776333 0.557580 0.328923
0.808194 0.571557 0.357916
0.835050 0.583246 0.386267
0.857939 0.593164 0.413092
0.878813 0.602899 0.439094
0.898680 0.613581 0.464912
0.917723 0.625177 0.490517
0.935912 0.637751 0.516167
0.953307 0.651270 0.541924
0.262882 0.510216 0.215549
0.263706 0.510185 0.215549
0.266941 0.510155 0.215854
0.272892 0.510124 0.216342
0.282383 0.509972 0.217014
0.294865 0.509819 0.217960
0.309941 0.509575 0.219089
0.326909 0.509361 0.220462
0.345464 0.509087 0.221775
0.364569 0.508782 0.222751
0.384405 0.508415 0.223423
0.405097 0.507805 0.223606
0.426490 0.507042 0.223423
0.448463 0.506065 0.222873
0.470924 0.504967 0.221897
0.494179 0.503960 0.221103
0.518212 0.503349 0.220615
0.543481 0.503410 0.221683
0.570916 0.504051 0.225345
0.601038 0.505241 0.233188
0.636683 0.513603 0.248020
0.678035 0.529808 0.270115
0.720821 0.549035 0.297032
0.761440 0.568170 0.326543
0.796933 0.585260 0.357610
0.827115 0.600122 0.388708
0.852842 0.613184 0.418921
0.875761 0.624842 0.447333
0.896422 0.635523 0.473945
0.915770 0.646357 0.499763
0.934142 0.658076 0.525475
0.951598 0.670741 0.551141
0.289250 0.541314 0.240116
0.289982 0.541283 0.240238
0.292699 0.541253 0.240269
0.297978 0.541192 0.240818
0.306218 0.541070 0.241398
0.317021 0.540948 0.242313
0.330480 0.540764 0.243290
0.346044 0.540490 0.244511
0.363043 0.540215 0.245853
0.381140 0.539879 0.246921
0.399786 0.539574 0.247807
0.419074 0.539208 0.248325
0.439246 0.538476 0.248295
0.460029 0.537621 0.247898
0.481392 0.536614 0.247410
0.503288 0.535515 0.246616
0.525841 0.534417 0.245731
0.549248 0.533593 0.245518
0.573632 0.533471 0.246891
0.599939 0.534020 0.250523
0.629175 0.535088 0.258335
0.662470 0.541466 0.272374
0.702113 0.556420 0.294438
0.743526 0.575250 0.322271
0.781888 0.593957 0.353491
0.815366 0.611353 0.386358
0.843992 0.626978 0.419074
0.869535 0.641413 0.450599
0.892424 0.654597 0.480354
0.913176 0.666743 0.508080
0.932006 0.678065 0.534295
0.949676 0.689937 0.559991
0.315221 0.570520 0.265537
0.315709 0.570489 0.265629
0.318029 0.570428 0.265782
0.322545 0.570428 0.266239
0.329747 0.570306 0.266850
0.339330 0.570153 0.267674
0.351293 0.570001 0.268498
0.365301 0.569757 0.269657
0.380743 0.569482 0.270939
0.397559 0.569177 0.272068
0.415198 0.568841 0.273045
0.433143 0.568566 0.273777
0.451972 0.568048 0.273960
0.471534 0.567376 0.273960
0.491768 0.566491 0.273594
0.512535 0.565423 0.272892
0.533867 0.564355 0.272068
0.555932 0.563348 0.271489
0.578820 0.562646 0.271489
0.602686 0.562676 0.273106
0.628351 0.563378 0.276951
0.656886 0.564508 0.284581
0.688350 0.569390 0.297673
0.726192 0.583001 0.319646
0.764950 0.600519 0.348150
0.800748 0.618677 0.380621
0.832120 0.636072 0.414771
0.860197 0.652705 0.448859
0.885557 0.668299 0.481361
0.908385 0.682765 0.512108
0.928893 0.696193 0.541070
0.947356 0.708492 0.568078
0.340703 0.598871 0.291875
0.341222 0.598871 0.291936
0.343236 0.598779 0.291997
0.347082 0.598779 0.292393
0.353368 0.598688 0.292943
0.361822 0.598535 0.293675
0.372503 0.598383 0.294499
0.385046 0.598199 0.295537
0.399176 0.597955 0.296666
0.414679 0.597650 0.297826
0.431067 0.597375 0.298833
0.447974 0.597101 0.299718
0.465553 0.596735 0.300175
0.483925 0.596185 0.300328
0.503014 0.595514 0.300298
0.522637 0.594659 0.299779
0.542870 0.593683 0.299077
0.563745 0.592706 0.298314
0.585412 0.591821 0.298070
0.607843 0.591333 0.298344
0.631250 0.591516 0.300114
0.656397 0.592432 0.304265
0.684321 0.593774 0.311894
0.714290 0.597498 0.324163
0.749172 0.609094 0.345769
0.785031 0.625177 0.374762
0.818235 0.642542 0.408057
0.848478 0.660182 0.443061
0.876127 0.677577 0.477882
0.901244 0.694148 0.511284
0.923705 0.709621 0.543023
0.943755 0.723934 0.572839
0.365820 0.626825 0.318517
0.366247 0.626825 0.318517
0.368017 0.626764 0.318639
0.371557 0.626734 0.319005
0.376867 0.626673 0.319463
0.384436 0.626520 0.320134
0.393866 0.626429 0.320867
0.405188 0.626215 0.321843
0.418158 0.625971 0.322942
0.432380 0.625727 0.324041
0.447547 0.625452 0.325109
0.463600 0.625177 0.326116
0.480049 0.624903 0.326665
0.497200 0.624537 0.327031
0.515099 0.624018 0.327184
0.533745 0.623316 0.327062
0.553002 0.622492 0.326574
0.572778 0.621607 0.325902
0.593256 0.620752 0.325505
0.614496 0.620081 0.325322
0.636530 0.619837 0.326024
0.659663 0.620203 0.328161
0.684230 0.621332 0.332464
0.711330 0.622675 0.340276
0.739315 0.625238 0.352148
0.771176 0.634730 0.373236
0.804013 0.649256 0.402258
0.835325 0.666072 0.435828
0.864927 0.684108 0.471351
0.892180 0.702083 0.506645
0.916716 0.719265 0.540795
0.938567 0.735378 0.573266
0.390600 0.654597 0.345495
0.390936 0.654627 0.345495
0.392462 0.654597 0.345647
0.395575 0.654536 0.345861
0.400427 0.654475 0.346288
0.407050 0.654353 0.346868
0.415595 0.654231 0.347601
0.425757 0.654017 0.348455
0.437476 0.653834 0.349432
0.450629 0.653590 0.350500
0.464790 0.653346 0.351629
0.479744 0.653040 0.352544
0.495308 0.652827 0.353399
0.511437 0.652552 0.353918
0.528283 0.652186 0.354284
0.545861 0.651606 0.354376
0.564050 0.650965 0.354223
0.582910 0.650233 0.353857
0.602350 0.649470 0.353460
0.622431 0.648707 0.353216
0.643244 0.648188 0.353460
0.664912 0.648005 0.354620
0.687404 0.648341 0.357244
0.711055 0.649348 0.362005
0.736843 0.650538 0.370123
0.763210 0.652583 0.381964
0.792020 0.660029 0.401953
0.822507 0.673304 0.430732
0.852934 0.690059 0.464332
0.881834 0.708186 0.499886
0.908324 0.726345 0.535515
0.932036 0.743862 0.570245
0.415442 0.681422 0.373144
0.415717 0.681422 0.373144
0.417090 0.681422 0.373236
0.419867 0.681361 0.373480
0.424109 0.681300 0.373877
0.430121 0.681178 0.374395
0.437629 0.681056 0.375036
0.446815 0.680903 0.375830
0.457496 0.680720 0.376776
0.469459 0.680476 0.377691
0.482643 0.680232 0.378729
0.496559 0.679988 0.379797
0.511223 0.679713 0.380591
0.526329 0.679500 0.381323
0.542138 0.679225 0.381872
0.558648 0.678828 0.382208
0.575860 0.678279 0.382238
0.593591 0.677699 0.382177
0.612024 0.676967 0.382055
0.631067 0.676265 0.381994
0.650660 0.675593 0.382086
0.670985 0.675135 0.382818
0.692012 0.674983 0.384558
0.713771 0.675349 0.387640
0.736324 0.676326 0.392920
0.760800 0.677424 0.401404
0.785794 0.679286 0.413458
0.812497 0.685389 0.432441
0.841764 0.698085 0.460456
0.871244 0.714565 0.493751
0.899168 0.732509 0.529198
0.924620 0.750637 0.565026
0.440803 0.706935 0.401740
0.441047 0.706905 0.401801
0.442298 0.706905 0.401923
0.444709 0.706844 0.402106
0.448493 0.706783 0.402441
0.453773 0.706691 0.402869
0.460517 0.706600 0.403479
0.468727 0.706447 0.404181
0.478401 0.706264 0.404974
0.489326 0.706050 0.405921
0.501213 0.705837 0.406867
0.514183 0.705592 0.407782
0.527855 0.705318 0.408728
0.542077 0.705104 0.409552
0.556756 0.704891 0.410224
0.572168 0.704585 0.410712
0.588312 0.704158 0.410956
0.605066 0.703639 0.411231
0.622400 0.703090 0.411261
0.640314 0.702449 0.411322
0.658839 0.701778 0.411597
0.677913 0.701259 0.412116
0.697597 0.700862 0.413367
0.717922 0.700801 0.415625
0.738888 0.701259 0.419409
0.760433 0.702296 0.425360
0.783780 0.703670 0.434272
0.808225 0.706142 0.446723
0.833951 0.711788 0.464790
0.862028 0.723903 0.491829
0.890288 0.739803 0.524590
0.916899 0.757351 0.559838
0.466865 0.731228 0.431403
0.467048 0.731228 0.431403
0.468177 0.731228 0.431525
0.470253 0.731167 0.431678
0.473610 0.731136 0.431952
0.478309 0.731044 0.432349
0.484260 0.730922 0.432898
0.491707 0.730770 0.433448
0.500298 0.730617 0.434180
0.510094 0.730434 0.435035
0.521141 0.730190 0.435889
0.532921 0.730007 0.436835
0.545586 0.729732 0.437751
0.558862 0.729519 0.438605
0.572595 0.729335 0.439399
0.586969 0.729091 0.440009
0.601984 0.728817 0.440528
0.617639 0.728389 0.440986
0.633906 0.727962 0.441291
0.650690 0.727443 0.441627
0.668116 0.726864 0.441962
0.686000 0.726375 0.442573
0.704494 0.725978 0.443702
0.723507 0.725856 0.445502
0.743191 0.726040 0.448371
0.763546 0.726864 0.452857
0.784604 0.728481 0.459297
0.807401 0.730617 0.468696
0.831540 0.733822 0.481666
0.856413 0.739437 0.499184
0.883146 0.750790 0.525414
0.909819 0.765896 0.557427
0.493904 0.755062 0.461952
0.494057 0.755062 0.462043
0.494972 0.755032 0.462074
0.496834 0.755032 0.462196
0.499825 0.754971 0.462501
0.503929 0.754849 0.462837
0.509331 0.754757 0.463294
0.515892 0.754635 0.463874
0.523613 0.754482 0.464515
0.532464 0.754299 0.465248
0.542412 0.754086 0.466072
0.553277 0.753841 0.466926
0.564904 0.753658 0.467842
0.577203 0.753445 0.468727
0.590051 0.753262 0.469581
0.603296 0.753109 0.470283
0.617304 0.752895 0.471046
0.631861 0.752590 0.471565
0.647028 0.752285 0.472084
0.662745 0.751949 0.472602
0.679103 0.751583 0.473243
0.695918 0.751278 0.473976
0.713313 0.751064 0.474983
0.731289 0.751003 0.476661
0.749905 0.751308 0.479042
0.769131 0.752041 0.482521
0.789090 0.753414 0.487709
0.809751 0.755642 0.494881
0.831968 0.758480 0.504875
0.855619 0.762417 0.518517
0.879545 0.768002 0.535973
0.904723 0.778653 0.561547
0.521904 0.779690 0.493629
0.522118 0.779690 0.493721
0.522911 0.779660 0.493751
0.524498 0.779660 0.493874
0.527184 0.779568 0.494118
0.530877 0.779507 0.494392
0.535637 0.779385 0.494850
0.541527 0.779294 0.495369
0.548516 0.779110 0.495918
0.556573 0.778958 0.496651
0.565545 0.778775 0.497383
0.575463 0.778561 0.498177
0.586175 0.778347 0.499031
0.597528 0.778134 0.499916
0.609461 0.777981 0.500725
0.621820 0.777829 0.501579
0.634760 0.777707 0.502373
0.648341 0.777523 0.503044
0.662470 0.777340 0.503777
0.677180 0.777127 0.504448
0.692439 0.776913 0.505241
0.708217 0.776761 0.506126
0.724575 0.776699 0.507225
0.741543 0.776791 0.508873
0.759060 0.777127 0.511040
0.777218 0.777829 0.514122
0.796017 0.779049 0.518456
0.815518 0.780972 0.524437
0.835691 0.783749 0.532555
0.857237 0.787228 0.543420
0.880125 0.791714 0.557916
0.903105 0.797665 0.576104
0.551690 0.805173 0.526970
0.551843 0.805203 0.527001
0.552605 0.805173 0.527092
0.554070 0.805142 0.527184
0.556451 0.805081 0.527367
0.559716 0.805020 0.527642
0.563958 0.804898 0.528008
0.569207 0.804807 0.528405
0.575494 0.804654 0.528985
0.582757 0.804501 0.529595
0.590906 0.804318 0.530358
0.599939 0.804135 0.531060
0.609705 0.803922 0.531884
0.620172 0.803738 0.532738
