Luts/panasonic/夏日暖风.cube
# Created by Adobe Lightroom plugin Export LUT (1.34.0)
# www.johnrellis.com/lightroom/exportlut.htm
# Preset: Silver03
# Color profile: /Volumes/Media/影片/Lut/exportlut.lrplugin/color profiles/Rec709gamma2.4.icc
LUT_3D_SIZE 8
DOMAIN_MIN 0.000000 0.000000 0.000000
DOMAIN_MAX 0.903226 0.903226 0.903226
0.065888 0.063508 0.054414
0.103365 0.067323 0.063752
0.199405 0.091585 0.089906
0.356268 0.099947 0.098421
0.535393 0.121065 0.128328
0.688685 0.199344 0.189425
0.809781 0.291844 0.267857
0.904265 0.389868 0.364569
0.069459 0.109712 0.071717
0.110903 0.108583 0.072663
0.202609 0.127871 0.086549
0.362829 0.147189 0.100404
0.539971 0.173922 0.133547
0.691127 0.236637 0.196201
0.810971 0.315801 0.274784
0.904295 0.405737 0.371069
0.117983 0.210178 0.099580
0.147463 0.209964 0.101350
0.215396 0.209293 0.100069
0.368780 0.252689 0.103182
0.551568 0.298009 0.146456
0.698756 0.341375 0.217838
0.815000 0.394263 0.299382
0.904082 0.462684 0.396063
0.163027 0.366064 0.133516
0.194888 0.365942 0.135592
0.276646 0.364874 0.139345
0.373175 0.362737 0.135134
0.521263 0.393439 0.159396
0.699733 0.462226 0.244327
0.817441 0.498360 0.335210
0.902586 0.546227 0.434760
0.262882 0.510216 0.215549
0.282383 0.509972 0.217014
0.345464 0.509087 0.221775
0.426490 0.507042 0.223423
0.518212 0.503349 0.220615
0.636683 0.513603 0.248020
0.796933 0.585260 0.357610
0.896422 0.635523 0.473945
0.365820 0.626825 0.318517
0.376867 0.626673 0.319463
0.418158 0.625971 0.322942
0.480049 0.624903 0.326665
0.553002 0.622492 0.326574
0.636530 0.619837 0.326024
0.739315 0.625238 0.352148
0.864927 0.684108 0.471351
0.466865 0.731228 0.431403
0.473610 0.731136 0.431952
0.500298 0.730617 0.434180
0.545586 0.729732 0.437751
0.601984 0.728817 0.440528
0.668116 0.726864 0.441962
0.743191 0.726040 0.448371
0.831540 0.733822 0.481666
0.583856 0.831357 0.562493
0.588006 0.831266 0.562860
0.605005 0.830869 0.564385
0.635889 0.830228 0.567010
0.677150 0.829679 0.570397
0.726650 0.829435 0.574121
0.784665 0.830198 0.580560
0.851682 0.835386 0.597559
0.077394 0.090974 0.102510
0.105776 0.086824 0.102510
0.200137 0.094667 0.119234
0.357641 0.098817 0.138888
0.533043 0.129824 0.170077
0.684352 0.210361 0.223972
0.805203 0.301061 0.294377
0.900114 0.397314 0.384314
0.085298 0.112154 0.106600
0.117556 0.117494 0.110170
0.211612 0.130617 0.123598
0.366796 0.146670 0.142397
0.538415 0.179721 0.175387
0.687129 0.245212 0.230289
0.806516 0.323919 0.300877
0.900145 0.412879 0.390692
0.107179 0.220584 0.132021
0.146181 0.221195 0.133120
0.224857 0.220096 0.134432
0.380255 0.262211 0.149050
0.552117 0.302403 0.191012
0.695674 0.346929 0.251835
0.810910 0.400488 0.325292
0.900084 0.468788 0.415076
0.162112 0.372869 0.169223
0.196628 0.372778 0.170993
0.282963 0.371893 0.175174
0.379156 0.369574 0.173678
0.527642 0.402350 0.200443
0.699153 0.466835 0.278569
0.814054 0.502953 0.360845
0.898985 0.551049 0.453071
0.266514 0.513909 0.242557
0.286290 0.513695 0.243870
0.350011 0.512810 0.248478
0.430762 0.510826 0.250889
0.521294 0.507103 0.248936
0.639216 0.518669 0.276188
0.796567 0.590509 0.383032
0.893675 0.638911 0.491035
0.369665 0.628779 0.337469
0.380682 0.628626 0.338354
0.421820 0.627955 0.341863
0.483558 0.626856 0.345830
0.555444 0.624567 0.346014
0.637873 0.621942 0.345708
0.739681 0.627771 0.371130
0.864256 0.687861 0.488106
0.469673 0.731930 0.443915
0.476387 0.731807 0.444495
0.502922 0.731289 0.446662
0.547936 0.730404 0.450141
0.603876 0.729458 0.453101
0.669123 0.727596 0.454505
0.743374 0.726864 0.460700
0.831083 0.734890 0.492866
0.585229 0.831693 0.569451
0.589380 0.831601 0.569787
0.606287 0.831205 0.571191
0.637110 0.830533 0.573785
0.678309 0.829923 0.577081
0.727382 0.829709 0.580865
0.785000 0.830472 0.587091
0.851591 0.835721 0.603571
0.094118 0.122621 0.190707
0.124849 0.122560 0.192508
0.205997 0.120668 0.196445
0.349004 0.110964 0.229374
0.517327 0.148440 0.266239
0.665675 0.231540 0.312718
0.787411 0.323674 0.371954
0.884733 0.418769 0.447211
0.107668 0.153414 0.199588
0.136965 0.153719 0.202029
0.216648 0.153719 0.206851
0.359808 0.152010 0.236423
0.523491 0.192111 0.272831
0.668971 0.263676 0.319890
0.789059 0.345739 0.379034
0.884825 0.433783 0.453498
0.117281 0.233066 0.221897
0.152468 0.238163 0.225956
0.257176 0.260136 0.243870
0.397131 0.279240 0.266087
0.547631 0.315679 0.301274
0.681727 0.363592 0.347906
0.794766 0.420081 0.405524
0.885283 0.487984 0.477455
0.149325 0.396612 0.283177
0.190158 0.397925 0.282261
0.299931 0.399603 0.282261
0.402808 0.396979 0.284855
0.553185 0.439185 0.322972
0.693141 0.481483 0.381781
0.800961 0.519280 0.443244
0.885832 0.567437 0.514122
0.275975 0.529534 0.333806
0.296422 0.529351 0.334600
0.364294 0.528679 0.338598
0.448463 0.526970 0.343297
0.533562 0.523125 0.342626
0.650690 0.541588 0.373724
0.794308 0.610468 0.469947
0.883635 0.651423 0.549920
0.382849 0.637568 0.406409
0.393866 0.637385 0.407172
0.434974 0.636683 0.410224
0.497353 0.635370 0.414649
0.565850 0.633509 0.416022
0.643519 0.631006 0.415900
0.741604 0.638819 0.440131
0.862364 0.703120 0.549554
0.479927 0.735195 0.491035
0.486427 0.735073 0.491554
0.512535 0.734463 0.493385
0.557031 0.733455 0.496651
0.611536 0.732448 0.499825
0.673548 0.730831 0.501366
0.744259 0.730404 0.506523
0.829587 0.739376 0.534752
0.589624 0.833341 0.595911
0.593774 0.833249 0.596185
0.610559 0.832792 0.597345
0.641230 0.832059 0.599634
0.682368 0.831296 0.602716
0.730282 0.831052 0.606348
0.786221 0.831785 0.612055
0.851286 0.837125 0.626673
0.086549 0.179660 0.334051
0.132967 0.181857 0.336248
0.235294 0.187320 0.344182
0.356054 0.185092 0.352148
0.502739 0.173129 0.378820
0.644617 0.232425 0.412024
0.762295 0.325780 0.455085
0.862760 0.425055 0.515465
0.118379 0.209781 0.340459
0.153536 0.211734 0.342626
0.246372 0.217258 0.350469
0.363317 0.217197 0.358709
0.507713 0.208286 0.384558
0.646387 0.262730 0.417121
0.763088 0.347570 0.461067
0.862425 0.440681 0.521416
0.163760 0.299321 0.361151
0.195193 0.301183 0.363653
0.284306 0.307988 0.373449
0.390967 0.315435 0.385321
0.526848 0.315068 0.408453
0.653681 0.361273 0.440497
0.767178 0.424598 0.486824
0.862608 0.498299 0.545800
0.194644 0.399664 0.393103
0.224247 0.402960 0.395972
0.316503 0.417334 0.408576
0.440650 0.447364 0.437476
0.560388 0.462959 0.459358
0.674800 0.494850 0.493507
0.778805 0.534539 0.535729
0.866087 0.583612 0.586999
0.283543 0.551812 0.472419
0.303655 0.553124 0.473060
0.373632 0.557519 0.474372
0.473518 0.559655 0.474952
0.558282 0.556451 0.476875
0.676600 0.591241 0.518242
0.785489 0.633173 0.575799
0.869657 0.668605 0.625849
0.397131 0.656764 0.511772
0.408515 0.656550 0.511925
0.451331 0.655512 0.512779
0.516808 0.653986 0.516381
0.586175 0.652186 0.519829
0.655390 0.649439 0.519493
0.748714 0.663691 0.545861
0.862486 0.730129 0.638483
0.494514 0.743465 0.564935
0.500969 0.743221 0.565240
0.526726 0.742367 0.566552
0.571160 0.740963 0.569116
0.625605 0.739406 0.572442
0.682582 0.738155 0.574334
0.747127 0.738033 0.577661
0.828672 0.748653 0.600977
0.593225 0.837613 0.638819
0.597375 0.837491 0.639002
0.614221 0.836973 0.639612
0.645289 0.836057 0.641016
0.687312 0.834928 0.643519
0.734798 0.834470 0.646906
0.788663 0.834989 0.651850
0.851560 0.840116 0.663661
0.146944 0.266941 0.483742
0.179202 0.269474 0.485542
0.268498 0.278111 0.492622
0.380041 0.287541 0.504845
0.498543 0.289097 0.513970
0.624537 0.278325 0.528466
0.746731 0.322698 0.551019
0.846799 0.407843 0.583673
0.172091 0.289128 0.487098
0.198917 0.291325 0.488838
0.280003 0.299443 0.495827
0.386633 0.309117 0.508141
0.502037 0.311528 0.517571
0.626184 0.301396 0.531853
0.746944 0.342504 0.554192
0.846036 0.423011 0.587152
0.228336 0.359838 0.499580
0.249760 0.361486 0.501274
0.317906 0.368933 0.508324
0.411322 0.381384 0.521569
0.516869 0.387366 0.532769
0.633204 0.379461 0.546105
0.748043 0.412634 0.567773
0.843503 0.479011 0.601892
0.276280 0.455360 0.522789
0.294865 0.457191 0.524437
0.359991 0.464240 0.531334
0.453285 0.478157 0.546380
0.546319 0.492409 0.563226
0.648890 0.487953 0.575067
0.752346 0.515099 0.595666
0.843381 0.567559 0.632959
0.323064 0.544213 0.556115
0.339178 0.546136 0.557733
0.397803 0.554376 0.564874
0.486793 0.571466 0.580133
0.587793 0.598871 0.606775
0.678614 0.609491 0.622095
0.768673 0.637354 0.649104
0.855741 0.670893 0.681788
0.411505 0.669154 0.625238
0.422095 0.670192 0.626001
0.462898 0.674128 0.628840
0.529168 0.680293 0.631403
0.610498 0.681727 0.630488
0.676722 0.678981 0.631617
0.769772 0.709834 0.667292
0.867002 0.751431 0.713222
0.504509 0.759426 0.654261
0.511040 0.759274 0.654017
0.537255 0.758511 0.652979
0.583337 0.756497 0.651637
0.640742 0.753689 0.652644
0.697566 0.751858 0.655146
0.754574 0.751278 0.656428
0.835691 0.767453 0.677699
0.590112 0.846494 0.693477
0.594324 0.846281 0.693263
0.611536 0.845487 0.692866
0.643854 0.844175 0.692744
0.688991 0.842527 0.693721
0.739803 0.841154 0.696284
0.792447 0.841154 0.699886
0.853269 0.845335 0.708339
0.241886 0.360784 0.612848
0.259800 0.362890 0.613977
0.320836 0.370764 0.618555
0.408667 0.382940 0.627588
0.508751 0.394903 0.639643
0.612085 0.398444 0.646998
0.722286 0.389715 0.656886
0.834226 0.417395 0.674128
0.256809 0.375494 0.614405
0.273136 0.377447 0.615473
0.330632 0.385046 0.620020
0.414984 0.397253 0.629053
0.512810 0.409339 0.641199
0.614130 0.413153 0.648676
0.722805 0.404395 0.658564
0.833646 0.430243 0.675624
0.301579 0.426703 0.620539
0.315465 0.428260 0.621607
0.364416 0.435340 0.626093
0.439460 0.447822 0.635187
0.528801 0.461128 0.647852
0.622919 0.466285 0.656123
0.725704 0.457343 0.665827
0.831937 0.477577 0.681727
0.349493 0.501335 0.632349
0.361730 0.502647 0.633356
0.407752 0.508324 0.637903
0.477546 0.520226 0.647181
0.556725 0.536431 0.660914
0.640406 0.544976 0.671229
0.733089 0.535851 0.680354
0.830930 0.550439 0.693507
0.394232 0.583062 0.652613
0.404486 0.584344 0.653498
0.443946 0.589532 0.657252
0.508843 0.598566 0.664698
0.590417 0.613611 0.678676
0.667567 0.630915 0.694423
0.747768 0.622095 0.701289
0.834867 0.637385 0.713252
0.440497 0.657954 0.680415
0.449470 0.658991 0.681209
0.484199 0.663508 0.684504
0.543236 0.672633 0.691371
0.618860 0.688014 0.703456
0.701198 0.711513 0.724208
0.775570 0.720577 0.735958
0.860044 0.745724 0.759274
0.519463 0.762356 0.735164
0.525658 0.762966 0.735592
0.550164 0.765591 0.737423
0.593408 0.770718 0.740291
0.649104 0.777340 0.741207
0.715846 0.777829 0.737423
0.772763 0.775326 0.737758
0.861845 0.808347 0.771786
0.586633 0.858915 0.768002
0.590692 0.858946 0.767636
0.607416 0.858976 0.765866
0.639490 0.858457 0.762142
0.686549 0.856291 0.757168
0.743740 0.853117 0.756069
0.799710 0.851682 0.758480
0.857481 0.853910 0.763180
0.361181 0.466316 0.728603
0.370916 0.467811 0.729061
0.408515 0.473793 0.730983
0.469917 0.484047 0.735103
0.545739 0.496712 0.741634
0.628931 0.507866 0.749355
0.714107 0.511131 0.753872
0.806729 0.505028 0.761807
0.369543 0.475685 0.729030
0.379034 0.477119 0.729427
0.415229 0.482948 0.731380
0.475074 0.493111 0.735500
0.549432 0.505608 0.742000
0.631342 0.516960 0.749752
0.715145 0.520287 0.754330
0.806790 0.513878 0.762417
0.398627 0.510124 0.730861
0.407233 0.511376 0.731258
0.439887 0.516777 0.733120
0.494545 0.526513 0.737179
0.563745 0.539117 0.743801
0.640864 0.551049 0.751797
0.719722 0.554894 0.756710
0.807279 0.547570 0.765133
0.435492 0.563287 0.734707
0.443397 0.564233 0.735134
0.473823 0.568505 0.736995
0.524102 0.577417 0.741024
0.587304 0.590692 0.747951
0.658167 0.604578 0.756741
0.729152 0.610101 0.762448
0.810086 0.601251 0.771359
0.465095 0.625177 0.741604
0.472114 0.625818 0.741939
0.499947 0.628687 0.743435
0.549676 0.634943 0.747158
0.612604 0.646571 0.754574
0.678767 0.662440 0.765591
0.744381 0.670893 0.773770
0.819791 0.660395 0.782437
0.499825 0.690120 0.754391
0.505669 0.690761 0.754726
0.529015 0.693416 0.756130
0.571099 0.698421 0.759182
0.628016 0.705531 0.764828
0.698451 0.718441 0.777401
0.767361 0.735866 0.793057
0.839811 0.724941 0.799496
0.540917 0.753414 0.776944
0.545953 0.753933 0.777279
0.566491 0.756252 0.778775
0.603967 0.761105 0.782101
0.655390 0.769589 0.788296
0.720302 0.783566 0.799161
0.797971 0.807004 0.819120
0.870817 0.818540 0.831815
0.598657 0.854856 0.832120
0.602564 0.855283 0.832395
0.618677 0.857267 0.833555
0.649165 0.861204 0.835599
0.692927 0.867155 0.837552
0.747127 0.873014 0.835721
0.812131 0.870970 0.829068
0.868345 0.869657 0.830289
0.520806 0.600061 0.835935
0.525628 0.600855 0.836027
0.545403 0.604181 0.836484
0.581079 0.610101 0.837522
0.629206 0.617639 0.839384
0.685908 0.625360 0.842252
0.748226 0.631403 0.845701
0.814145 0.632532 0.848661
0.524956 0.605432 0.836149
0.529778 0.606195 0.836240
0.549157 0.609461 0.836698
0.584222 0.615259 0.837736
0.631647 0.622644 0.839628
0.687709 0.630213 0.842527
0.749416 0.636255 0.846006
0.814755 0.637385 0.848966
0.540429 0.626062 0.837125
0.544915 0.626795 0.837217
0.563073 0.629694 0.837675
0.595941 0.634974 0.838773
0.640955 0.641749 0.840726
0.694606 0.648981 0.843748
0.754147 0.654963 0.847410
0.817350 0.656092 0.850462
0.561059 0.659663 0.839353
0.565332 0.660182 0.839445
0.582513 0.662287 0.840024
0.613001 0.666590 0.841215
0.654627 0.672572 0.843351
0.705257 0.679286 0.846708
0.762234 0.685389 0.850828
0.822721 0.686824 0.854093
0.574609 0.700587 0.842924
0.578637 0.700862 0.843107
0.595239 0.701839 0.843809
0.625971 0.703975 0.845274
0.666835 0.708431 0.847807
0.716457 0.715633 0.851713
0.772915 0.723629 0.856718
0.831601 0.726497 0.860472
0.581079 0.747585 0.848600
0.584680 0.747677 0.848722
0.599451 0.747951 0.849302
0.628077 0.748653 0.850675
0.671626 0.750668 0.853361
0.727260 0.757259 0.858030
0.786404 0.768978 0.864836
0.844816 0.775296 0.870237
0.596368 0.798093 0.857267
0.599573 0.798337 0.857450
0.613184 0.799405 0.858122
0.639460 0.801480 0.859586
0.678462 0.804562 0.861967
0.730068 0.807919 0.865629
0.799039 0.817044 0.873747
0.864134 0.832731 0.884825
0.625513 0.854887 0.876341
0.628595 0.855161 0.876493
0.641566 0.856229 0.877043
0.666743 0.858488 0.878233
0.704433 0.862303 0.880339
0.754574 0.868437 0.883970
0.818204 0.878843 0.890837
0.892668 0.898894 0.906615
