Luts/panasonic/夏日暖风.cube
# Created by Adobe Lightroom plugin Export LUT (1.34.0)
# www.johnrellis.com/lightroom/exportlut.htm
# Preset: Silver03
# Color profile: /Volumes/Media/影片/Lut/exportlut.lrplugin/color profiles/Rec709gamma2.4.icc
LUT_3D_SIZE 5
DOMAIN_MIN 0.000000 0.000000 0.000000
DOMAIN_MAX 0.903226 0.903226 0.903226
0.065888 0.063508 0.054414
0.171176 0.087587 0.088991
0.447272 0.103548 0.109834
0.721187 0.222293 0.207828
0.904265 0.389868 0.364569
0.110842 0.177401 0.094972
0.182162 0.176791 0.095399
0.463233 0.246098 0.118166
0.728023 0.325292 0.230442
0.904173 0.445045 0.388128
0.209781 0.441871 0.170321
0.289342 0.440955 0.175692
0.449775 0.436805 0.173861
0.714992 0.512413 0.273747
0.900420 0.591241 0.455238
0.390600 0.654597 0.345495
0.425757 0.654017 0.348455
0.528283 0.652186 0.354284
0.664912 0.648005 0.354620
0.852934 0.690059 0.464332
0.583856 0.831357 0.562493
0.599451 0.830991 0.563867
0.655543 0.829892 0.568627
0.740352 0.829465 0.575311
0.851682 0.835386 0.597559
0.092164 0.116060 0.162692
0.175235 0.110750 0.165591
0.437537 0.118563 0.221927
0.704097 0.250614 0.303166
0.889555 0.413184 0.429114
0.110506 0.195285 0.185153
0.213291 0.215366 0.201266
0.467353 0.258183 0.245731
0.713527 0.345403 0.327733
0.889830 0.465766 0.451728
0.214054 0.460456 0.272648
0.303563 0.460090 0.276707
0.465644 0.455726 0.280552
0.719326 0.534813 0.378058
0.889036 0.605493 0.515038
0.402930 0.661036 0.406409
0.437720 0.660456 0.409064
0.538964 0.658473 0.415503
0.668574 0.654566 0.416510
0.851713 0.702205 0.520348
0.588373 0.832731 0.587488
0.603754 0.832364 0.588617
0.659602 0.831083 0.592889
0.742733 0.830594 0.599359
0.851377 0.836637 0.619318
0.108064 0.221500 0.410803
0.222751 0.229770 0.418158
0.431220 0.235019 0.435401
0.668635 0.257816 0.476417
0.853819 0.417548 0.547875
0.183352 0.305241 0.426947
0.265934 0.311772 0.434394
0.450019 0.323888 0.454139
0.672084 0.345708 0.491493
0.852018 0.472541 0.566094
0.257694 0.476722 0.479408
0.331914 0.486397 0.488045
0.519890 0.529137 0.529168
0.700771 0.562127 0.569207
0.858579 0.630030 0.638025
0.426429 0.690333 0.580407
0.462165 0.690059 0.579919
0.572015 0.686793 0.581689
0.685847 0.682856 0.584253
0.858396 0.749508 0.673457
0.592523 0.841245 0.664454
0.608087 0.840726 0.664607
0.666011 0.838804 0.666316
0.749905 0.837278 0.671382
0.852171 0.842405 0.684840
0.268528 0.385687 0.643702
0.321752 0.392645 0.647303
0.466499 0.413672 0.661799
0.639063 0.425879 0.676875
0.827909 0.431556 0.697353
0.310369 0.431159 0.648249
0.355108 0.437385 0.651698
0.484840 0.458381 0.666072
0.645716 0.472297 0.681880
0.826719 0.473884 0.701961
0.388403 0.553338 0.666255
0.425544 0.557458 0.669093
0.540429 0.575891 0.683314
0.673732 0.600031 0.704005
0.828824 0.594659 0.720546
0.467384 0.682795 0.706020
0.495857 0.686122 0.708309
0.592523 0.700771 0.718807
0.725856 0.735988 0.748959
0.862242 0.764218 0.777920
0.588769 0.860533 0.787716
0.603571 0.861082 0.786648
0.661280 0.861753 0.780423
0.759274 0.856657 0.773129
0.859281 0.856870 0.778531
0.520806 0.600061 0.835935
0.538903 0.603113 0.836332
0.603845 0.613764 0.838315
0.701076 0.627100 0.843107
0.814145 0.632532 0.848661
0.535637 0.619440 0.836790
0.552636 0.622248 0.837156
0.613825 0.632013 0.839231
0.706996 0.644709 0.844175
0.816464 0.650080 0.849943
0.569421 0.679408 0.841001
0.585046 0.680842 0.841550
0.639948 0.687221 0.844053
0.724331 0.698482 0.850065
0.826658 0.705409 0.856931
0.583703 0.760311 0.850523
0.596643 0.760769 0.851102
0.648585 0.762112 0.853513
0.743984 0.771023 0.861295
0.848936 0.788754 0.873320
0.625513 0.854887 0.876341
0.637201 0.855863 0.876860
0.684077 0.860166 0.879149
0.769223 0.870512 0.885252
0.892668 0.898894 0.906615
