Luts/panasonic/浓厚格调.cube
# Created by Adobe Lightroom plugin Export LUT (1.34.0)
# www.johnrellis.com/lightroom/exportlut.htm
# Preset: Silver04
# Color profile: /Volumes/Media/影片/Lut/exportlut.lrplugin/color profiles/Rec709gamma2.4.icc
LUT_3D_SIZE 5
DOMAIN_MIN 0.000000 0.000000 0.000000
DOMAIN_MAX 0.903226 0.903226 0.903226
0.022400 0.030671 0.045045
0.119020 0.064454 0.089052
0.295171 0.133364 0.131533
0.553033 0.220615 0.220340
0.918608 0.343328 0.326207
0.050202 0.137118 0.093416
0.138674 0.131411 0.098970
0.338689 0.205661 0.153140
0.603082 0.284581 0.241764
0.952056 0.404425 0.345647
0.137087 0.370672 0.207767
0.229923 0.373144 0.211917
0.392981 0.351354 0.225711
0.755459 0.513024 0.287968
1.000000 0.626001 0.439399
0.306249 0.752499 0.344701
0.387091 0.754940 0.347143
0.608362 0.752621 0.360540
0.816678 0.706477 0.381292
1.000000 0.798825 0.570703
0.751095 0.965515 0.731258
0.766995 0.965576 0.733516
0.826902 0.964996 0.740291
0.920012 0.957153 0.749630
1.000000 0.934905 0.774044
0.015930 0.077302 0.153231
0.132479 0.050690 0.171206
0.306432 0.129671 0.205661
0.537407 0.221866 0.275364
0.899901 0.339086 0.364996
0.030823 0.145113 0.172122
0.135988 0.159182 0.190463
0.310430 0.205570 0.233005
0.569848 0.279942 0.296483
0.929412 0.398749 0.383856
0.101320 0.373999 0.279698
0.206119 0.383124 0.282902
0.394842 0.368627 0.293950
0.757778 0.521569 0.358465
1.000000 0.628748 0.490791
0.295537 0.755032 0.406592
0.377081 0.758694 0.409094
0.602106 0.760891 0.420142
0.815427 0.717281 0.439582
1.000000 0.816312 0.630121
0.760311 0.963836 0.757015
0.775204 0.964019 0.759213
0.831052 0.963958 0.765591
0.919280 0.957519 0.774441
0.999298 0.937438 0.795102
0.000000 0.148135 0.343511
0.137911 0.153262 0.365759
0.362463 0.128176 0.416571
0.672877 0.122774 0.464302
0.947967 0.320989 0.503655
0.066957 0.203250 0.346197
0.154543 0.213230 0.365270
0.370245 0.215335 0.426856
0.678645 0.237980 0.470100
0.938476 0.389380 0.513939
0.108461 0.372808 0.406897
0.199252 0.381994 0.415686
0.405097 0.428382 0.460304
0.654261 0.478340 0.495888
0.945739 0.595392 0.587884
0.336919 0.747463 0.582177
0.399268 0.754177 0.591760
0.582025 0.777768 0.618189
0.804379 0.757595 0.630854
0.982177 0.865843 0.783078
0.780545 0.959747 0.825406
0.793393 0.960327 0.827787
0.841306 0.962005 0.835264
0.916564 0.960449 0.842466
0.987152 0.945922 0.853910
0.091218 0.243534 0.567102
0.182467 0.248722 0.590143
0.403967 0.255558 0.687648
0.732876 0.205142 0.769039
1.000000 0.296208 0.787259
0.118807 0.282628 0.562860
0.194217 0.289738 0.584955
0.406989 0.311315 0.684932
0.738003 0.297429 0.775540
1.000000 0.391058 0.791684
0.164736 0.405676 0.581659
0.227695 0.412512 0.590814
0.413062 0.457557 0.658625
0.756405 0.540764 0.797055
1.000000 0.637110 0.813321
0.276646 0.716213 0.734707
0.346227 0.720974 0.739559
0.536736 0.741360 0.759976
0.780026 0.792020 0.807431
0.935088 0.830869 0.833219
0.790829 0.955230 0.886748
0.803830 0.955718 0.889616
0.849760 0.958648 0.900786
0.912596 0.965454 0.915099
0.976349 0.959136 0.919615
0.379889 0.469551 0.919585
0.423621 0.477028 0.924285
0.571466 0.510552 0.943450
0.775509 0.569238 0.973175
0.977050 0.592065 0.985443
0.391760 0.499702 0.916564
0.435035 0.507774 0.921050
0.582269 0.544518 0.939757
0.783291 0.610010 0.969207
0.974243 0.638575 0.982086
0.431098 0.599786 0.908080
0.467323 0.606500 0.910735
0.604608 0.641993 0.925902
0.805447 0.724788 0.956268
0.965972 0.766232 0.973266
0.507774 0.760586 0.918486
0.534813 0.762264 0.918395
0.634607 0.771633 0.918944
0.803922 0.818448 0.935424
0.962036 0.886198 0.970214
0.773892 0.951720 0.953429
0.784787 0.952056 0.953887
0.826017 0.953765 0.955871
0.890959 0.958068 0.960693
0.966613 0.969299 0.972259
