Luts/panasonic/浓厚格调.cube
# Created by Adobe Lightroom plugin Export LUT (1.34.0)
# www.johnrellis.com/lightroom/exportlut.htm
# Preset: Silver04
# Color profile: /Volumes/Media/影片/Lut/exportlut.lrplugin/color profiles/Rec709gamma2.4.icc
LUT_3D_SIZE 32
DOMAIN_MIN 0.0 0.0 0.0
DOMAIN_MAX 1.0 1.0 1.0
0.022400 0.030671 0.045045
0.022400 0.030671 0.045045
0.022400 0.030671 0.045045
0.022400 0.030671 0.045045
0.032990 0.032715 0.049073
0.077852 0.042817 0.064881
0.099825 0.053437 0.081025
0.119020 0.064454 0.089052
0.139864 0.071595 0.093904
0.161593 0.081514 0.098360
0.184573 0.092531 0.102968
0.209842 0.102174 0.106783
0.237034 0.112612 0.112398
0.265202 0.122896 0.121523
0.295171 0.133364 0.131533
0.326482 0.144472 0.142733
0.359960 0.156252 0.154635
0.395056 0.168521 0.167330
0.432044 0.180941 0.180362
0.470558 0.193851 0.193668
0.510948 0.207156 0.206912
0.553033 0.220615 0.220340
0.596887 0.234470 0.233677
0.644343 0.249149 0.247288
0.695857 0.264652 0.261021
0.750790 0.281193 0.275456
0.806851 0.299565 0.290837
0.863188 0.320073 0.307622
0.918608 0.343328 0.326207
0.970001 0.370306 0.347417
1.000000 0.401953 0.372351
1.000000 0.438697 0.402197
0.022400 0.030671 0.045045
0.022400 0.030671 0.045045
0.022400 0.030671 0.045045
0.022400 0.030671 0.045045
0.034974 0.032502 0.049073
0.079194 0.042573 0.064881
0.099580 0.054627 0.080934
0.119448 0.064210 0.089479
0.140261 0.071351 0.093904
0.161624 0.082887 0.098634
0.184634 0.093355 0.102846
0.209964 0.103548 0.106600
0.237400 0.113405 0.112581
0.265629 0.123537 0.121950
0.295506 0.134218 0.131899
0.327001 0.145144 0.143069
0.360418 0.156863 0.154940
0.395453 0.169253 0.167575
0.432410 0.181735 0.180728
0.471015 0.194675 0.193973
0.511376 0.207767 0.207218
0.553399 0.221317 0.220615
0.597345 0.235142 0.233890
0.644770 0.249668 0.247501
0.696315 0.265202 0.261204
0.751247 0.281834 0.275578
0.807279 0.300206 0.291051
0.863584 0.320684 0.307805
0.918975 0.343938 0.326360
0.970245 0.370947 0.347631
1.000000 0.402441 0.372534
1.000000 0.439185 0.402411
0.022400 0.030671 0.045045
0.022400 0.030671 0.045045
0.022400 0.030671 0.045045
0.022400 0.030671 0.045045
0.038911 0.034211 0.050996
0.081636 0.044312 0.066804
0.101808 0.054932 0.081514
0.120607 0.065949 0.089357
0.141146 0.078462 0.094301
0.163027 0.088685 0.098482
0.186404 0.097475 0.102968
0.211826 0.107393 0.106325
0.238773 0.117128 0.113832
0.267247 0.126986 0.123018
0.296941 0.137484 0.133333
0.328649 0.148379 0.144289
0.361975 0.160098 0.156374
0.397162 0.172030 0.168856
0.434119 0.184482 0.181827
0.472755 0.197391 0.195071
0.513115 0.210544 0.208286
0.555261 0.223972 0.221683
0.599145 0.237766 0.234867
0.646662 0.252262 0.248447
0.698268 0.267735 0.262211
0.753079 0.284428 0.276402
0.808988 0.302708 0.291783
0.865141 0.323217 0.308598
0.920378 0.346441 0.327153
0.971344 0.373388 0.348394
1.000000 0.404913 0.373388
1.000000 0.441444 0.403296
0.022400 0.030671 0.045045
0.022400 0.030671 0.045045
0.022400 0.030671 0.045045
0.022400 0.030671 0.045045
0.049348 0.039643 0.054566
0.087251 0.052125 0.070100
0.104280 0.067353 0.083894
0.123293 0.081605 0.089631
0.144259 0.089509 0.094057
0.166201 0.096803 0.098085
0.190158 0.105470 0.101717
0.215488 0.114839 0.107424
0.242130 0.124178 0.116243
0.270420 0.133700 0.125948
0.300237 0.144045 0.135836
0.331853 0.154757 0.146853
0.365484 0.166171 0.158785
0.400549 0.178073 0.171450
0.437629 0.190402 0.184237
0.476387 0.203006 0.197208
0.516838 0.216007 0.210422
0.558923 0.229313 0.223575
0.602899 0.243015 0.236728
0.650446 0.257542 0.250187
0.702113 0.273045 0.263859
0.756802 0.289586 0.278019
0.812467 0.307927 0.293370
0.868345 0.328344 0.310185
0.923095 0.351568 0.328740
0.973449 0.378424 0.350042
1.000000 0.409766 0.375158
1.000000 0.446082 0.405219
0.017365 0.064515 0.054078
0.019348 0.064271 0.054078
0.018341 0.065492 0.055055
0.030091 0.069703 0.056519
0.059998 0.065126 0.058808
0.089723 0.076143 0.067842
0.109102 0.089082 0.080476
0.129213 0.095094 0.087922
0.150301 0.101564 0.091676
0.172549 0.108797 0.096040
0.195956 0.116945 0.101839
0.221012 0.125460 0.110384
0.247532 0.134798 0.119570
0.275883 0.144015 0.129305
0.305791 0.153933 0.139651
0.337499 0.164431 0.150576
0.371130 0.175570 0.162539
0.406378 0.187442 0.174838
0.443519 0.199405 0.187655
0.482338 0.211887 0.200565
0.522850 0.224765 0.213657
0.565057 0.237766 0.226780
0.609125 0.251377 0.239689
0.656672 0.265751 0.252995
0.708461 0.281193 0.266514
0.762783 0.297795 0.280644
0.818051 0.316075 0.295872
0.873259 0.336522 0.312688
0.927428 0.359655 0.331273
0.976806 0.386358 0.352667
1.000000 0.417456 0.377935
1.000000 0.453437 0.408240
0.015595 0.094301 0.069215
0.017578 0.094240 0.069215
0.028077 0.094606 0.068849
0.048493 0.095338 0.070436
0.078645 0.094514 0.072419
0.093294 0.092073 0.075013
0.109651 0.095521 0.080385
0.131868 0.107607 0.085237
0.155489 0.116518 0.088838
0.179477 0.123659 0.095033
0.203311 0.131685 0.104219
0.228611 0.139803 0.113497
0.255589 0.148592 0.123262
0.283970 0.157931 0.133333
0.314031 0.167453 0.143984
0.345830 0.177676 0.155062
0.379675 0.188693 0.167086
0.415259 0.200076 0.179446
0.452308 0.212039 0.192355
0.491341 0.224216 0.205112
0.531884 0.236790 0.217899
0.574090 0.249729 0.230716
0.618219 0.263096 0.243626
0.665888 0.277379 0.256748
0.717708 0.292729 0.269993
0.771603 0.309331 0.284154
0.826200 0.327642 0.299382
0.880735 0.347967 0.316167
0.933806 0.370947 0.334874
0.981628 0.397498 0.356420
1.000000 0.428351 0.381964
1.000000 0.463752 0.412604
0.040681 0.114290 0.078706
0.042664 0.114229 0.078706
0.052155 0.114839 0.079103
0.071992 0.114839 0.080262
0.091493 0.114443 0.082124
0.103761 0.112703 0.084321
0.115023 0.110475 0.085939
0.133028 0.111238 0.088563
0.155764 0.125093 0.092988
0.182193 0.138827 0.099092
0.209751 0.148562 0.107271
0.237308 0.157565 0.116854
0.265415 0.166171 0.126955
0.294682 0.175235 0.137514
0.325170 0.184787 0.148501
0.357427 0.194705 0.160037
0.391547 0.205478 0.172335
0.427344 0.216526 0.184878
0.464668 0.228214 0.197635
0.503746 0.240208 0.210361
0.544427 0.252445 0.223209
0.586664 0.265171 0.235782
0.630823 0.278386 0.248600
0.678676 0.292607 0.261418
0.730220 0.307988 0.274632
0.783413 0.324529 0.288701
0.836973 0.342657 0.304082
0.890410 0.363073 0.320775
0.941955 0.385870 0.339635
0.987823 0.412055 0.361486
1.000000 0.442359 0.387366
1.000000 0.477241 0.418555
0.050202 0.137118 0.093416
0.051484 0.137301 0.093355
0.063661 0.137484 0.093660
0.083314 0.137636 0.094636
0.097932 0.137942 0.095491
0.112673 0.136782 0.096986
0.125978 0.134310 0.098329
0.138674 0.131411 0.098970
0.157992 0.131014 0.100923
0.182437 0.144686 0.105959
0.211124 0.162570 0.112490
0.243076 0.175998 0.120882
0.274968 0.186252 0.130739
0.306432 0.196017 0.141421
0.338689 0.205661 0.153140
0.371862 0.215518 0.165316
0.406744 0.226047 0.177890
0.443091 0.237034 0.190768
0.480842 0.248417 0.203799
0.520165 0.260105 0.216342
0.560845 0.272129 0.229160
0.603082 0.284581 0.241764
0.647486 0.297673 0.254246
0.695369 0.311772 0.267063
0.746273 0.327001 0.280186
0.798428 0.343572 0.294377
0.850797 0.361730 0.309636
0.902708 0.381781 0.326513
0.952056 0.404425 0.345647
0.995422 0.430243 0.367926
1.000000 0.459724 0.394293
1.000000 0.493812 0.426184
0.065522 0.162051 0.107485
0.069490 0.161990 0.107485
0.078218 0.162539 0.107637
0.091829 0.162783 0.108431
0.105226 0.163119 0.109438
0.120974 0.162783 0.110780
0.136904 0.161074 0.112062
0.150942 0.158358 0.113222
0.164645 0.155032 0.113832
0.185214 0.153628 0.115511
0.212039 0.166995 0.120699
0.243595 0.187167 0.128054
0.278782 0.205142 0.136233
0.315740 0.217929 0.146334
0.351659 0.229099 0.157992
0.387671 0.239780 0.170535
0.424445 0.250584 0.183780
0.461891 0.261570 0.196933
0.500511 0.272709 0.210056
0.540307 0.284215 0.222934
0.581445 0.296086 0.235660
0.623835 0.308354 0.248264
0.668360 0.321202 0.260655
0.716426 0.335241 0.273381
0.766171 0.350347 0.286656
0.816861 0.366644 0.300908
0.867613 0.384558 0.316411
0.917510 0.404364 0.333532
0.963928 0.426612 0.353033
1.000000 0.451820 0.375952
1.000000 0.480629 0.403082
1.000000 0.513634 0.435859
0.081758 0.189792 0.121828
0.083619 0.189883 0.122072
0.090608 0.189944 0.122255
0.099947 0.190433 0.122835
0.113558 0.190768 0.123354
0.130129 0.190799 0.124392
0.147494 0.190097 0.126314
0.164065 0.188052 0.127962
0.178775 0.184878 0.129274
0.194095 0.181521 0.129793
0.216159 0.179324 0.131472
0.244938 0.191287 0.136995
0.279301 0.212955 0.143984
0.317723 0.234897 0.153201
0.359411 0.252232 0.163943
0.401038 0.265690 0.176028
0.441840 0.278111 0.189670
0.482185 0.289708 0.203037
0.522820 0.301213 0.216495
0.563989 0.312749 0.229587
0.605859 0.324590 0.242496
0.648737 0.336522 0.255039
0.693751 0.349371 0.267552
0.741146 0.363134 0.280461
0.789639 0.378027 0.293950
0.838590 0.394049 0.308446
0.887327 0.411627 0.324224
0.934600 0.431037 0.341833
0.977173 0.452613 0.362066
1.000000 0.476997 0.385779
1.000000 0.504662 0.413825
1.000000 0.536584 0.447913
0.091707 0.220340 0.136904
0.093660 0.220401 0.136873
0.098848 0.220584 0.137240
0.108919 0.220890 0.137728
0.121981 0.221500 0.138552
0.139193 0.221744 0.139559
0.157839 0.221500 0.140841
0.176974 0.220218 0.142947
0.194369 0.217685 0.144656
0.210269 0.214145 0.145846
0.226688 0.210575 0.146334
0.250217 0.207584 0.148653
0.281163 0.217716 0.153994
0.318212 0.240513 0.161959
0.360357 0.265904 0.171725
0.406287 0.288334 0.183047
0.454108 0.305486 0.195895
0.500298 0.319829 0.209232
0.544854 0.332830 0.222751
0.588952 0.345220 0.236057
0.632837 0.357336 0.249149
0.676905 0.369482 0.261967
0.722560 0.382238 0.274662
0.769009 0.395697 0.287999
0.816037 0.410193 0.301976
0.863035 0.425818 0.317021
0.909331 0.442908 0.333349
0.952850 0.461555 0.351629
0.991241 0.482216 0.372869
1.000000 0.505425 0.397650
1.000000 0.531945 0.427100
1.000000 0.562524 0.462623
0.101106 0.253605 0.152987
0.102785 0.253635 0.152956
0.107759 0.253880 0.153231
0.117678 0.254215 0.153628
0.131624 0.254704 0.154299
0.148714 0.255131 0.155306
0.168093 0.255253 0.156649
0.189120 0.254673 0.158663
0.209384 0.252811 0.160708
0.228000 0.249668 0.162448
0.244877 0.245701 0.163790
0.262791 0.241764 0.164462
0.287541 0.238437 0.166964
0.320439 0.246769 0.172580
0.360632 0.270268 0.181125
0.406592 0.298650 0.191714
0.456825 0.325536 0.203433
0.509697 0.347692 0.215976
0.561913 0.364874 0.229129
0.611566 0.379858 0.242435
0.659510 0.393622 0.255558
0.706203 0.406409 0.268559
0.752499 0.419287 0.281926
0.798459 0.432532 0.295872
0.844236 0.446601 0.310521
0.889097 0.461646 0.326360
0.932372 0.477943 0.343603
0.971374 0.495552 0.363195
1.000000 0.514977 0.385687
1.000000 0.536950 0.411994
1.000000 0.562066 0.443122
1.000000 0.591119 0.480415
0.111391 0.289525 0.170047
0.112795 0.289555 0.170199
0.118044 0.289799 0.170443
0.127596 0.290135 0.170748
0.141878 0.290654 0.171450
0.159457 0.291142 0.172396
0.179385 0.291478 0.173648
0.201572 0.291203 0.175082
0.224063 0.290196 0.177462
0.245426 0.287694 0.179629
0.264866 0.284031 0.181399
0.282902 0.279759 0.182650
0.302251 0.275547 0.183597
0.328527 0.271794 0.186496
0.363378 0.278477 0.192874
0.406897 0.302312 0.201938
0.456703 0.333104 0.212589
0.510948 0.364080 0.224125
0.567956 0.391455 0.236179
0.626093 0.413031 0.248844
0.681392 0.430518 0.261753
0.732326 0.445441 0.275059
0.780758 0.459174 0.289189
0.827237 0.472694 0.303960
0.872190 0.486488 0.319707
0.915312 0.500877 0.336706
0.954589 0.516075 0.355444
0.989044 0.532433 0.376715
1.000000 0.550408 0.400946
1.000000 0.570977 0.429175
1.000000 0.594629 0.462348
1.000000 0.622065 0.501610
0.123354 0.328496 0.188510
0.124086 0.328527 0.188632
0.129854 0.328618 0.188693
0.139467 0.329076 0.189059
0.153719 0.329595 0.189761
0.171481 0.330144 0.190372
0.192172 0.330541 0.191684
0.214847 0.330663 0.193057
0.239078 0.330114 0.195102
0.263005 0.328496 0.197482
0.285313 0.325475 0.199893
0.305669 0.321294 0.201846
0.324834 0.316564 0.202914
0.345525 0.311986 0.204318
0.373449 0.308049 0.207584
0.410437 0.313024 0.213901
0.456703 0.336706 0.223087
0.509880 0.369390 0.233433
0.567956 0.404120 0.244572
0.628931 0.436378 0.255985
0.691463 0.463172 0.267979
0.750301 0.483040 0.281529
0.803525 0.499489 0.296208
0.852354 0.514244 0.312108
0.897642 0.528313 0.329259
0.938628 0.542138 0.347875
0.974212 0.556207 0.368841
1.000000 0.571130 0.392218
1.000000 0.587793 0.418830
1.000000 0.606836 0.449500
1.000000 0.628931 0.484871
1.000000 0.654292 0.525231
0.137087 0.370672 0.207767
0.138613 0.370703 0.207736
0.143954 0.370886 0.208011
0.153414 0.371221 0.208347
0.167788 0.371710 0.208774
0.185458 0.372320 0.209506
0.206638 0.372839 0.210544
0.229923 0.373144 0.211917
0.255131 0.373022 0.213657
0.280949 0.372076 0.215915
0.305974 0.369787 0.218570
0.329320 0.366125 0.220890
0.350652 0.361334 0.223026
0.370764 0.356329 0.224399
0.392981 0.351354 0.225711
0.422339 0.346990 0.229129
0.461097 0.350347 0.235416
0.509758 0.373419 0.244175
0.566125 0.407660 0.254093
0.627710 0.445777 0.264591
0.692195 0.482307 0.275486
0.755459 0.513024 0.287968
0.815946 0.536187 0.303014
0.870207 0.554253 0.319951
0.917388 0.569696 0.338964
0.957000 0.583490 0.360143
0.989837 0.596704 0.383581
1.000000 0.610559 0.409918
1.000000 0.626001 0.439399
1.000000 0.643671 0.472786
1.000000 0.664057 0.510460
1.000000 0.687068 0.550500
0.153079 0.416144 0.227085
0.154238 0.416205 0.227054
0.159243 0.416358 0.227298
0.168856 0.416693 0.227543
0.183078 0.417151 0.227909
0.201266 0.417731 0.228702
0.222385 0.418341 0.229526
0.246250 0.418860 0.230625
0.272343 0.418891 0.232181
0.299535 0.418433 0.234318
0.326909 0.416938 0.236973
0.353124 0.414038 0.239597
0.377264 0.409735 0.242161
0.399451 0.404425 0.244083
0.420630 0.398993 0.245548
0.444129 0.393530 0.247135
0.475013 0.388617 0.250370
0.515251 0.390539 0.256504
0.565942 0.412696 0.264927
0.625177 0.448188 0.274388
0.689754 0.488869 0.284367
0.755123 0.528222 0.295933
0.817990 0.562036 0.310033
0.876890 0.588617 0.327337
0.928191 0.607630 0.348333
0.968627 0.622553 0.372595
1.000000 0.635859 0.399451
1.000000 0.649165 0.429206
1.000000 0.663722 0.462165
1.000000 0.680262 0.498665
1.000000 0.698787 0.537102
1.000000 0.719509 0.576745
0.170443 0.464942 0.246036
0.171878 0.464942 0.246036
0.176852 0.465126 0.246220
0.186099 0.465492 0.246494
0.200076 0.465949 0.246891
0.218387 0.466590 0.247410
0.239963 0.467201 0.248203
0.264256 0.467750 0.249271
0.290867 0.468116 0.250797
0.318883 0.467994 0.252567
0.348272 0.467079 0.254917
0.376898 0.464973 0.257633
0.403906 0.461341 0.260319
0.428901 0.456336 0.262821
0.452003 0.450477 0.264714
0.474098 0.444556 0.266300
0.498939 0.438605 0.267948
0.531029 0.433234 0.271214
0.572595 0.433753 0.277195
0.625208 0.454719 0.285222
0.687373 0.491066 0.294285
0.752682 0.533074 0.305150
0.816892 0.573968 0.318517
0.877134 0.609766 0.335393
0.929503 0.637629 0.357031
0.972229 0.656977 0.384009
1.000000 0.671778 0.415106
1.000000 0.685389 0.449042
1.000000 0.699672 0.486122
1.000000 0.715175 0.524895
1.000000 0.732113 0.563836
1.000000 0.750790 0.603174
0.189853 0.516960 0.264469
0.191196 0.516991 0.264530
0.195712 0.517205 0.264591
0.205142 0.517510 0.264836
0.219059 0.517998 0.265232
0.237034 0.518608 0.265751
0.258793 0.519310 0.266331
0.283482 0.519951 0.267308
0.310460 0.520470 0.268559
0.339452 0.520562 0.270115
0.369848 0.520165 0.272099
0.400610 0.518791 0.274846
0.430213 0.515923 0.277592
0.458045 0.511589 0.280400
0.483833 0.505943 0.282933
0.507683 0.499611 0.284947
0.530785 0.493141 0.286503
0.556939 0.486702 0.288212
0.590356 0.480903 0.291539
0.633936 0.480629 0.297368
0.688991 0.500481 0.305333
0.751217 0.536217 0.315435
0.814878 0.577905 0.328069
0.875608 0.619074 0.344579
0.928038 0.654139 0.366522
0.970336 0.681422 0.394629
1.000000 0.701839 0.428504
1.000000 0.717494 0.467414
1.000000 0.732204 0.508812
1.000000 0.747219 0.549554
1.000000 0.763027 0.589441
1.000000 0.780056 0.628779
0.211002 0.572656 0.282200
0.212192 0.572686 0.282170
0.216739 0.572839 0.282231
0.225925 0.573175 0.282506
0.239719 0.573663 0.282811
0.257542 0.574273 0.283238
0.279179 0.575006 0.283879
0.304051 0.575738 0.284703
0.331426 0.576318 0.285771
0.360967 0.576684 0.287144
0.392096 0.576593 0.288975
0.424323 0.575891 0.291295
0.456519 0.573877 0.294072
0.487068 0.570428 0.297032
0.515709 0.565423 0.299870
0.542290 0.559197 0.302403
0.567254 0.552392 0.304356
0.591760 0.545739 0.306004
0.619776 0.539178 0.307958
0.655238 0.533257 0.311528
0.700343 0.532006 0.317815
0.754543 0.548852 0.326757
0.814481 0.582483 0.338842
0.874174 0.622797 0.354803
0.926268 0.661494 0.376684
0.967987 0.694392 0.405585
1.000000 0.721096 0.441199
1.000000 0.742580 0.482948
1.000000 0.759915 0.527489
1.000000 0.775265 0.571038
1.000000 0.790677 0.612726
1.000000 0.806516 0.652583
0.235233 0.632624 0.299809
0.236393 0.632654 0.299748
0.240909 0.632776 0.299809
0.249607 0.633143 0.300114
0.263218 0.633570 0.300359
0.280766 0.634150 0.300786
0.302464 0.634852 0.301274
0.327153 0.635615 0.302037
0.354772 0.636255 0.303044
0.384710 0.636744 0.304265
0.416327 0.636957 0.305852
0.449561 0.636500 0.307958
0.483375 0.635340 0.310552
0.516503 0.632776 0.313542
0.548028 0.628748 0.316686
0.577691 0.623224 0.319524
0.605371 0.616571 0.322087
0.631525 0.609339 0.324163
0.657313 0.602289 0.326146
0.686671 0.595148 0.328374
0.722591 0.588281 0.332738
0.767300 0.585382 0.340185
0.819059 0.598566 0.351171
0.874510 0.629023 0.366461
0.925048 0.665339 0.387945
0.966033 0.700435 0.417090
0.997650 0.731380 0.453834
1.000000 0.757809 0.497261
1.000000 0.779843 0.542840
1.000000 0.798215 0.588098
1.000000 0.814206 0.632044
1.000000 0.829679 0.673518
0.266636 0.693294 0.319799
0.267430 0.693324 0.319829
0.271702 0.693416 0.319890
0.279942 0.693751 0.320043
0.292485 0.694148 0.320409
0.309514 0.694667 0.320836
0.330175 0.695338 0.321324
0.354223 0.696040 0.322087
0.381353 0.696681 0.323003
0.410925 0.697230 0.324163
0.442359 0.697566 0.325597
0.475746 0.697444 0.327550
0.510307 0.696712 0.329931
0.545159 0.694972 0.332799
0.578851 0.691859 0.335882
0.611078 0.687282 0.339025
0.641321 0.681300 0.341924
0.669703 0.674250 0.344396
0.696651 0.666712 0.346807
0.723232 0.659297 0.348913
0.753170 0.651514 0.352026
0.788907 0.643610 0.357336
0.832029 0.639155 0.366613
0.879454 0.648127 0.380652
0.925658 0.673396 0.401312
0.964965 0.704860 0.429969
0.995575 0.736751 0.466987
1.000000 0.766140 0.510948
1.000000 0.791836 0.557000
1.000000 0.813748 0.602930
1.000000 0.832547 0.647669
1.000000 0.848905 0.690333
0.306249 0.752499 0.344701
0.307164 0.752529 0.344732
0.310765 0.752651 0.344823
0.318303 0.752895 0.345068
0.329625 0.753262 0.345342
0.345129 0.753719 0.345861
0.364385 0.754299 0.346471
0.387091 0.754940 0.347143
0.412696 0.755550 0.348150
0.441138 0.756069 0.349310
0.471778 0.756466 0.350805
0.504265 0.756466 0.352514
0.538293 0.756039 0.354742
0.573510 0.754910 0.357519
0.608362 0.752621 0.360540
0.642023 0.748989 0.363684
0.674159 0.743954 0.366674
0.704463 0.737697 0.369543
0.733028 0.730404 0.372137
0.760189 0.722652 0.374640
0.786984 0.714961 0.377234
0.816678 0.706477 0.381292
0.850736 0.697383 0.388220
0.889738 0.690822 0.400305
0.929168 0.694759 0.418891
0.964996 0.714626 0.445930
0.994171 0.742123 0.482002
1.000000 0.771328 0.525139
1.000000 0.798825 0.570703
1.000000 0.823331 0.616785
1.000000 0.844633 0.661769
1.000000 0.863096 0.704372
0.356756 0.806607 0.378454
0.357427 0.806638 0.378424
0.360723 0.806760 0.378485
0.367010 0.806912 0.378820
0.377020 0.807218 0.379217
0.390417 0.807584 0.379828
0.407568 0.808042 0.380438
0.427955 0.808530 0.381323
0.451209 0.809079 0.382422
0.477302 0.809476 0.383673
0.505760 0.809781 0.385168
0.536248 0.809842 0.386969
0.568414 0.809537 0.389014
0.602014 0.808682 0.391577
0.636316 0.807065 0.394659
0.669917 0.804318 0.397772
0.702571 0.800259 0.400793
0.733547 0.795010 0.403723
0.763027 0.788510 0.406378
0.790829 0.781094 0.408972
0.817136 0.773098 0.411627
0.842863 0.764828 0.415015
0.870665 0.755581 0.420356
0.901305 0.745418 0.429450
0.934600 0.737179 0.444984
0.966339 0.737545 0.468177
0.993286 0.753658 0.501244
1.000000 0.777768 0.541436
1.000000 0.804074 0.585260
1.000000 0.829496 0.630518
1.000000 0.852506 0.675257
1.000000 0.872465 0.717128
0.419226 0.850919 0.425147
0.419745 0.850919 0.425177
0.422400 0.851011 0.425360
0.427558 0.851133 0.425666
0.435554 0.851316 0.426154
0.446815 0.851591 0.426825
0.461006 0.851926 0.427680
0.478248 0.852262 0.428748
0.498299 0.852659 0.429938
0.520836 0.852964 0.431373
0.545739 0.853208 0.432898
0.572808 0.853239 0.434638
0.601587 0.852964 0.436744
0.631952 0.852323 0.439094
0.663447 0.851133 0.441932
0.695277 0.849058 0.444953
0.726497 0.845975 0.447791
0.756558 0.841794 0.450507
0.785489 0.836454 0.452979
0.812955 0.830076 0.455360
0.838956 0.822843 0.457771
0.863554 0.815030 0.460700
0.887358 0.806760 0.464790
0.912566 0.797360 0.471534
0.939391 0.787137 0.482795
0.967163 0.778714 0.501335
0.992370 0.777462 0.527550
1.000000 0.790463 0.562097
1.000000 0.811460 0.602411
1.000000 0.835142 0.645533
1.000000 0.858305 0.689082
1.000000 0.878996 0.729488
0.489357 0.885801 0.484779
0.489784 0.885801 0.484810
0.491798 0.885863 0.485023
0.495888 0.885924 0.485328
0.502281 0.886046 0.485847
0.511040 0.886259 0.486580
0.522362 0.886442 0.487465
0.536370 0.886717 0.488502
0.552605 0.886931 0.489754
0.571252 0.887144 0.491157
0.592035 0.887297 0.492744
0.614740 0.887297 0.494484
0.639216 0.887114 0.496284
0.665248 0.886595 0.498390
0.692683 0.885710 0.500816
0.721004 0.884245 0.503563
0.749294 0.881987 0.506157
0.777005 0.878813 0.508568
0.803983 0.874723 0.510765
0.829862 0.869688 0.512688
0.854582 0.863676 0.514641
0.878080 0.856901 0.516838
0.900206 0.849699 0.520012
0.921599 0.841917 0.524681
0.943816 0.833127 0.532280
0.966766 0.823758 0.544640
0.989685 0.816098 0.563897
1.000000 0.814237 0.590204
1.000000 0.825040 0.624445
1.000000 0.843351 0.663569
1.000000 0.864286 0.704250
1.000000 0.884337 0.742214
0.560784 0.913146 0.548760
0.561181 0.913176 0.548852
0.562646 0.913176 0.548974
0.565728 0.913237 0.549279
0.570703 0.913329 0.549767
0.577478 0.913451 0.550408
0.586419 0.913573 0.551263
0.597253 0.913725 0.552331
0.610163 0.913878 0.553491
0.625055 0.914000 0.554772
0.641779 0.914061 0.556237
0.660151 0.914061 0.557702
0.680201 0.913909 0.559411
0.701778 0.913512 0.561181
0.724636 0.912840 0.563226
0.748684 0.911803 0.565423
0.773220 0.910185 0.567895
0.797604 0.907897 0.570001
0.821561 0.904845 0.571923
0.844938 0.900999 0.573632
0.867491 0.896391 0.575372
0.889097 0.891051 0.577173
0.909636 0.885008 0.579370
0.929015 0.878569 0.582696
0.947692 0.871733 0.587762
0.966766 0.864042 0.595911
0.985992 0.856016 0.608637
1.000000 0.849699 0.628077
1.000000 0.848264 0.653834
1.000000 0.857328 0.686519
1.000000 0.872923 0.722042
1.000000 0.890379 0.756405
0.629938 0.934630 0.613062
0.630243 0.934630 0.613184
0.631434 0.934630 0.613306
0.633753 0.934661 0.613550
0.637537 0.934722 0.614008
0.642786 0.934783 0.614618
0.649592 0.934844 0.615412
0.658045 0.934936 0.616358
0.667994 0.934997 0.617426
0.679591 0.935058 0.618616
0.692714 0.935088 0.619898
0.707271 0.935058 0.621271
0.723201 0.934905 0.622766
0.740414 0.934630 0.624292
0.758877 0.934112 0.625910
0.778408 0.933349 0.627802
0.798795 0.932219 0.629908
0.819425 0.930602 0.631861
0.839933 0.928435 0.633600
0.860105 0.925658 0.635187
0.879789 0.922240 0.636713
0.898955 0.918212 0.638148
0.917296 0.913542 0.639826
0.934844 0.908446 0.642329
0.951293 0.903014 0.645869
0.967132 0.897246 0.651270
0.983062 0.890929 0.659907
0.998749 0.884550 0.672786
1.000000 0.879911 0.691768
1.000000 0.879118 0.715572
1.000000 0.886412 0.743648
1.000000 0.898955 0.772976
0.694972 0.951507 0.675685
0.695216 0.951507 0.675715
0.696132 0.951537 0.675837
0.697841 0.951537 0.676081
0.700649 0.951568 0.676448
0.704616 0.951598 0.676997
0.709773 0.951629 0.677668
0.716152 0.951690 0.678431
0.723751 0.951720 0.679377
0.732601 0.951720 0.680415
0.742672 0.951720 0.681605
0.753902 0.951659 0.682795
0.766293 0.951537 0.684047
0.779629 0.951324 0.685389
