Luts/panasonic/浓厚格调.cube
# Created by Adobe Lightroom plugin Export LUT (1.34.0)
# www.johnrellis.com/lightroom/exportlut.htm
# Preset: Silver04
# Color profile: /Volumes/Media/影片/Lut/exportlut.lrplugin/color profiles/Rec709gamma2.4.icc
LUT_3D_SIZE 8
DOMAIN_MIN 0.000000 0.000000 0.000000
DOMAIN_MAX 0.903226 0.903226 0.903226
0.022400 0.030671 0.045045
0.032990 0.032715 0.049073
0.139864 0.071595 0.093904
0.237034 0.112612 0.112398
0.359960 0.156252 0.154635
0.510948 0.207156 0.206912
0.695857 0.264652 0.261021
0.918608 0.343328 0.326207
0.017365 0.064515 0.054078
0.059998 0.065126 0.058808
0.150301 0.101564 0.091676
0.247532 0.134798 0.119570
0.371130 0.175570 0.162539
0.522850 0.224765 0.213657
0.708461 0.281193 0.266514
0.927428 0.359655 0.331273
0.065522 0.162051 0.107485
0.105226 0.163119 0.109438
0.164645 0.155032 0.113832
0.278782 0.205142 0.136233
0.424445 0.250584 0.183780
0.581445 0.296086 0.235660
0.766171 0.350347 0.286656
0.963928 0.426612 0.353033
0.111391 0.289525 0.170047
0.141878 0.290654 0.171450
0.224063 0.290196 0.177462
0.302251 0.275547 0.183597
0.456703 0.333104 0.212589
0.681392 0.430518 0.261753
0.872190 0.486488 0.319707
1.000000 0.550408 0.400946
0.170443 0.464942 0.246036
0.200076 0.465949 0.246891
0.290867 0.468116 0.250797
0.403906 0.461341 0.260319
0.498939 0.438605 0.267948
0.687373 0.491066 0.294285
0.929503 0.637629 0.357031
1.000000 0.699672 0.486122
0.266636 0.693294 0.319799
0.292485 0.694148 0.320409
0.381353 0.696681 0.323003
0.510307 0.696712 0.329931
0.641321 0.681300 0.341924
0.753170 0.651514 0.352026
0.925658 0.673396 0.401312
1.000000 0.791836 0.557000
0.489357 0.885801 0.484779
0.502281 0.886046 0.485847
0.552605 0.886931 0.489754
0.639216 0.887114 0.496284
0.749294 0.881987 0.506157
0.854582 0.863676 0.514641
0.943816 0.833127 0.532280
1.000000 0.825040 0.624445
0.751095 0.965515 0.731258
0.755337 0.965545 0.731868
0.772763 0.965576 0.734279
0.805295 0.965423 0.738094
0.851743 0.964080 0.742855
0.906432 0.959197 0.748440
0.958923 0.948821 0.754391
1.000000 0.934905 0.774044
0.023041 0.042298 0.089723
0.045045 0.035004 0.093721
0.144686 0.068421 0.109346
0.233677 0.117067 0.141512
0.354772 0.158785 0.179232
0.504570 0.208225 0.225956
0.688960 0.264225 0.275822
0.913054 0.342321 0.337591
0.009308 0.073610 0.094484
0.058808 0.081941 0.100526
0.144198 0.106477 0.122591
0.240543 0.137728 0.150423
0.363958 0.177371 0.186801
0.515190 0.225071 0.232303
0.700832 0.280400 0.281041
0.921721 0.358495 0.342596
0.045960 0.164126 0.138552
0.096834 0.167636 0.140414
0.164401 0.163058 0.145144
0.278782 0.208774 0.169406
0.416571 0.249790 0.210300
0.571771 0.294377 0.255131
0.757198 0.348302 0.301518
0.957733 0.425330 0.364324
0.098116 0.291600 0.195438
0.131991 0.293370 0.196414
0.219821 0.294896 0.201083
0.302190 0.280735 0.208164
0.458045 0.340612 0.237797
0.678157 0.429999 0.283970
0.865507 0.484627 0.336584
1.000000 0.550164 0.413764
0.160159 0.466621 0.265782
0.191562 0.467964 0.266453
0.285374 0.471046 0.269627
0.402930 0.465492 0.278477
0.499519 0.442786 0.286107
0.689387 0.498116 0.312932
0.928923 0.640833 0.376837
1.000000 0.702174 0.503563
0.260807 0.694484 0.336858
0.287297 0.695430 0.337407
0.377203 0.698451 0.339910
0.507530 0.699153 0.346136
0.641260 0.684565 0.357641
0.753445 0.654841 0.367651
0.924712 0.678492 0.418677
1.000000 0.796445 0.574548
0.493080 0.885252 0.501366
0.505638 0.885557 0.502434
0.555108 0.886534 0.506340
0.640162 0.886931 0.512627
0.749081 0.882353 0.522210
0.853696 0.864683 0.530419
0.941863 0.834836 0.547295
1.000000 0.828458 0.637507
0.753719 0.965026 0.738552
0.757931 0.965057 0.739193
0.774990 0.965148 0.741512
0.806851 0.965057 0.745266
0.852415 0.963836 0.749905
0.906371 0.959228 0.755459
0.958190 0.949126 0.761196
1.000000 0.935576 0.779934
0.009094 0.082704 0.177798
0.057282 0.083131 0.185336
0.155947 0.065797 0.201297
0.265721 0.091127 0.222416
0.375555 0.150118 0.243565
0.504234 0.208072 0.281712
0.674037 0.261906 0.323095
0.895171 0.337316 0.377295
0.027863 0.110018 0.181155
0.075227 0.112795 0.187869
0.156039 0.109285 0.206699
0.266758 0.123384 0.226291
0.373053 0.174746 0.249393
0.505577 0.225254 0.287053
0.680232 0.277195 0.327794
0.901610 0.353033 0.381903
0.032837 0.170596 0.202152
0.088167 0.173953 0.206394
0.162509 0.189212 0.225528
0.259373 0.211856 0.246250
0.382788 0.245823 0.275395
0.534417 0.287877 0.309667
0.721859 0.340124 0.348180
0.932769 0.418189 0.403265
0.094392 0.290288 0.262760
0.121126 0.294072 0.266270
0.198611 0.308598 0.275853
0.303807 0.302525 0.281590
0.466438 0.367193 0.314305
0.654200 0.422614 0.351354
0.832792 0.474037 0.390784
0.990143 0.545983 0.457954
0.131136 0.468727 0.332189
0.164065 0.471534 0.333165
0.263645 0.480415 0.335302
0.396521 0.482612 0.340551
0.502922 0.460395 0.347784
0.698238 0.528130 0.378607
0.924529 0.651301 0.451698
1.000000 0.710231 0.563531
0.241794 0.697475 0.401068
0.269627 0.698970 0.401678
0.362066 0.704097 0.403906
0.495888 0.708278 0.408392
0.639948 0.698116 0.418585
0.754177 0.668513 0.428107
0.919677 0.700771 0.488777
1.000000 0.814389 0.639429
0.509178 0.882963 0.562676
0.520806 0.883330 0.563806
0.566522 0.884672 0.567895
0.645350 0.886076 0.573907
0.748379 0.883574 0.582055
0.850156 0.868711 0.589593
0.933989 0.841733 0.603662
1.000000 0.842069 0.686519
0.763210 0.963317 0.765408
0.767117 0.963378 0.766018
0.783047 0.963592 0.768338
0.812711 0.963775 0.771939
0.855070 0.963104 0.776120
0.906249 0.959442 0.781399
0.955474 0.950469 0.786465
0.997803 0.938323 0.802060
0.000000 0.124117 0.286992
0.040925 0.125978 0.293553
0.157748 0.125704 0.319005
0.279515 0.109285 0.341070
0.423224 0.109834 0.360449
0.591547 0.149996 0.386603
0.735958 0.236057 0.403571
0.910826 0.331029 0.448371
0.003235 0.145235 0.288396
0.064698 0.147250 0.294560
0.159762 0.149752 0.320165
0.280858 0.139071 0.344213
0.426032 0.142672 0.363317
0.589960 0.182010 0.387213
0.733761 0.258305 0.405951
0.910307 0.347662 0.451698
0.059663 0.200046 0.298558
0.101228 0.203220 0.302007
0.172305 0.216464 0.321538
0.288823 0.221378 0.358404
0.439368 0.232944 0.376379
0.578668 0.276707 0.391608
0.726894 0.332280 0.417914
0.912230 0.408698 0.466041
0.053895 0.296086 0.336461
0.108522 0.298650 0.339208
0.194797 0.310185 0.351080
0.308537 0.337469 0.378241
0.435218 0.362036 0.396612
0.577783 0.395361 0.418250
0.761349 0.445441 0.451728
0.944915 0.526085 0.513573
0.171603 0.463233 0.407721
0.195041 0.465980 0.410132
0.269871 0.478004 0.420752
0.375341 0.503868 0.436927
0.511742 0.497017 0.442451
0.713680 0.582727 0.489418
0.895171 0.654017 0.558618
0.992615 0.710231 0.633051
0.263432 0.693294 0.499733
0.283909 0.695521 0.501946
0.356542 0.704738 0.510765
0.478248 0.719051 0.519738
0.631922 0.721462 0.527489
0.752804 0.694575 0.535485
0.907012 0.745174 0.608209
0.994293 0.840635 0.732662
0.539086 0.878172 0.651820
0.549157 0.878691 0.653407
0.590173 0.880766 0.659174
0.659571 0.883818 0.667048
0.748928 0.884855 0.673640
0.844694 0.875761 0.680690
0.920439 0.853941 0.690120
0.989593 0.864988 0.758572
0.775448 0.961028 0.804807
0.779080 0.961151 0.805509
0.793881 0.961547 0.808011
0.820706 0.962219 0.811704
0.858549 0.962463 0.815549
0.905547 0.960479 0.820188
0.951476 0.953307 0.824521
0.990753 0.943023 0.835660
0.000000 0.173770 0.399084
0.078309 0.175692 0.404486
0.175326 0.180728 0.428016
0.301122 0.174838 0.472816
0.458534 0.146120 0.500328
0.631006 0.118563 0.520165
0.849638 0.134340 0.567376
0.995392 0.304997 0.585077
0.028595 0.189425 0.398962
0.093477 0.191440 0.404273
0.179080 0.197604 0.427588
0.302007 0.195956 0.473426
0.460517 0.174136 0.502953
0.633692 0.157321 0.522637
0.851255 0.178866 0.569360
0.992187 0.329137 0.586328
0.100984 0.237797 0.400061
0.123598 0.240543 0.403998
0.192233 0.251347 0.424689
0.306584 0.264500 0.473976
0.469581 0.259159 0.514611
0.645411 0.258762 0.533806
0.853849 0.295781 0.575463
0.977539 0.412543 0.592676
0.127443 0.315404 0.421637
0.149203 0.317784 0.423926
0.217807 0.328405 0.434546
0.319646 0.355901 0.467659
0.488319 0.383032 0.540093
0.670222 0.394415 0.559503
0.836881 0.444373 0.580133
0.948791 0.529168 0.609918
0.150362 0.458595 0.483986
0.176303 0.460792 0.486213
0.255680 0.470436 0.495949
0.366491 0.490913 0.517296
0.509422 0.530694 0.559411
0.664942 0.562982 0.586725
0.807675 0.597345 0.607843
0.943664 0.666987 0.663355
0.283696 0.689570 0.600671
0.304906 0.691188 0.602899
0.380255 0.697993 0.612573
0.490517 0.712734 0.632136
0.613489 0.738125 0.658106
0.750240 0.731685 0.664820
0.892882 0.801968 0.738094
0.973938 0.851041 0.801236
0.570214 0.872251 0.728664
0.579980 0.872709 0.730770
0.618067 0.874662 0.739406
0.679591 0.879026 0.754391
0.754055 0.885344 0.766598
0.838895 0.885100 0.772671
0.906645 0.869169 0.777096
0.974060 0.892515 0.828702
0.786557 0.958312 0.844785
0.789792 0.958495 0.845701
0.803098 0.959228 0.849119
0.827726 0.960693 0.854063
0.862333 0.962249 0.859098
0.903838 0.962463 0.862791
0.947509 0.957824 0.866423
0.983642 0.949218 0.872740
0.089998 0.228153 0.524407
0.120027 0.229831 0.530144
0.201419 0.235294 0.555749
0.319829 0.239414 0.610559
0.488899 0.225711 0.683833
0.676356 0.185122 0.713832
0.867979 0.149233 0.729397
1.000000 0.292088 0.751675
0.099275 0.240024 0.523583
0.126925 0.241703 0.529229
0.204776 0.247959 0.554681
0.320989 0.254551 0.609766
0.489570 0.246464 0.684504
0.677943 0.214084 0.715969
0.869566 0.190890 0.731167
1.000000 0.320439 0.753201
0.127718 0.282048 0.520378
0.148104 0.284092 0.525292
0.215793 0.292973 0.549187
0.326268 0.308263 0.605219
0.492348 0.318181 0.686061
0.684810 0.305730 0.724788
0.875914 0.303532 0.738735
1.000000 0.419409 0.760220
0.160220 0.348577 0.528405
0.177798 0.350683 0.531182
0.237491 0.360784 0.545647
0.335149 0.385473 0.591699
0.496864 0.423743 0.682856
0.697841 0.439094 0.741329
0.884398 0.453346 0.753017
1.000000 0.561395 0.775418
0.170718 0.460517 0.576928
0.191012 0.462104 0.578851
0.258091 0.469245 0.587488
0.357610 0.485542 0.607019
0.497810 0.530022 0.659968
0.716823 0.602899 0.763424
0.886412 0.625086 0.772915
0.975128 0.698634 0.786007
0.226932 0.662989 0.683497
0.250584 0.664485 0.685084
0.329015 0.671107 0.691859
0.443030 0.684413 0.705440
0.577813 0.707057 0.728267
0.732540 0.747494 0.766751
0.851225 0.776333 0.787930
0.934722 0.802914 0.804471
0.567529 0.872465 0.800137
0.578149 0.872648 0.801358
0.618982 0.873533 0.806424
0.685084 0.875395 0.815976
0.761044 0.880583 0.830747
0.831785 0.890990 0.847623
0.897917 0.886442 0.850584
0.966705 0.922698 0.891752
0.791379 0.955657 0.878355
0.794858 0.955810 0.879210
0.808865 0.956481 0.882628
0.833860 0.958068 0.889097
0.866209 0.960998 0.897948
0.903014 0.964508 0.904509
0.944091 0.964080 0.907836
0.977539 0.956970 0.910430
0.110750 0.301396 0.723415
0.145144 0.302739 0.728054
0.237827 0.308385 0.747829
0.361975 0.318730 0.787106
0.517113 0.332494 0.840146
0.696864 0.340795 0.888365
0.872648 0.326513 0.900389
1.000000 0.356634 0.892363
0.116365 0.311192 0.722011
0.149508 0.312718 0.726619
0.239750 0.318730 0.746365
0.363073 0.330388 0.785733
0.518242 0.346777 0.839200
0.697810 0.359411 0.887877
0.872740 0.348638 0.900420
1.000000 0.379431 0.892454
0.132143 0.348180 0.715877
0.160159 0.349676 0.720180
0.245731 0.357397 0.739559
0.367163 0.373693 0.779324
0.522637 0.400122 0.834440
0.702388 0.429084 0.885405
0.873136 0.430274 0.900114
1.000000 0.463386 0.892699
0.158206 0.408698 0.709651
0.180728 0.410468 0.712795
0.253117 0.418982 0.727321
0.368597 0.439826 0.763851
0.528222 0.482063 0.822354
0.711727 0.538689 0.878782
0.873259 0.557244 0.898619
1.000000 0.588159 0.893339
0.162112 0.499306 0.726833
0.186343 0.500328 0.728145
0.261753 0.505028 0.734066
0.369390 0.518914 0.749844
0.520500 0.563561 0.796292
0.719509 0.649592 0.865629
0.873930 0.694942 0.896910
0.985504 0.720760 0.895689
0.224063 0.651179 0.781674
0.244144 0.651637 0.782132
0.313176 0.653864 0.784146
0.415412 0.659144 0.788479
0.540551 0.672816 0.798032
0.708400 0.729366 0.834684
0.878935 0.814725 0.899535
0.968109 0.831754 0.903746
0.504631 0.845487 0.855985
0.514794 0.845914 0.856352
0.555657 0.847623 0.857969
0.625269 0.851316 0.861418
0.710445 0.857725 0.867491
0.797879 0.868315 0.877562
0.882261 0.888487 0.896422
0.945708 0.903319 0.906981
0.784756 0.956023 0.915190
0.788418 0.956115 0.915648
0.803494 0.956512 0.917693
0.830411 0.957488 0.921691
0.865171 0.959136 0.927459
0.903136 0.962860 0.935637
0.939879 0.968994 0.944579
0.973754 0.966247 0.946166
0.379889 0.469551 0.919585
0.391699 0.471443 0.920806
0.438880 0.479805 0.926055
0.520439 0.497536 0.936400
0.627039 0.526055 0.951507
0.745480 0.560876 0.968963
0.864225 0.588159 0.983520
0.977050 0.592065 0.985443
0.383307 0.477852 0.918761
0.395209 0.479866 0.920012
0.442115 0.488380 0.925170
0.523705 0.506645 0.935424
0.629969 0.535882 0.950530
0.747860 0.571893 0.967926
0.865354 0.600519 0.982452
0.976287 0.605005 0.984527
0.395270 0.510094 0.915496
0.407050 0.512200 0.916625
0.453895 0.521569 0.921538
0.535302 0.541527 0.931518
0.640803 0.573419 0.946380
0.757015 0.613733 0.963653
0.869841 0.647730 0.978180
0.973236 0.654200 0.980896
0.418128 0.566369 0.910094
0.428382 0.568322 0.911009
0.470130 0.576410 0.915038
0.549432 0.596216 0.924224
0.655787 0.631464 0.938781
0.771359 0.678584 0.956237
0.877195 0.719448 0.971466
0.968353 0.728328 0.975555
0.443366 0.637018 0.907805
0.452552 0.638300 0.908202
0.489967 0.644282 0.910002
0.558923 0.659144 0.915343
0.662013 0.691341 0.927855
0.782071 0.743526 0.946685
0.884184 0.790188 0.964965
0.963958 0.803281 0.971435
0.486213 0.731899 0.915312
0.493904 0.732418 0.915343
0.525353 0.734829 0.915465
0.583978 0.741115 0.916136
0.667445 0.755947 0.918914
0.777554 0.794339 0.933318
0.888212 0.849180 0.958282
0.961944 0.871000 0.970031
0.608484 0.851865 0.930663
0.613611 0.852049 0.930632
0.634760 0.852720 0.930449
0.673243 0.854093 0.930205
0.725795 0.856107 0.930144
0.789548 0.860410 0.931304
0.876799 0.885649 0.944488
0.964019 0.928008 0.972259
0.773892 0.951720 0.953429
0.776791 0.951812 0.953552
0.788815 0.952178 0.954040
0.811215 0.953094 0.955077
0.842771 0.954650 0.956909
0.880705 0.957214 0.959777
0.922820 0.961273 0.964202
0.966613 0.969299 0.972259
