Luts/panasonic/灰度电影.cube
# Created by Adobe Lightroom plugin Export LUT (1.34.0)
# www.johnrellis.com/lightroom/exportlut.htm
# Preset: Silver02
# Color profile: /Volumes/Media/影片/Lut/exportlut.lrplugin/color profiles/Rec709gamma2.4.icc
LUT_3D_SIZE 8
DOMAIN_MIN 0.000000 0.000000 0.000000
DOMAIN_MAX 0.903226 0.903226 0.903226
0.041657 0.062318 0.071962
0.091279 0.065064 0.082460
0.179507 0.089418 0.103548
0.293004 0.108400 0.126772
0.424170 0.133364 0.167697
0.557549 0.163882 0.214603
0.690181 0.200412 0.263218
0.831662 0.250584 0.319341
0.037873 0.108309 0.086183
0.092226 0.107637 0.089845
0.179873 0.125063 0.100801
0.296818 0.142855 0.130282
0.427588 0.164157 0.171359
0.560235 0.189548 0.217288
0.692256 0.221195 0.265049
0.832914 0.267460 0.320745
0.098726 0.196994 0.122530
0.123293 0.195254 0.126375
0.184787 0.209689 0.134676
0.304723 0.238834 0.150851
0.436957 0.253117 0.182742
0.568963 0.269383 0.226047
0.700099 0.291234 0.271458
0.837797 0.328038 0.326146
0.141604 0.306920 0.171298
0.162051 0.305394 0.174014
0.219211 0.304356 0.183536
0.325963 0.351812 0.213107
0.470619 0.391974 0.243778
0.582391 0.384466 0.246220
0.712764 0.397101 0.284154
0.845640 0.423896 0.336797
0.196414 0.409186 0.219608
0.211215 0.407721 0.221286
0.258579 0.402869 0.227512
0.336156 0.419226 0.247745
0.487648 0.503899 0.301457
0.647639 0.564630 0.352331
0.742458 0.543816 0.335851
0.854246 0.545220 0.361761
0.254551 0.507256 0.261295
0.265141 0.505913 0.262303
0.302861 0.500938 0.266575
0.362310 0.498421 0.276768
0.469276 0.547173 0.315770
0.643977 0.656428 0.398322
0.792142 0.719753 0.490669
0.878294 0.709194 0.485664
0.318364 0.629694 0.297704
0.326909 0.628504 0.298314
0.359289 0.623865 0.301305
0.412726 0.617212 0.308415
0.492317 0.630976 0.332891
0.625025 0.700160 0.407416
0.779904 0.787625 0.538354
0.893828 0.840055 0.646937
0.444190 0.796323 0.390173
0.450507 0.795682 0.390539
0.475868 0.793088 0.392401
0.521813 0.788724 0.397833
0.585901 0.786069 0.413550
0.679103 0.805783 0.473091
0.793027 0.850889 0.584039
0.896574 0.900633 0.696620
0.030671 0.089174 0.112642
0.090608 0.074464 0.115541
0.184604 0.097261 0.136721
0.301701 0.118227 0.163912
0.430945 0.143038 0.198306
0.562402 0.172152 0.238071
0.693568 0.206729 0.281071
0.833249 0.255863 0.333379
0.031678 0.113558 0.119448
0.100832 0.118654 0.126070
0.191531 0.132387 0.142367
0.306401 0.149996 0.167575
0.434577 0.171084 0.201236
0.565057 0.195926 0.240330
0.695705 0.226444 0.282719
0.834470 0.272282 0.334661
0.092317 0.211582 0.152773
0.126192 0.210239 0.156680
0.194461 0.221042 0.170047
0.313329 0.244083 0.181888
0.444282 0.257603 0.210849
0.573968 0.273320 0.247837
0.703578 0.294957 0.288701
0.839231 0.331670 0.339788
0.142153 0.318029 0.194522
0.165194 0.316381 0.196780
0.225772 0.312871 0.205814
0.333165 0.358495 0.239048
0.474037 0.394781 0.264317
0.586450 0.386999 0.265232
0.716030 0.399634 0.300389
0.846891 0.426276 0.350103
0.199313 0.417700 0.236210
0.214694 0.416144 0.237766
0.263890 0.410712 0.243442
0.341100 0.423743 0.262730
0.492500 0.508263 0.319127
0.649439 0.566583 0.367468
0.742947 0.544060 0.347936
0.855192 0.546685 0.373968
0.257603 0.513848 0.273625
0.268162 0.512444 0.274510
0.306767 0.507164 0.278416
0.366247 0.503014 0.287755
0.472206 0.549615 0.326543
0.646815 0.658778 0.411994
0.792599 0.721096 0.503380
0.877684 0.709316 0.494026
0.319432 0.634089 0.306981
0.328038 0.632837 0.307500
0.360845 0.627985 0.310155
0.414740 0.620966 0.316655
0.493629 0.632593 0.340124
0.626093 0.700832 0.415320
0.781033 0.788571 0.548089
0.894011 0.840909 0.654231
0.444221 0.798123 0.397223
0.450477 0.797452 0.397528
0.475990 0.794766 0.399145
0.521996 0.790249 0.404150
0.586084 0.787045 0.418860
0.679011 0.805905 0.477424
0.793362 0.850980 0.588495
0.897063 0.901030 0.701045
0.000000 0.119905 0.200839
0.059846 0.117433 0.205875
0.181186 0.107881 0.219211
0.309636 0.131655 0.246586
0.446479 0.169528 0.282231
0.577478 0.198978 0.312383
0.705928 0.230655 0.343175
0.839292 0.277012 0.385260
0.019715 0.152468 0.212680
0.090639 0.151553 0.217746
0.190677 0.144808 0.231022
0.319005 0.166445 0.255131
0.452064 0.195743 0.287327
0.580865 0.220218 0.314458
0.708309 0.248142 0.344884
0.840482 0.291875 0.386603
0.031342 0.232273 0.241642
0.111910 0.236576 0.246525
0.222934 0.252628 0.265232
0.343023 0.263127 0.279545
0.468360 0.275486 0.298619
0.591730 0.290532 0.321996
0.716579 0.311131 0.350805
0.844846 0.347112 0.391760
0.114778 0.361120 0.277195
0.156985 0.360113 0.279026
0.250980 0.351995 0.284977
0.359045 0.381689 0.317784
0.486152 0.400244 0.325017
0.604242 0.398627 0.333898
0.728298 0.410498 0.360357
0.851682 0.436744 0.400946
0.207279 0.454597 0.301152
0.226352 0.452583 0.302037
0.285313 0.444923 0.305791
0.361975 0.443519 0.318486
0.511467 0.525078 0.381689
0.654841 0.571710 0.418952
0.745144 0.544701 0.392462
0.858762 0.552819 0.421546
0.268956 0.542992 0.323644
0.280827 0.541222 0.324163
0.322850 0.534417 0.326574
0.384100 0.525231 0.332464
0.484260 0.559930 0.367926
0.657649 0.668208 0.464271
0.793851 0.725856 0.549340
0.875273 0.708888 0.524804
0.323827 0.652888 0.345739
0.332708 0.651514 0.345983
0.367132 0.645838 0.347082
0.422919 0.636988 0.351293
0.498878 0.639704 0.369146
0.630304 0.703334 0.446418
0.785733 0.792538 0.584710
0.895109 0.844236 0.681636
0.444343 0.805692 0.427131
0.450721 0.804959 0.427161
0.476326 0.802029 0.427649
0.522759 0.796872 0.430610
0.586816 0.791775 0.441596
0.678676 0.806516 0.494881
0.794553 0.851408 0.605707
0.898985 0.902739 0.718410
0.000000 0.171633 0.312779
0.000000 0.171572 0.316808
0.162783 0.167269 0.330449
0.302098 0.152895 0.348638
0.449348 0.171054 0.370672
0.591791 0.218723 0.398962
0.722164 0.261662 0.431189
0.848478 0.310704 0.467689
0.000000 0.197726 0.321019
0.023011 0.197574 0.324681
0.173251 0.194461 0.337804
0.310491 0.182589 0.355932
0.457008 0.199832 0.376471
0.596490 0.241703 0.403754
0.724880 0.279545 0.434424
0.849516 0.325048 0.469612
0.101259 0.277317 0.343633
0.134371 0.279179 0.347509
0.218112 0.281498 0.362066
0.342504 0.276982 0.381903
0.485756 0.293828 0.399054
0.613153 0.320317 0.422461
0.734554 0.342992 0.445624
0.853239 0.378119 0.476051
0.120211 0.379522 0.383337
0.160891 0.382544 0.386664
0.266239 0.395270 0.400366
0.403784 0.419715 0.427619
0.521630 0.421546 0.433387
0.633936 0.426001 0.442603
0.746944 0.435920 0.458015
0.858671 0.460487 0.486732
0.197452 0.524559 0.420417
0.226841 0.524193 0.421057
0.313939 0.520104 0.423072
0.412451 0.502098 0.423926
0.544182 0.554711 0.480018
0.657984 0.569909 0.485786
0.756374 0.553796 0.475990
0.864012 0.566033 0.503044
0.285954 0.606744 0.423011
0.300755 0.604425 0.422644
0.352056 0.594903 0.421424
0.422339 0.578668 0.421088
0.508080 0.582086 0.439643
0.676204 0.684565 0.550683
0.794553 0.730220 0.609888
0.871702 0.704280 0.568811
0.335180 0.691646 0.425788
0.344549 0.689937 0.425177
0.380774 0.682887 0.422919
0.439216 0.670558 0.420966
0.511711 0.659449 0.426581
0.636652 0.707240 0.498848
0.794461 0.800137 0.641932
0.897520 0.849424 0.722377
0.446815 0.821622 0.488197
0.452979 0.820829 0.487709
0.478309 0.817288 0.485756
0.524468 0.810880 0.483925
0.588830 0.803220 0.488197
0.676509 0.808286 0.525231
0.795651 0.851926 0.633570
0.902800 0.906126 0.747982
0.000000 0.231662 0.418524
0.000000 0.231968 0.421454
0.147890 0.231266 0.432776
0.282719 0.222477 0.452522
0.436286 0.205020 0.474342
0.587823 0.215427 0.494118
0.730861 0.267918 0.520592
0.857603 0.334844 0.555901
0.000000 0.250156 0.423590
0.000000 0.250309 0.426368
0.162173 0.249821 0.437568
0.289952 0.242496 0.457465
0.442786 0.227481 0.479469
0.593286 0.238804 0.498634
0.734371 0.287419 0.524163
0.858579 0.350164 0.558801
0.101900 0.314336 0.440681
0.133516 0.314824 0.443641
0.213199 0.315923 0.455268
0.320226 0.314763 0.476356
0.468910 0.306920 0.500008
0.614740 0.320623 0.516899
0.746853 0.359258 0.539361
0.861814 0.407385 0.570733
0.197910 0.408820 0.469093
0.218143 0.411139 0.471992
0.286534 0.419928 0.484627
0.385626 0.430213 0.510155
0.517082 0.432837 0.538872
0.650690 0.447395 0.552026
0.762234 0.469764 0.568353
0.865476 0.496132 0.590661
0.233494 0.530205 0.526421
0.256382 0.532525 0.529046
0.334386 0.542443 0.540215
0.449714 0.562402 0.562646
0.586358 0.593835 0.598077
0.679622 0.586419 0.594079
0.772732 0.582361 0.593896
0.869932 0.590692 0.606073
0.320653 0.681086 0.576043
0.337835 0.681025 0.576623
0.399084 0.679774 0.578363
0.484504 0.671839 0.577295
0.563134 0.645045 0.564935
0.700832 0.706935 0.646235
0.790921 0.720485 0.652888
0.874022 0.699672 0.628962
0.388251 0.753750 0.566400
0.396246 0.752285 0.565332
0.426795 0.745327 0.560113
0.477882 0.728847 0.546899
0.544671 0.706416 0.533257
0.643122 0.713130 0.564294
0.807095 0.811490 0.706600
0.901061 0.852934 0.762112
0.464118 0.849485 0.587671
0.469581 0.848508 0.586511
0.492195 0.844327 0.581659
0.534325 0.836088 0.573022
0.595148 0.824521 0.565240
0.673640 0.815915 0.573449
0.794430 0.851835 0.666865
0.908751 0.911528 0.786099
0.000000 0.293889 0.525902
0.000000 0.293950 0.528161
0.142855 0.293736 0.537224
0.271824 0.289738 0.554742
0.412360 0.277317 0.579767
0.569574 0.260136 0.604181
0.723018 0.269017 0.625483
0.859800 0.333227 0.649622
0.000000 0.306920 0.529290
0.000000 0.306981 0.531518
0.158389 0.306920 0.540581
0.279393 0.303746 0.558160
0.417548 0.292943 0.583398
0.574090 0.277958 0.607904
0.726497 0.287755 0.628595
0.861112 0.349340 0.651789
0.101717 0.356573 0.542077
0.132387 0.356725 0.544335
0.210849 0.357458 0.553674
0.310307 0.357855 0.571771
0.439063 0.352697 0.597986
0.592584 0.344091 0.622980
0.740169 0.356695 0.640925
0.865782 0.410193 0.660548
0.207736 0.440101 0.563928
0.224155 0.440955 0.566308
0.282719 0.443977 0.576471
0.369696 0.448676 0.596124
0.480537 0.453468 0.623774
0.625727 0.453315 0.649744
0.761105 0.468330 0.662806
0.871397 0.509056 0.677821
0.289677 0.541863 0.599695
0.303349 0.543542 0.601617
0.355535 0.550622 0.609918
0.440192 0.564050 0.627070
0.546654 0.580835 0.656031
0.670375 0.592248 0.685725
0.782162 0.602380 0.692927
0.877684 0.617853 0.703426
0.350164 0.670802 0.663783
0.364813 0.672084 0.665278
0.420600 0.677516 0.671717
0.509575 0.688319 0.684443
0.616663 0.706508 0.705470
0.732509 0.736172 0.738521
0.802609 0.721645 0.726864
0.885557 0.715206 0.723598
0.465034 0.806119 0.715389
0.474067 0.806180 0.715755
0.509056 0.806119 0.717006
0.566796 0.804257 0.717342
0.631464 0.793942 0.709773
0.686824 0.760708 0.684199
0.825101 0.828031 0.777371
0.901122 0.842618 0.785885
0.527459 0.888273 0.719234
0.532067 0.887724 0.718532
0.550317 0.885161 0.715206
0.581811 0.878782 0.706600
0.623621 0.864652 0.687404
0.686458 0.844938 0.667781
0.787778 0.850797 0.704860
0.917571 0.919615 0.832761
0.000000 0.374212 0.664607
0.000000 0.373907 0.665888
0.171603 0.372595 0.671199
0.289036 0.368658 0.681849
0.413703 0.359686 0.698604
0.554772 0.345068 0.720241
0.707057 0.332555 0.739834
0.851804 0.351110 0.755337
0.000000 0.383856 0.666255
0.031464 0.383581 0.667506
0.184787 0.382330 0.672816
0.295964 0.378882 0.683436
0.417945 0.370825 0.700130
0.557733 0.357580 0.721798
0.709316 0.346471 0.741421
0.853178 0.365270 0.756710
0.132753 0.421973 0.672724
0.158022 0.421759 0.673976
0.230503 0.420813 0.679225
0.323400 0.419226 0.689662
0.435767 0.414740 0.706264
0.570031 0.406531 0.728115
0.718624 0.400061 0.747799
0.858244 0.419684 0.762203
0.223758 0.489204 0.683528
0.238895 0.489143 0.684840
0.292363 0.488899 0.690089
0.372229 0.489174 0.700465
0.469795 0.490730 0.716915
0.593561 0.490608 0.739223
0.735409 0.490547 0.759335
0.866087 0.510674 0.772366
0.300023 0.576287 0.698054
0.311406 0.576745 0.699123
0.354925 0.578576 0.703792
0.428107 0.581506 0.713710
0.521080 0.586786 0.730251
0.628779 0.596307 0.753933
0.758877 0.602472 0.776089
0.876951 0.617578 0.787594
0.381567 0.673182 0.725765
0.391028 0.673762 0.726467
0.428382 0.676417 0.729458
0.493263 0.681910 0.735897
0.578637 0.691676 0.748379
0.680232 0.707546 0.774319
0.793423 0.723049 0.803281
0.892790 0.730770 0.810636
0.471992 0.789944 0.780423
0.480323 0.790463 0.781155
0.513756 0.792782 0.784207
0.573327 0.797848 0.790738
0.653437 0.806973 0.802060
0.747707 0.822904 0.820859
0.850797 0.851926 0.852964
0.910063 0.833982 0.837583
0.586999 0.914244 0.834684
0.592462 0.914397 0.835019
0.614557 0.914946 0.836149
0.654261 0.915648 0.837797
0.705440 0.915068 0.837552
0.756008 0.907439 0.827146
0.801511 0.877897 0.793729
0.930449 0.931609 0.887602
0.310643 0.516167 0.823545
0.319615 0.515679 0.823911
0.353948 0.513664 0.825528
0.412818 0.509117 0.828977
0.492775 0.500328 0.835142
0.592584 0.486641 0.844907
0.712642 0.470863 0.858000
0.844724 0.464607 0.870787
0.318334 0.523339 0.824155
0.327031 0.522820 0.824521
0.360479 0.520806 0.826108
0.418006 0.516472 0.829526
0.496498 0.508141 0.835660
0.595300 0.495064 0.845335
0.714321 0.480018 0.858427
0.845640 0.474342 0.871214
0.346807 0.551965 0.826535
0.354589 0.551537 0.826902
0.385626 0.549615 0.828428
0.438788 0.546075 0.831754
0.512230 0.539391 0.837613
0.606134 0.528679 0.847074
0.721157 0.516381 0.860075
0.849393 0.512230 0.872953
0.390936 0.603052 0.830838
0.398077 0.602686 0.831174
0.426154 0.600977 0.832761
0.474952 0.597803 0.835935
0.539910 0.593133 0.841489
0.625147 0.585412 0.850614
0.733242 0.576654 0.863645
0.856687 0.574487 0.876799
0.433967 0.669459 0.836271
0.440223 0.669093 0.836667
0.465522 0.667475 0.838407
0.511833 0.663844 0.841917
0.573114 0.659174 0.847501
0.648768 0.654902 0.856413
0.749020 0.650568 0.869841
0.867857 0.650752 0.883757
0.472572 0.740078 0.843412
0.478065 0.740047 0.843748
0.500633 0.739803 0.845304
0.542901 0.739071 0.848692
0.603754 0.736599 0.854765
0.679835 0.733425 0.864347
0.770138 0.735012 0.878904
0.883909 0.738705 0.894774
0.523461 0.816434 0.860227
0.528405 0.816556 0.860472
0.548974 0.816983 0.861509
0.587518 0.817807 0.863676
0.642573 0.819059 0.867491
0.712581 0.820829 0.874449
0.801816 0.825498 0.890806
0.907256 0.836942 0.912535
0.598322 0.908995 0.897856
0.602838 0.909178 0.898161
0.621607 0.909880 0.899351
0.657435 0.911406 0.901884
0.709834 0.914122 0.906218
0.776974 0.918883 0.913237
0.859434 0.928130 0.925505
0.950744 0.950744 0.951080
