Luts/panasonic/灰度电影.cube
# Created by Adobe Lightroom plugin Export LUT (1.34.0)
# www.johnrellis.com/lightroom/exportlut.htm
# Preset: Silver02
# Color profile: /Volumes/Media/影片/Lut/exportlut.lrplugin/color profiles/Rec709gamma2.4.icc
LUT_3D_SIZE 32
DOMAIN_MIN 0.0 0.0 0.0
DOMAIN_MAX 1.0 1.0 1.0
0.041657 0.062318 0.071962
0.041657 0.062318 0.071962
0.041657 0.062318 0.071962
0.049561 0.063600 0.073884
0.091279 0.065064 0.082460
0.113771 0.068849 0.089815
0.134463 0.075471 0.095430
0.156008 0.082979 0.100313
0.179507 0.089418 0.103548
0.204898 0.094057 0.106661
0.232364 0.098756 0.110903
0.262028 0.103670 0.118410
0.293004 0.108400 0.126772
0.325109 0.113985 0.135927
0.357580 0.120333 0.146059
0.390753 0.126406 0.156741
0.424170 0.133364 0.167697
0.457771 0.140444 0.179232
0.491218 0.147951 0.191012
0.524559 0.155734 0.202823
0.557549 0.163882 0.214603
0.590265 0.172580 0.226596
0.622644 0.181460 0.238621
0.655879 0.190768 0.250858
0.690181 0.200412 0.263218
0.725734 0.210513 0.276036
0.761501 0.222049 0.289555
0.796902 0.235142 0.303899
0.831662 0.250584 0.319341
0.865843 0.268559 0.336248
0.899443 0.289616 0.354955
0.932433 0.313970 0.375891
0.041657 0.062318 0.071962
0.041657 0.062318 0.071962
0.041657 0.062318 0.071962
0.051270 0.063355 0.075013
0.092775 0.064607 0.082429
0.114321 0.068635 0.089815
0.134371 0.078584 0.095674
0.156344 0.084962 0.100160
0.179660 0.091066 0.103334
0.205081 0.095552 0.106142
0.232425 0.100160 0.111055
0.262089 0.104982 0.118532
0.293156 0.109926 0.126864
0.325231 0.115419 0.135988
0.357794 0.121614 0.146120
0.390936 0.127901 0.156771
0.424353 0.134463 0.167941
0.457801 0.141787 0.179446
0.491341 0.149142 0.191043
0.524651 0.156832 0.202976
0.557641 0.164920 0.214755
0.590387 0.173373 0.226749
0.622797 0.182315 0.238743
0.655970 0.191440 0.250889
0.690242 0.201022 0.263340
0.725826 0.211337 0.276036
0.761563 0.222721 0.289647
0.796933 0.235874 0.303990
0.831724 0.251255 0.319432
0.865873 0.269169 0.336339
0.899474 0.290074 0.354986
0.932464 0.314458 0.375952
0.041657 0.062318 0.071962
0.041657 0.062318 0.071962
0.041657 0.062318 0.071962
0.060182 0.063447 0.075959
0.095003 0.071687 0.083162
0.114870 0.081117 0.089906
0.134798 0.088075 0.094942
0.156497 0.092805 0.099001
0.179873 0.097017 0.102266
0.205325 0.101808 0.105013
0.233219 0.106142 0.111543
0.262821 0.111238 0.118593
0.293858 0.116060 0.127413
0.325811 0.121187 0.136751
0.358343 0.127199 0.146975
0.391485 0.133333 0.157321
0.424872 0.139773 0.168612
0.458381 0.146670 0.179873
0.491859 0.153719 0.191592
0.525139 0.161105 0.203342
0.558068 0.169253 0.215335
0.590753 0.177432 0.227146
0.623102 0.186007 0.239017
0.656306 0.194980 0.251316
0.690608 0.204471 0.263645
0.726101 0.214450 0.276371
0.761807 0.225742 0.289860
0.797177 0.238682 0.304173
0.831907 0.253941 0.319646
0.866056 0.271702 0.336461
0.899596 0.292454 0.355169
0.932586 0.316503 0.376104
0.033265 0.088106 0.076783
0.033265 0.088106 0.076783
0.043183 0.088502 0.078492
0.060731 0.088563 0.080385
0.092897 0.092775 0.084474
0.114260 0.096223 0.089479
0.134493 0.100771 0.094026
0.156405 0.104768 0.096956
0.179934 0.109010 0.099886
0.205844 0.113527 0.105409
0.234257 0.117647 0.112459
0.264103 0.122194 0.119661
0.295048 0.127199 0.128542
0.327062 0.132387 0.137911
0.359533 0.137942 0.148013
0.392554 0.143648 0.158602
0.425910 0.149660 0.169589
0.459327 0.156130 0.181064
0.492744 0.162966 0.192508
0.525994 0.169955 0.204288
0.558892 0.177371 0.215946
0.591485 0.185061 0.227848
0.623835 0.193423 0.239750
0.656977 0.201968 0.251804
0.691218 0.211154 0.264195
0.726741 0.220676 0.276860
0.762356 0.231693 0.290318
0.797635 0.244327 0.304662
0.832303 0.259251 0.320043
0.866361 0.276585 0.336950
0.899870 0.296941 0.355657
0.932769 0.320714 0.376562
0.037873 0.108309 0.086183
0.041840 0.108186 0.086152
0.054841 0.107729 0.088106
0.077089 0.107271 0.089265
0.092226 0.107637 0.089845
0.109071 0.112276 0.093294
0.131624 0.117067 0.094209
0.154635 0.120821 0.096223
0.179873 0.125063 0.100801
0.206912 0.129335 0.106813
0.235416 0.133700 0.113893
0.265537 0.138125 0.121462
0.296818 0.142855 0.130282
0.328801 0.147829 0.139620
0.361212 0.153170 0.149874
0.394263 0.158419 0.160281
0.427588 0.164157 0.171359
0.460914 0.169833 0.182528
0.494148 0.176150 0.193973
0.527337 0.182589 0.205509
0.560235 0.189548 0.217288
0.592706 0.196750 0.229068
0.624933 0.204318 0.240787
0.658045 0.212406 0.252873
0.692256 0.221195 0.265049
0.727718 0.230381 0.277745
0.763272 0.240787 0.291051
0.798337 0.253086 0.305333
0.832914 0.267460 0.320745
0.866880 0.284276 0.337591
0.900328 0.304143 0.356298
0.933135 0.327337 0.377264
0.061006 0.126162 0.092897
0.064973 0.126070 0.092897
0.076997 0.125460 0.093782
0.089448 0.124880 0.094911
0.098878 0.124941 0.096284
0.110719 0.127291 0.097475
0.127718 0.132845 0.101167
0.152224 0.139193 0.102724
0.179080 0.144350 0.104494
0.207034 0.148806 0.109651
0.236484 0.153414 0.115938
0.267063 0.157870 0.123934
0.298497 0.162478 0.132418
0.330663 0.167269 0.141878
0.363287 0.171969 0.152071
0.396277 0.176883 0.162387
0.429603 0.182071 0.173587
0.462898 0.187411 0.184512
0.496101 0.193149 0.195895
0.529137 0.198947 0.207401
0.561883 0.205295 0.219028
0.594202 0.211917 0.230655
0.626429 0.218845 0.242283
0.659541 0.226261 0.254124
0.693690 0.234440 0.266209
0.729061 0.243046 0.278721
0.764370 0.253117 0.292119
0.799374 0.264805 0.306310
0.833799 0.278569 0.321691
0.867613 0.294743 0.338598
0.900877 0.313970 0.357214
0.933593 0.336431 0.378210
0.080049 0.146975 0.101595
0.081086 0.146914 0.101961
0.088777 0.146639 0.102663
0.097200 0.145876 0.104128
0.106600 0.145418 0.105745
0.117556 0.146700 0.106569
0.131624 0.150881 0.108034
0.152193 0.158236 0.112276
0.178439 0.165377 0.114748
0.207248 0.171115 0.116182
0.236851 0.175784 0.120424
0.268315 0.180453 0.127230
0.300175 0.185061 0.135714
0.332677 0.189517 0.144747
0.365423 0.193973 0.154788
0.398566 0.198581 0.165133
0.431922 0.203342 0.175845
0.465217 0.207980 0.187015
0.498360 0.213138 0.198184
0.531273 0.218448 0.209598
0.563958 0.224125 0.220920
0.596216 0.229953 0.232425
0.628321 0.236393 0.243992
0.661311 0.243259 0.255619
0.695430 0.250736 0.267704
0.730739 0.258946 0.280156
0.765866 0.268437 0.293431
0.800687 0.279454 0.307530
0.834867 0.292515 0.322881
0.868559 0.308019 0.339727
0.901671 0.326299 0.358434
0.934203 0.348028 0.379492
0.090059 0.171176 0.111879
0.091798 0.170932 0.111910
0.096529 0.170687 0.112520
0.104433 0.170230 0.114046
0.115023 0.169375 0.115572
0.125917 0.169650 0.117403
0.139254 0.172183 0.118227
0.156619 0.178744 0.120272
0.180636 0.187961 0.125093
0.208499 0.195682 0.129335
0.238590 0.201572 0.130709
0.269566 0.205936 0.133852
0.301457 0.210025 0.140108
0.334356 0.214420 0.148836
0.367620 0.218753 0.158328
0.400946 0.222904 0.168460
0.434424 0.226993 0.179049
0.467720 0.231449 0.189731
0.500938 0.235935 0.200900
0.533806 0.240604 0.212100
0.566308 0.245579 0.223392
0.598444 0.250797 0.234714
0.630518 0.256565 0.245914
0.663508 0.262852 0.257664
0.697627 0.269688 0.269505
0.732753 0.277501 0.281804
0.767666 0.286351 0.294865
0.802243 0.296788 0.308934
0.836210 0.309117 0.324376
0.869688 0.323796 0.341253
0.902586 0.341161 0.359930
0.934905 0.361975 0.381048
0.098726 0.196994 0.122530
0.100038 0.196963 0.122530
0.104463 0.196597 0.123110
0.112703 0.196170 0.124453
0.123293 0.195254 0.126375
0.135195 0.194766 0.128084
0.148165 0.196231 0.129763
0.163851 0.201083 0.131746
0.184787 0.209689 0.134676
0.212741 0.220981 0.140780
0.242435 0.229557 0.146792
0.273442 0.235325 0.148898
0.304723 0.238834 0.150851
0.336553 0.241825 0.155215
0.369787 0.245365 0.163149
0.403388 0.249241 0.172793
0.436957 0.253117 0.182742
0.470405 0.256962 0.193423
0.503685 0.260868 0.204166
0.536522 0.265080 0.215091
0.568963 0.269383 0.226047
0.600977 0.274144 0.237156
0.633021 0.279088 0.248325
0.666041 0.284794 0.259709
0.700099 0.291234 0.271458
0.735073 0.298405 0.283696
0.769741 0.306706 0.296696
0.804074 0.316381 0.310765
0.837797 0.328038 0.326146
0.870970 0.341924 0.342992
0.903655 0.358495 0.361761
0.935790 0.378302 0.382879
0.107851 0.224216 0.133974
0.109499 0.224155 0.134188
0.113436 0.223850 0.134707
0.121340 0.223484 0.135897
0.131960 0.222690 0.137362
0.144503 0.221683 0.139254
0.158175 0.221927 0.141634
0.173251 0.225162 0.144259
0.191714 0.232303 0.147372
0.216526 0.243412 0.151675
0.248112 0.256596 0.159243
0.279911 0.266117 0.167727
0.311467 0.271550 0.169772
0.342748 0.274235 0.170687
0.374060 0.275914 0.173373
0.406043 0.277989 0.179110
0.439673 0.281193 0.188022
0.473304 0.284520 0.197818
0.506615 0.287999 0.208103
0.539422 0.291508 0.218631
0.571832 0.295323 0.229343
0.603754 0.299260 0.240085
0.635767 0.303746 0.251011
0.668788 0.308904 0.262333
0.702907 0.314794 0.273869
0.737636 0.321447 0.285863
0.772061 0.329229 0.298863
0.806088 0.338384 0.312840
0.839536 0.349218 0.328191
0.872465 0.362249 0.345068
0.904906 0.377813 0.363806
0.936767 0.396643 0.385107
0.118166 0.252018 0.146304
0.119173 0.251957 0.146304
0.123171 0.251713 0.146761
0.130861 0.251255 0.147860
0.141268 0.250523 0.149355
0.153872 0.249516 0.151461
0.167788 0.248844 0.153414
0.182895 0.250584 0.156374
0.200443 0.255741 0.159823
0.222446 0.265110 0.164218
0.250828 0.278660 0.170596
0.285740 0.293767 0.180056
0.320165 0.304540 0.190158
0.352331 0.309789 0.193332
0.383398 0.311711 0.193393
0.413703 0.312078 0.194003
0.444434 0.312413 0.197452
0.476509 0.314000 0.203922
0.509667 0.316869 0.213443
0.542535 0.319829 0.223178
0.574884 0.323003 0.233402
0.606683 0.326452 0.243778
0.638788 0.330419 0.254276
0.671870 0.335027 0.265385
0.706050 0.340398 0.276616
0.740475 0.346593 0.288518
0.774594 0.353796 0.301305
0.808286 0.362249 0.315190
0.841489 0.372381 0.330571
0.874113 0.384466 0.347417
0.906249 0.399207 0.366369
0.937835 0.416999 0.387732
0.129519 0.279698 0.158572
0.130343 0.279667 0.158755
0.134310 0.279423 0.159152
0.140932 0.278965 0.160128
0.151247 0.278202 0.161501
0.163577 0.277195 0.163424
0.177707 0.276188 0.165438
0.192660 0.276585 0.168246
0.209628 0.279942 0.172000
0.229740 0.287358 0.176730
0.255314 0.299138 0.183017
0.287297 0.314885 0.191318
0.325628 0.331945 0.202396
0.362829 0.344366 0.214481
0.395575 0.349859 0.218631
0.426154 0.351049 0.217990
0.455390 0.350195 0.216922
0.484352 0.348913 0.217960
0.514244 0.348577 0.221836
0.545861 0.349981 0.229252
0.578119 0.352575 0.238499
0.609888 0.355322 0.248203
0.642054 0.358801 0.258488
0.675196 0.362890 0.268956
0.709285 0.367864 0.279850
0.743465 0.373541 0.291630
0.777310 0.380133 0.304326
0.810666 0.387915 0.318090
0.843503 0.397314 0.333349
0.875822 0.408667 0.350225
0.907652 0.422339 0.369207
0.938994 0.439094 0.390845
0.141604 0.306920 0.171298
0.142458 0.306798 0.171511
0.145846 0.306676 0.171847
0.152621 0.306157 0.172763
0.162051 0.305394 0.174014
0.174228 0.304479 0.175753
0.187839 0.303319 0.177615
0.202487 0.302617 0.179965
0.219211 0.304356 0.183536
0.238041 0.309880 0.188327
0.261265 0.319463 0.194553
0.290349 0.333806 0.202731
0.325963 0.351812 0.213107
0.367193 0.370916 0.225864
0.407050 0.385199 0.238987
0.440528 0.391180 0.244755
0.470619 0.391974 0.243778
0.498512 0.389990 0.241489
0.525628 0.387182 0.240208
0.553246 0.384985 0.241459
0.582391 0.384466 0.246220
0.613336 0.386114 0.254276
0.645655 0.388983 0.263767
0.678767 0.392676 0.273655
0.712764 0.397101 0.284154
0.746670 0.402197 0.295598
0.780179 0.408179 0.307927
0.813169 0.415351 0.321691
0.845640 0.423896 0.336797
0.877623 0.434363 0.353704
0.909148 0.447242 0.372717
0.940124 0.462928 0.394537
0.154940 0.333440 0.183963
0.155581 0.333410 0.184146
0.158633 0.333074 0.184512
0.164950 0.332677 0.185153
0.173739 0.332006 0.186282
0.184939 0.330968 0.187778
0.198093 0.329839 0.189670
0.212589 0.328679 0.191928
0.228489 0.328985 0.194980
0.246647 0.332555 0.199344
0.268132 0.340154 0.205325
0.294560 0.352331 0.213382
0.326879 0.368963 0.223087
0.365911 0.389380 0.235172
0.409857 0.410407 0.249210
0.451972 0.426642 0.263462
0.486122 0.433661 0.270939
0.515587 0.434302 0.270237
0.542229 0.431464 0.266880
0.567590 0.427192 0.263798
0.593133 0.423285 0.262974
0.619959 0.420844 0.265141
0.649805 0.421180 0.270817
0.682765 0.424170 0.279637
0.716518 0.428107 0.289616
0.749996 0.432593 0.300511
0.783108 0.437903 0.312657
0.815671 0.444373 0.326055
0.847807 0.452155 0.341039
0.879484 0.461738 0.357885
0.910613 0.473640 0.376928
0.941283 0.488258 0.398871
0.168551 0.359289 0.196292
0.169284 0.359197 0.196323
0.172030 0.359045 0.196750
0.177584 0.358556 0.197391
0.185672 0.357885 0.198459
0.196536 0.356847 0.199832
0.209110 0.355688 0.201602
0.222965 0.354376 0.203494
0.238376 0.353643 0.206027
0.255406 0.355474 0.209842
0.275364 0.360998 0.215335
0.299596 0.370886 0.222690
0.329107 0.385534 0.232212
0.364691 0.404761 0.243778
0.406653 0.427283 0.257328
0.452552 0.450294 0.272709
0.496559 0.468513 0.287907
0.531395 0.476722 0.297185
0.560357 0.477546 0.297093
0.585901 0.474037 0.293187
0.609796 0.468605 0.288731
0.633814 0.463416 0.286046
0.660029 0.460029 0.286137
0.688930 0.458991 0.289403
0.720546 0.460792 0.296666
0.753445 0.464607 0.306920
0.786069 0.469245 0.318517
0.818296 0.474922 0.331609
0.850034 0.481880 0.346410
0.881254 0.490578 0.363043
0.912108 0.501396 0.382116
0.942382 0.514946 0.404211
0.182498 0.384497 0.208255
0.182773 0.384466 0.208255
0.185641 0.384253 0.208530
0.190677 0.383825 0.209140
0.198245 0.383093 0.209995
0.208316 0.382086 0.211307
0.220127 0.380926 0.212833
0.233646 0.379583 0.214603
0.248203 0.378302 0.216922
0.264286 0.378607 0.220035
0.283085 0.382147 0.224887
0.305425 0.389868 0.231479
0.332128 0.402197 0.240208
0.364660 0.419318 0.251225
0.403204 0.440864 0.264286
0.447333 0.465553 0.279454
0.494820 0.490364 0.295933
0.539940 0.510307 0.312261
0.575586 0.519982 0.323278
0.604364 0.521141 0.324376
0.629267 0.517418 0.320287
0.652918 0.511650 0.315099
0.676753 0.506004 0.311040
0.701747 0.501427 0.309270
0.728786 0.498970 0.310948
0.758022 0.499062 0.316472
0.789212 0.502007 0.326146
0.820890 0.506828 0.338689
0.852140 0.512932 0.353124
0.882994 0.520684 0.369543
0.913481 0.530480 0.388586
0.943450 0.542931 0.410742
0.196414 0.409186 0.219608
0.197238 0.409094 0.219638
0.199435 0.408850 0.219913
0.204013 0.408453 0.220462
0.211215 0.407721 0.221286
0.220615 0.406775 0.222263
0.231601 0.405615 0.223850
0.244450 0.404242 0.225559
0.258579 0.402869 0.227512
0.273655 0.402045 0.230076
0.291112 0.403754 0.233982
0.311559 0.409277 0.239780
0.336156 0.419226 0.247745
0.365637 0.433967 0.257877
0.400763 0.453498 0.270146
0.441779 0.477363 0.284916
0.487648 0.503899 0.301457
0.535882 0.530297 0.319280
0.581964 0.551690 0.336736
0.618677 0.562676 0.349554
0.647639 0.564630 0.352331
0.672663 0.561425 0.349004
0.695888 0.555688 0.343725
0.718807 0.549401 0.338811
0.742458 0.543816 0.335851
0.767666 0.540124 0.336034
0.794827 0.538811 0.340093
0.823789 0.540368 0.348486
0.854246 0.545220 0.361761
0.884672 0.552026 0.377874
0.914733 0.560815 0.396704
0.944305 0.572168 0.418830
0.210880 0.433295 0.230777
0.211337 0.433265 0.230777
0.213565 0.433021 0.230930
0.217807 0.432624 0.231449
0.224338 0.431891 0.232151
0.232822 0.430976 0.233188
0.243412 0.429725 0.234379
0.255528 0.428382 0.235996
0.269108 0.426917 0.237797
0.283513 0.425574 0.240024
0.299748 0.425788 0.243198
0.318517 0.429267 0.248051
0.340978 0.436805 0.254948
0.367712 0.449073 0.264103
0.399756 0.466255 0.275731
0.437201 0.488045 0.289555
0.479988 0.513970 0.305699
0.526970 0.542107 0.323583
0.575891 0.569604 0.342870
0.622675 0.591821 0.361883
0.659785 0.603967 0.377295
0.688716 0.606775 0.382635
0.713436 0.604181 0.380560
0.736172 0.598718 0.375494
0.758328 0.592218 0.370153
0.780941 0.586267 0.366369
0.804746 0.581750 0.365393
0.830289 0.579553 0.368200
0.857511 0.580346 0.375769
0.886290 0.584619 0.388800
0.915801 0.592187 0.406897
0.944945 0.602411 0.428840
0.225467 0.457191 0.241459
0.225956 0.457130 0.241459
0.227878 0.456886 0.241611
0.231754 0.456489 0.242100
0.237766 0.455818 0.242649
0.245579 0.454871 0.243656
0.255467 0.453712 0.244785
0.267033 0.452338 0.246128
0.279850 0.450843 0.247868
0.293858 0.449348 0.249851
0.308965 0.448341 0.252323
0.326238 0.450141 0.256321
0.346715 0.455451 0.262211
0.371099 0.465248 0.270329
0.400092 0.479835 0.280888
0.434363 0.499275 0.293858
0.473823 0.523369 0.309239
0.518242 0.551232 0.326879
0.566430 0.580835 0.346563
0.615625 0.608606 0.367834
0.661402 0.630426 0.389380
0.697963 0.643091 0.407294
0.726558 0.646784 0.415808
0.750790 0.644953 0.415351
0.773068 0.640131 0.410956
0.794644 0.634058 0.405585
0.816587 0.628168 0.401282
0.839475 0.623468 0.399603
0.863828 0.621027 0.401709
0.889769 0.621515 0.408789
0.917113 0.625574 0.421759
0.945281 0.633600 0.441352
0.240024 0.481727 0.251713
0.240482 0.481666 0.251743
0.242313 0.481392 0.251804
0.245701 0.481056 0.252262
0.251316 0.480385 0.252781
0.258732 0.479408 0.253666
0.268070 0.478248 0.254643
0.278904 0.476905 0.255863
0.291173 0.475380 0.257450
0.304692 0.473823 0.259281
0.319005 0.472358 0.261418
0.335027 0.472480 0.264561
0.353765 0.475929 0.269505
0.376135 0.483375 0.276555
0.402594 0.495491 0.286137
0.433845 0.512413 0.297948
0.470283 0.534234 0.312505
0.511620 0.560418 0.329534
0.557580 0.589868 0.349126
0.605982 0.619440 0.371130
0.653590 0.645960 0.395117
0.697444 0.666896 0.419379
0.733059 0.679774 0.440101
0.760891 0.684382 0.451820
0.784634 0.683650 0.453559
0.806455 0.679774 0.450263
0.827634 0.674556 0.445289
0.849088 0.669215 0.440955
0.871366 0.665034 0.439155
0.894957 0.662898 0.441199
0.919982 0.663691 0.448493
0.946105 0.668086 0.462257
0.254551 0.507256 0.261295
0.254948 0.507225 0.261387
0.256657 0.506950 0.261448
0.260044 0.506554 0.261814
0.265141 0.505913 0.262303
0.272038 0.505028 0.263066
0.280797 0.503838 0.263951
0.291081 0.502495 0.265110
0.302861 0.500938 0.266575
0.315892 0.499336 0.268284
0.329839 0.497810 0.270268
0.344976 0.496773 0.272740
0.362310 0.498421 0.276768
0.382757 0.503746 0.282902
0.407050 0.513420 0.291264
0.435767 0.527825 0.302220
0.469276 0.547173 0.315770
0.507652 0.571221 0.332036
0.550713 0.599023 0.351171
0.596948 0.628199 0.373297
0.643977 0.656428 0.398322
0.689540 0.681422 0.425360
0.731075 0.701228 0.452308
0.765347 0.714260 0.475837
0.792142 0.719753 0.490669
0.815152 0.720119 0.494972
0.836423 0.717494 0.493263
0.857206 0.713436 0.489265
0.878294 0.709194 0.485664
0.900206 0.705959 0.484321
0.923247 0.704768 0.487068
0.947417 0.706447 0.495430
0.269230 0.534264 0.270451
0.269627 0.534203 0.270481
0.271122 0.534020 0.270603
0.274388 0.533593 0.270878
0.279179 0.532952 0.271366
0.285740 0.532036 0.272007
0.294102 0.530907 0.272831
0.303990 0.529503 0.273838
0.315282 0.527977 0.275181
0.327794 0.526329 0.276768
0.341497 0.524712 0.278691
0.356085 0.523186 0.280919
0.372229 0.523308 0.284123
0.391089 0.526635 0.289281
0.413489 0.533989 0.296605
0.439918 0.545983 0.306554
0.470649 0.562707 0.319066
0.506401 0.584283 0.334539
0.546471 0.609827 0.353002
0.590051 0.637415 0.374945
0.635279 0.665248 0.400244
0.680385 0.691615 0.428565
0.723293 0.714870 0.458503
0.762295 0.733608 0.488045
0.794858 0.746548 0.513756
0.820523 0.752926 0.531579
0.842649 0.754513 0.538445
0.863249 0.753231 0.538720
0.883574 0.750576 0.536339
0.904295 0.747829 0.534112
0.925780 0.746029 0.534051
0.948363 0.746151 0.538048
0.284520 0.563287 0.279271
0.284703 0.563256 0.279301
0.286168 0.563043 0.279332
0.289189 0.562646 0.279698
0.293706 0.562005 0.280095
0.300084 0.561089 0.280705
0.308141 0.559899 0.281407
0.317601 0.558556 0.282444
0.328496 0.557031 0.283665
0.340764 0.555322 0.285161
0.354040 0.553643 0.286900
0.368353 0.552026 0.289006
0.383642 0.551049 0.291630
0.401343 0.552575 0.295903
0.422004 0.557855 0.302312
0.446357 0.567376 0.311131
0.474983 0.581476 0.322728
0.507866 0.600366 0.337194
0.545098 0.623011 0.355138
0.585840 0.648219 0.376654
0.628717 0.674586 0.401892
0.672389 0.700649 0.430701
0.715023 0.725093 0.462104
0.755215 0.746639 0.494606
0.791440 0.764218 0.526024
0.822110 0.776883 0.553002
0.846616 0.783932 0.572015
0.867796 0.786587 0.580835
0.887755 0.786709 0.583246
0.907591 0.785580 0.582849
0.927916 0.784451 0.582422
0.949096 0.784298 0.584100
0.300603 0.595026 0.288060
0.300786 0.594965 0.288060
0.302190 0.594781 0.288182
0.304997 0.594354 0.288365
0.309392 0.593744 0.288762
0.315526 0.592859 0.289311
0.323156 0.591760 0.290043
0.332219 0.590387 0.290898
0.342992 0.588800 0.292119
0.354864 0.587091 0.293523
0.367926 0.585382 0.295171
0.382116 0.583703 0.297154
0.397040 0.582208 0.299565
0.413703 0.582269 0.303044
0.432990 0.585473 0.308568
0.455604 0.592706 0.316442
0.482094 0.604242 0.327001
0.512474 0.619898 0.340764
0.546777 0.639368 0.357977
0.584649 0.661738 0.379004
0.625055 0.685847 0.403937
0.666743 0.710567 0.432715
0.708186 0.734646 0.464759
0.748135 0.757076 0.498909
0.785336 0.776822 0.533043
0.818906 0.793240 0.564599
0.847623 0.805386 0.590936
0.870939 0.812863 0.610437
0.891264 0.816464 0.621027
0.910552 0.817868 0.625391
0.929870 0.818326 0.627131
0.949828 0.818845 0.628809
0.318364 0.629694 0.297704
0.318547 0.629664 0.297734
0.319921 0.629480 0.297856
0.322698 0.629084 0.298009
0.326909 0.628504 0.298314
0.332586 0.627680 0.298802
0.339971 0.626642 0.299443
0.349004 0.625299 0.300206
0.359289 0.623865 0.301305
0.371099 0.622217 0.302556
0.383948 0.620478 0.304112
0.397894 0.618799 0.306096
0.412726 0.617212 0.308415
0.428809 0.616236 0.311376
0.446876 0.617609 0.316045
0.467933 0.622309 0.323125
0.492317 0.630976 0.332891
0.520409 0.643488 0.345953
0.552209 0.659693 0.362463
0.587213 0.678828 0.382849
0.625025 0.700160 0.407416
0.664271 0.722683 0.435889
0.704005 0.745388 0.468025
0.742885 0.767330 0.502831
0.779904 0.787625 0.538354
0.814054 0.805661 0.571923
0.844877 0.820737 0.601923
0.871733 0.832395 0.627436
0.893828 0.840055 0.646937
0.913237 0.844480 0.659022
0.931853 0.847013 0.665217
0.950683 0.848905 0.669032
0.339483 0.666926 0.309941
0.339696 0.666926 0.310033
0.341009 0.666712 0.310063
0.343511 0.666407 0.310216
0.347570 0.665888 0.310491
0.353033 0.665095 0.310887
0.360143 0.664149 0.311406
0.368750 0.662989 0.312169
0.378729 0.661616 0.313115
0.390234 0.660090 0.314244
0.402747 0.658503 0.315770
0.416480 0.656855 0.317540
0.431250 0.655299 0.319799
0.446937 0.653986 0.322484
0.464179 0.653895 0.326452
0.483955 0.656458 0.332677
0.506645 0.662501 0.341772
0.532647 0.671870 0.354009
0.561883 0.684596 0.369879
0.594232 0.700343 0.389593
0.629236 0.718563 0.413519
0.665980 0.738308 0.441505
0.703487 0.758816 0.473335
0.740719 0.779263 0.508171
0.776638 0.798917 0.543999
0.810452 0.817105 0.578271
0.841581 0.833341 0.609949
0.869718 0.847074 0.638178
0.894560 0.857877 0.662318
0.915404 0.865660 0.681514
0.933867 0.870695 0.694789
0.951873 0.874296 0.702876
0.365515 0.707118 0.327062
0.365850 0.707057 0.327153
0.366949 0.706935 0.327184
0.369329 0.706630 0.327306
0.373175 0.706172 0.327550
0.378332 0.705531 0.327886
0.385046 0.704646 0.328374
0.393286 0.703639 0.328985
0.402838 0.702419 0.329839
0.413855 0.701045 0.330907
0.426123 0.699611 0.332219
0.439521 0.698085 0.333867
0.454017 0.696590 0.336065
0.469520 0.695247 0.338659
0.486152 0.694392 0.342077
0.504692 0.695186 0.347387
0.525994 0.698878 0.355718
0.550072 0.705379 0.367193
0.576989 0.714870 0.382177
0.606714 0.727199 0.401221
0.638849 0.741909 0.424292
0.672786 0.758450 0.451575
0.707698 0.776150 0.482704
0.742824 0.794369 0.516930
0.777005 0.812345 0.551904
0.809537 0.829648 0.585931
0.840024 0.845701 0.617914
0.868101 0.860075 0.647242
0.893584 0.872343 0.673396
0.916350 0.882292 0.696132
0.935882 0.889952 0.714778
0.953491 0.895445 0.729030
0.399329 0.750332 0.352331
0.399542 0.750301 0.352331
0.400671 0.750179 0.352422
0.402838 0.749935 0.352514
0.406348 0.749538 0.352728
0.411109 0.749020 0.353002
0.417456 0.748257 0.353399
0.425086 0.747372 0.353918
0.434180 0.746334 0.354650
0.444617 0.745174 0.355657
0.456336 0.743893 0.356939
0.469245 0.742550 0.358495
0.483345 0.741176 0.360510
0.498451 0.739895 0.363043
