Luts/panasonic/灰度电影.cube
# Created by Adobe Lightroom plugin Export LUT (1.34.0)
# www.johnrellis.com/lightroom/exportlut.htm
# Preset: Silver02
# Color profile: /Volumes/Media/影片/Lut/exportlut.lrplugin/color profiles/Rec709gamma2.4.icc
LUT_3D_SIZE 5
DOMAIN_MIN 0.000000 0.000000 0.000000
DOMAIN_MAX 0.903226 0.903226 0.903226
0.041657 0.062318 0.071962
0.156008 0.082979 0.100313
0.357580 0.120333 0.146059
0.590265 0.172580 0.226596
0.831662 0.250584 0.319341
0.090059 0.171176 0.111879
0.156619 0.178744 0.120272
0.367620 0.218753 0.158328
0.598444 0.250797 0.234714
0.836210 0.309117 0.324376
0.168551 0.359289 0.196292
0.222965 0.354376 0.203494
0.406653 0.427283 0.257328
0.633814 0.463416 0.286046
0.850034 0.481880 0.346410
0.269230 0.534264 0.270451
0.303990 0.529503 0.273838
0.413489 0.533989 0.296605
0.680385 0.691615 0.428565
0.883574 0.750576 0.536339
0.444190 0.796323 0.390173
0.467536 0.793942 0.391699
0.551385 0.786496 0.403357
0.706752 0.815274 0.497444
0.896574 0.900633 0.696620
0.001099 0.113100 0.175937
0.155520 0.099092 0.189151
0.376318 0.148775 0.243839
0.604822 0.198795 0.298070
0.837400 0.269993 0.368902
0.033692 0.198276 0.207156
0.186038 0.214450 0.226261
0.394415 0.237461 0.258091
0.613977 0.267582 0.304814
0.841642 0.324041 0.373602
0.170809 0.395911 0.265568
0.241978 0.388922 0.270848
0.428107 0.446052 0.327153
0.640070 0.466377 0.337194
0.854002 0.489113 0.392767
0.278752 0.558160 0.313085
0.315831 0.552361 0.315343
0.424811 0.546380 0.332006
0.688624 0.698634 0.475166
0.881682 0.751522 0.564477
0.444282 0.803098 0.416999
0.467750 0.800473 0.417670
0.552422 0.791897 0.426001
0.706874 0.815457 0.513481
0.898314 0.902159 0.712764
0.000000 0.201450 0.366674
0.119478 0.200900 0.378607
0.368841 0.178744 0.411780
0.626947 0.229709 0.450782
0.853330 0.325902 0.512291
0.056367 0.274266 0.386969
0.176181 0.274754 0.398627
0.396246 0.264530 0.433204
0.643915 0.307225 0.467079
0.856596 0.377813 0.521813
0.176089 0.455329 0.454383
0.271153 0.465431 0.465461
0.498146 0.507836 0.512963
0.683955 0.504784 0.517144
0.864439 0.525536 0.545647
0.318578 0.665949 0.494240
0.363836 0.659174 0.492134
0.485786 0.626917 0.481544
0.716793 0.723476 0.616632
0.876707 0.742947 0.629419
0.451972 0.833707 0.532738
0.474281 0.830228 0.529503
0.557092 0.816983 0.521691
0.702510 0.816861 0.564935
0.905455 0.908537 0.765896
0.000000 0.311376 0.557305
0.104585 0.311070 0.565026
0.338170 0.302739 0.595422
0.604303 0.275242 0.638849
0.858610 0.333074 0.675288
0.020966 0.354864 0.568139
0.171206 0.354955 0.575891
0.360449 0.351904 0.606744
0.618982 0.335210 0.650507
0.863432 0.389990 0.682551
0.249943 0.497353 0.604486
0.299931 0.501335 0.612207
0.449836 0.512993 0.644617
0.671015 0.524865 0.691341
0.874815 0.563165 0.710811
0.383062 0.701991 0.694331
0.429541 0.705928 0.699123
0.573266 0.723354 0.719814
0.764340 0.767239 0.769162
0.890715 0.745327 0.752407
0.546441 0.897215 0.751858
0.563775 0.895659 0.750057
0.621759 0.885832 0.736873
0.712581 0.851591 0.696681
0.920317 0.922179 0.845670
0.310643 0.516167 0.823545
0.343023 0.514336 0.824979
0.450263 0.505303 0.831662
0.620813 0.482673 0.847959
0.844724 0.464607 0.870787
0.337743 0.542535 0.825742
0.367346 0.540795 0.827115
0.466896 0.533318 0.833585
0.629786 0.514397 0.849485
0.848142 0.500023 0.872343
0.413367 0.634882 0.833494
0.438483 0.633417 0.834958
0.523827 0.627375 0.841184
0.660090 0.616999 0.856168
0.861753 0.610925 0.879850
0.483528 0.758358 0.846250
0.503593 0.758389 0.847471
0.579461 0.757809 0.853422
0.708553 0.754452 0.869718
0.888884 0.762203 0.898375
0.598322 0.908995 0.897856
0.615412 0.909636 0.898955
0.681697 0.912566 0.903807
0.796201 0.920592 0.915648
0.950744 0.950744 0.951080
