Luts/panasonic/白色负片.cube
# Created by Adobe Lightroom plugin Export LUT (1.34.0)
# www.johnrellis.com/lightroom/exportlut.htm
# Preset: Silver01
# Color profile: /Volumes/Media/影片/Lut/exportlut.lrplugin/color profiles/Rec709gamma2.4.icc
LUT_3D_SIZE 5
DOMAIN_MIN 0.000000 0.000000 0.000000
DOMAIN_MAX 0.903226 0.903226 0.903226
0.000000 0.000000 0.000000
0.150454 0.072328 0.069276
0.393774 0.131319 0.140749
0.737575 0.245151 0.265476
1.000000 0.449104 0.456825
0.114656 0.161654 0.094179
0.158328 0.155398 0.103456
0.414954 0.242527 0.178378
0.761349 0.353033 0.305974
1.000000 0.525994 0.497627
0.264714 0.435889 0.196262
0.324254 0.431342 0.211460
0.426368 0.418647 0.236484
0.761410 0.563989 0.387976
1.000000 0.722255 0.625879
0.493355 0.760861 0.384344
0.533745 0.758633 0.394873
0.643763 0.745876 0.425910
0.751431 0.737850 0.457527
0.955505 0.824887 0.653956
0.781186 0.953491 0.709926
0.794461 0.952575 0.714473
0.840787 0.948333 0.730678
0.897124 0.940673 0.753048
0.950286 0.939574 0.791989
0.078401 0.093507 0.143282
0.160037 0.079500 0.159945
0.394049 0.117494 0.211765
0.726345 0.241642 0.321538
1.000000 0.452888 0.494697
0.105867 0.176242 0.174807
0.193210 0.192996 0.193332
0.434699 0.252750 0.255283
0.756893 0.355505 0.363684
1.000000 0.533135 0.536004
0.248264 0.458656 0.271092
0.329870 0.457069 0.285832
0.450721 0.444038 0.312871
0.785092 0.593988 0.466102
1.000000 0.736629 0.667506
0.495460 0.770413 0.440101
0.538476 0.768765 0.450141
0.655512 0.757229 0.480293
0.761227 0.748653 0.510430
0.955047 0.837858 0.700710
0.785458 0.953704 0.731930
0.798581 0.952850 0.736172
0.844175 0.949004 0.751339
0.899718 0.941619 0.772427
0.950469 0.940703 0.807523
0.118532 0.175204 0.330144
0.189639 0.175051 0.349828
0.390143 0.131807 0.395880
0.661524 0.133486 0.438575
0.977264 0.346471 0.550256
0.170291 0.249241 0.354620
0.224521 0.253574 0.373968
0.420844 0.233738 0.424811
0.688563 0.256840 0.460243
0.985779 0.449958 0.584924
0.212161 0.462013 0.457618
0.297368 0.474617 0.471077
0.526085 0.525475 0.526268
0.798184 0.613550 0.614618
0.981933 0.741756 0.741299
0.460029 0.795041 0.599390
0.517052 0.796262 0.609827
0.681331 0.794675 0.643336
0.791714 0.784207 0.670893
0.957885 0.881773 0.827512
0.791135 0.955566 0.796719
0.804654 0.955108 0.800351
0.851377 0.952697 0.813321
0.907927 0.946410 0.830808
0.952056 0.945251 0.854887
0.180972 0.283330 0.547265
0.234958 0.284794 0.560967
0.409064 0.276921 0.613001
0.654688 0.212955 0.664424
0.937774 0.207156 0.704860
0.219303 0.333165 0.560357
0.264775 0.336248 0.573999
0.427771 0.337224 0.627527
0.673945 0.295201 0.681636
0.947753 0.303746 0.714717
0.322362 0.491768 0.604486
0.361944 0.500542 0.616541
0.502342 0.530419 0.673793
0.740352 0.533898 0.742428
0.967132 0.545678 0.747951
0.438422 0.766751 0.759884
0.487221 0.771695 0.765438
0.643244 0.792111 0.788418
0.836240 0.835843 0.836332
0.962066 0.891997 0.891966
0.769314 0.960601 0.869596
0.785245 0.960143 0.872282
0.841459 0.959045 0.883604
0.915312 0.957366 0.901183
0.957397 0.954284 0.914183
0.394873 0.499733 0.858213
0.424384 0.498695 0.862211
0.534081 0.491035 0.879240
0.717708 0.464332 0.910338
0.928191 0.405554 0.931487
0.414527 0.531273 0.859709
0.441962 0.530785 0.863523
0.546349 0.525933 0.880064
0.724422 0.505577 0.910918
0.930632 0.454902 0.932586
0.476448 0.637232 0.863951
0.501457 0.638117 0.867308
0.592096 0.642267 0.881804
0.748867 0.642695 0.911498
0.936950 0.614343 0.935332
0.551263 0.777676 0.877806
0.572168 0.778988 0.878904
0.653162 0.786313 0.885313
0.790799 0.807889 0.910399
0.942718 0.817197 0.940520
0.753262 0.947692 0.941985
0.766201 0.947997 0.942626
0.815152 0.949554 0.945525
0.891325 0.954437 0.952544
0.970550 0.970459 0.970581
