Luts/panasonic/白色负片.cube
# Created by Adobe Lightroom plugin Export LUT (1.34.0)
# www.johnrellis.com/lightroom/exportlut.htm
# Preset: Silver01
# Color profile: /Volumes/Media/影片/Lut/exportlut.lrplugin/color profiles/Rec709gamma2.4.icc
LUT_3D_SIZE 8
DOMAIN_MIN 0.000000 0.000000 0.000000
DOMAIN_MAX 0.903226 0.903226 0.903226
0.000000 0.000000 0.000000
0.093141 0.021790 0.022004
0.174624 0.082734 0.082368
0.307164 0.112764 0.117220
0.488502 0.155489 0.169986
0.688106 0.224277 0.244327
0.881254 0.317693 0.335729
1.000000 0.449104 0.456825
0.062379 0.093965 0.041352
0.093568 0.091890 0.052491
0.176394 0.116091 0.093874
0.314549 0.149294 0.128603
0.496986 0.194217 0.182254
0.695796 0.258762 0.255985
0.886381 0.346227 0.346899
1.000000 0.471046 0.467903
0.130526 0.190921 0.105257
0.151034 0.189181 0.110140
0.186618 0.183291 0.116732
0.317540 0.232792 0.155337
0.517449 0.301396 0.221592
0.719448 0.367254 0.298192
0.902403 0.444556 0.390173
1.000000 0.550805 0.511986
0.212619 0.345434 0.158755
0.232486 0.344366 0.163485
0.286442 0.337285 0.177707
0.337926 0.331670 0.188418
0.486091 0.387304 0.242557
0.730312 0.497597 0.351629
0.913542 0.578058 0.458045
1.000000 0.665919 0.586053
0.322789 0.529625 0.240299
0.339483 0.528740 0.244297
0.394934 0.524132 0.259007
0.457710 0.513207 0.276280
0.518029 0.508690 0.290349
0.654047 0.551598 0.345647
0.888884 0.679561 0.498238
0.998535 0.770047 0.659205
0.455848 0.716518 0.350103
0.468177 0.715938 0.353246
0.513970 0.712917 0.365301
0.580591 0.705165 0.384009
0.641199 0.694301 0.400214
0.706111 0.693294 0.418402
0.822141 0.724117 0.478676
0.966186 0.818631 0.663172
0.615290 0.869535 0.510552
0.623011 0.869139 0.512779
0.653285 0.867308 0.521569
0.703456 0.862943 0.536736
0.759091 0.855589 0.554070
0.808743 0.848203 0.570031
0.862577 0.848142 0.596368
0.934081 0.863279 0.665187
0.781186 0.953491 0.709926
0.784756 0.953246 0.711147
0.799191 0.952209 0.716121
0.824887 0.950011 0.725002
0.857603 0.946319 0.736873
0.889647 0.941741 0.749660
0.919127 0.938323 0.764950
0.950286 0.939574 0.791989
0.034913 0.043122 0.090455
0.097292 0.030854 0.095735
0.182467 0.080049 0.112337
0.313298 0.114626 0.145052
0.490150 0.158236 0.194797
0.686702 0.226719 0.264225
0.878782 0.319646 0.351415
1.000000 0.451484 0.468482
0.056641 0.099397 0.098299
0.104921 0.104921 0.104921
0.189548 0.124117 0.124544
0.322789 0.153017 0.156069
0.499489 0.196811 0.206271
0.694942 0.260777 0.275486
0.884154 0.348119 0.362341
1.000000 0.473548 0.479438
0.126162 0.201572 0.131960
0.153902 0.201114 0.137087
0.198398 0.195560 0.146181
0.332586 0.245792 0.186679
0.523308 0.307530 0.246586
0.720577 0.370672 0.317967
0.900999 0.447303 0.405768
1.000000 0.553948 0.523644
0.209934 0.353613 0.183261
0.232670 0.352819 0.187900
0.293156 0.346288 0.202274
0.346441 0.340520 0.213840
0.497719 0.398627 0.269139
0.735378 0.504479 0.373632
0.913268 0.582605 0.474952
1.000000 0.670130 0.598260
0.322148 0.535088 0.260777
0.339605 0.534447 0.264652
0.397742 0.530175 0.278965
0.463416 0.519249 0.296361
0.523827 0.514672 0.310460
0.661402 0.559380 0.366217
0.891508 0.686305 0.517967
0.996460 0.774197 0.671443
0.456458 0.719875 0.366644
0.469093 0.719295 0.369726
0.515862 0.716518 0.381628
0.583886 0.709010 0.400122
0.645258 0.698116 0.416358
0.709590 0.697017 0.434272
0.824918 0.728084 0.494087
0.965698 0.822629 0.676722
0.617029 0.870451 0.522789
0.624811 0.870085 0.524987
0.655177 0.868284 0.533684
0.705379 0.864073 0.548608
0.761227 0.856809 0.565911
0.810483 0.849424 0.581628
0.863462 0.849363 0.607477
0.934051 0.864561 0.674372
0.782406 0.953552 0.716030
0.786007 0.953307 0.717220
0.800351 0.952300 0.722072
0.825895 0.950134 0.730861
0.858518 0.946502 0.742489
0.890379 0.941985 0.755123
0.919554 0.938598 0.770016
0.950347 0.939879 0.796262
0.086275 0.102602 0.164340
0.110140 0.101778 0.170779
0.186099 0.089754 0.186679
0.310338 0.094423 0.212680
0.478553 0.133181 0.253422
0.670558 0.210605 0.316350
0.864317 0.311925 0.397559
1.000000 0.450874 0.505028
0.104952 0.133211 0.174685
0.123690 0.133852 0.181186
0.197086 0.125063 0.197757
0.323430 0.132204 0.220523
0.490822 0.176120 0.263828
0.681270 0.247837 0.328008
0.871031 0.342199 0.408850
1.000000 0.474220 0.516167
0.115450 0.209079 0.207248
0.143099 0.213748 0.212314
0.231876 0.231510 0.231907
0.365454 0.264378 0.265263
0.533776 0.310521 0.313603
0.717433 0.370336 0.376104
0.892424 0.448951 0.455116
1.000000 0.559716 0.561608
0.162325 0.375921 0.260685
0.199496 0.377874 0.265049
0.305486 0.378515 0.281743
0.375250 0.370886 0.296269
0.543053 0.441596 0.362280
0.748928 0.523980 0.445838
0.910246 0.595911 0.531914
1.000000 0.682795 0.639460
0.306859 0.555108 0.332769
0.329473 0.555077 0.336461
0.402808 0.553155 0.350530
0.484688 0.543206 0.369360
0.545617 0.537499 0.382940
0.691951 0.591943 0.444556
0.899290 0.712062 0.590906
0.989044 0.788724 0.713802
0.454932 0.732570 0.428443
0.469001 0.732265 0.431342
0.520623 0.730373 0.442695
0.595239 0.724056 0.460822
0.661006 0.713161 0.477302
0.722927 0.711391 0.494057
0.836027 0.744594 0.554284
0.963989 0.838437 0.726741
0.623529 0.873899 0.569848
0.631403 0.873594 0.571954
0.662287 0.872099 0.580346
0.712978 0.868437 0.594812
0.769558 0.861601 0.611566
0.817411 0.854337 0.626429
0.866850 0.854246 0.649531
0.934020 0.869810 0.709102
0.786770 0.953796 0.739345
0.790280 0.953613 0.740475
0.804471 0.952728 0.744991
0.829679 0.950774 0.753201
0.861875 0.947417 0.764096
0.893370 0.943053 0.775906
0.921294 0.939757 0.789425
0.950591 0.941100 0.812833
0.107576 0.148562 0.270787
0.129458 0.149020 0.276921
0.204776 0.143832 0.298253
0.317052 0.116365 0.320958
0.463081 0.099672 0.346929
0.630304 0.140414 0.379339
0.822507 0.247349 0.443061
0.992157 0.402777 0.537346
0.124453 0.173465 0.280247
0.142702 0.174197 0.285985
0.213230 0.170535 0.307103
0.326757 0.148623 0.330327
0.473274 0.141878 0.354040
0.639765 0.182040 0.386786
0.830655 0.281132 0.452613
0.994079 0.430121 0.548028
0.170199 0.251041 0.306340
0.187564 0.254582 0.311742
0.247654 0.262058 0.334569
0.361791 0.252659 0.363622
0.510124 0.259678 0.381598
0.678340 0.312810 0.423835
0.861082 0.403632 0.497139
0.998474 0.533165 0.595361
0.168917 0.371405 0.367895
0.197269 0.375250 0.371923
0.288243 0.390845 0.388678
0.421363 0.420844 0.421485
0.579492 0.464454 0.465400
0.746883 0.519219 0.520928
0.897063 0.590814 0.592340
0.993530 0.682734 0.682490
0.233280 0.575952 0.442542
0.265080 0.577569 0.444831
0.367498 0.583337 0.456184
0.505699 0.585351 0.480446
0.581994 0.576806 0.496315
0.749111 0.654994 0.577935
0.901915 0.743526 0.685481
0.979461 0.804898 0.766537
0.428626 0.750698 0.523674
0.446815 0.750973 0.526513
0.512718 0.751522 0.537957
0.606073 0.749050 0.557122
0.686915 0.739132 0.575677
0.744625 0.735744 0.590417
0.855741 0.777340 0.658076
0.962707 0.864225 0.798428
0.629236 0.879515 0.643549
0.637537 0.879393 0.645563
0.670130 0.878569 0.653437
0.723049 0.876158 0.666896
0.782162 0.870573 0.682734
0.829374 0.863310 0.696376
0.872953 0.863035 0.714626
0.935393 0.880308 0.765103
0.791135 0.954742 0.776150
0.794675 0.954589 0.777188
0.808927 0.953918 0.781247
0.834165 0.952422 0.788602
0.866300 0.949645 0.798367
0.898192 0.945525 0.809140
0.924590 0.942168 0.820584
0.951354 0.943542 0.839567
0.133455 0.203830 0.389868
0.152865 0.204501 0.394781
0.220798 0.204166 0.414282
0.332189 0.191348 0.446662
0.464240 0.151186 0.471626
0.616602 0.119997 0.492744
0.780209 0.162478 0.518639
0.958953 0.276005 0.571435
0.148806 0.223301 0.396307
0.165988 0.224155 0.401068
0.229160 0.224613 0.420447
0.338811 0.214389 0.453254
0.471870 0.180636 0.478645
0.624170 0.161349 0.498695
0.785946 0.197910 0.523247
0.962493 0.306432 0.577508
0.196628 0.291600 0.417304
0.211032 0.293217 0.422126
0.263798 0.298405 0.441840
0.365026 0.298375 0.477546
0.501610 0.278721 0.506188
0.653346 0.276341 0.522454
0.810483 0.308843 0.544762
0.974029 0.416876 0.606012
0.255039 0.393896 0.455451
0.270024 0.397467 0.459419
0.326452 0.412329 0.476753
0.419043 0.433875 0.516320
0.554376 0.432319 0.555901
0.700649 0.437751 0.566125
0.855131 0.487129 0.601038
0.980957 0.601770 0.678981
0.266972 0.552911 0.547784
0.288670 0.555810 0.550835
0.365759 0.567956 0.563775
0.484749 0.591608 0.589227
0.628931 0.628290 0.629114
0.773678 0.675227 0.675898
0.894224 0.731899 0.732265
0.972808 0.793088 0.792721
0.375463 0.763638 0.638392
0.395361 0.764401 0.639948
0.469062 0.767330 0.646723
0.582849 0.771969 0.661982
0.707088 0.772946 0.686275
0.771176 0.766506 0.700740
0.885618 0.827817 0.780179
0.963989 0.886442 0.857328
0.613092 0.886015 0.718898
0.622217 0.886015 0.720790
0.658167 0.886015 0.728786
0.720974 0.885740 0.742550
0.790402 0.883207 0.758572
0.844236 0.876463 0.772061
0.881529 0.875090 0.784787
0.941375 0.897704 0.830655
0.788449 0.956542 0.817777
0.792355 0.956481 0.818753
0.808011 0.956085 0.822751
0.835386 0.955200 0.829862
0.869627 0.953368 0.839048
0.903532 0.949889 0.848692
0.929351 0.946288 0.857664
0.953063 0.947265 0.871275
0.169924 0.265751 0.512779
0.185916 0.266361 0.516686
0.244511 0.267430 0.532677
0.342412 0.263706 0.562493
0.475074 0.244877 0.600336
0.614405 0.199496 0.623835
0.771481 0.161837 0.644648
0.939818 0.207401 0.672755
0.181888 0.280613 0.516991
0.196719 0.281254 0.520836
0.252445 0.282872 0.536797
0.348089 0.280674 0.566796
0.480415 0.264591 0.605219
0.620050 0.224704 0.628931
0.776913 0.195956 0.649165
0.942596 0.237491 0.675532
0.224186 0.336400 0.532341
0.236393 0.337499 0.536187
0.283909 0.341833 0.552331
0.372076 0.345403 0.583398
0.501854 0.338964 0.624384
0.643030 0.311986 0.649622
0.798581 0.298985 0.667445
0.952789 0.333623 0.686549
0.284855 0.428992 0.557977
0.296300 0.431159 0.561700
0.341558 0.439582 0.577905
0.420020 0.453346 0.610834
0.541253 0.462440 0.657588
0.684443 0.448890 0.687709
0.833158 0.445319 0.699428
0.964874 0.471229 0.706477
0.348394 0.545830 0.610010
0.360266 0.548363 0.612512
0.407294 0.559258 0.623621
0.488533 0.581689 0.647974
0.599512 0.613519 0.696559
0.737972 0.621210 0.738674
0.864866 0.619745 0.739406
0.967742 0.667994 0.759976
0.397864 0.728115 0.721462
0.412879 0.729763 0.723293
0.470375 0.736812 0.731014
0.565881 0.750271 0.745907
0.682826 0.771450 0.769314
0.803281 0.802792 0.803372
0.898253 0.838712 0.838987
0.962829 0.875395 0.875334
0.585138 0.892821 0.802762
0.594690 0.892851 0.803616
0.632593 0.893065 0.807187
0.697383 0.893584 0.814359
0.776944 0.894774 0.826261
0.855375 0.894591 0.842924
0.893858 0.890929 0.852140
0.955657 0.926390 0.902007
0.774197 0.959472 0.858244
0.778439 0.959380 0.859068
0.795438 0.958953 0.862638
0.825772 0.958434 0.869749
0.866087 0.957916 0.879667
0.906432 0.956237 0.889372
0.935882 0.952605 0.897185
0.956268 0.952636 0.905608
0.226169 0.347478 0.667323
0.239475 0.347692 0.670161
0.290043 0.347997 0.682002
0.376928 0.345800 0.704921
0.496712 0.336034 0.737514
0.640040 0.310887 0.771328
0.779599 0.263981 0.789029
0.930327 0.238926 0.803159
0.234501 0.358892 0.669612
0.247227 0.359197 0.672419
0.296178 0.359777 0.684260
0.381567 0.358434 0.707149
0.500328 0.350134 0.739834
0.643275 0.327611 0.773892
0.782681 0.284428 0.791623
0.932647 0.263340 0.805203
0.265873 0.403510 0.678340
0.276921 0.404059 0.681117
0.320714 0.406073 0.692836
0.400183 0.407843 0.715694
0.514885 0.405219 0.748775
0.656733 0.391302 0.783932
0.795041 0.358648 0.801938
0.941100 0.347051 0.813107
0.314549 0.479988 0.692195
0.324651 0.480903 0.694942
0.364477 0.484718 0.706416
0.435401 0.491981 0.729030
0.541985 0.498787 0.762844
0.680201 0.498116 0.800381
0.815915 0.476844 0.819577
0.953246 0.472053 0.826444
0.367468 0.577356 0.713069
0.376867 0.578851 0.715084
0.414649 0.584863 0.723964
0.484199 0.596307 0.743526
0.582300 0.613855 0.776852
0.711543 0.632074 0.818357
0.840269 0.624323 0.841062
0.960388 0.623072 0.842741
0.437446 0.700526 0.765988
0.446571 0.701534 0.766903
0.483436 0.705867 0.770809
0.550927 0.715419 0.779263
0.643854 0.734249 0.796292
0.758267 0.768978 0.835416
0.868284 0.783566 0.868132
0.956176 0.780270 0.865202
0.573968 0.861448 0.854490
0.582330 0.861997 0.855161
0.616144 0.864256 0.858000
0.676020 0.868986 0.863920
0.753170 0.877104 0.873716
0.835325 0.890135 0.888670
0.911040 0.910796 0.911070
0.963592 0.932860 0.932921
0.760128 0.962676 0.908324
0.764248 0.962585 0.908690
0.781033 0.962310 0.910216
0.811521 0.961913 0.913207
0.852140 0.961669 0.917845
0.897398 0.961975 0.924620
0.940612 0.961791 0.933867
0.961700 0.960113 0.939391
0.394873 0.499733 0.858213
0.402808 0.499458 0.859251
0.434974 0.498207 0.863706
0.494484 0.494514 0.872770
0.579828 0.486030 0.886992
0.687953 0.469886 0.905486
0.809079 0.442512 0.923033
0.928191 0.405554 0.931487
0.400244 0.508324 0.858640
0.407996 0.508110 0.859678
0.439612 0.507012 0.864073
0.498268 0.503685 0.873045
0.582666 0.495888 0.887236
0.689967 0.480781 0.905669
0.810391 0.454810 0.923278
0.928862 0.419165 0.931792
0.421393 0.542290 0.860227
0.428595 0.542290 0.861173
0.458015 0.541894 0.865415
0.513481 0.540154 0.874113
0.594263 0.535088 0.887907
0.698024 0.524132 0.906218
0.815702 0.503441 0.924102
0.931426 0.471839 0.932921
0.457099 0.600977 0.862669
0.463844 0.601160 0.863615
0.491035 0.601801 0.867491
0.541466 0.602930 0.875547
0.615930 0.602747 0.888670
0.713191 0.598932 0.906615
0.825101 0.586908 0.925048
0.935180 0.560723 0.934539
0.494820 0.675990 0.865293
0.501366 0.676356 0.866087
0.528435 0.677821 0.869474
0.578088 0.680354 0.876677
0.645624 0.685328 0.888731
0.733700 0.690150 0.906310
0.837461 0.689754 0.925750
0.938506 0.672023 0.936156
0.536156 0.755673 0.873167
0.541955 0.756069 0.873533
0.566064 0.757961 0.875334
0.612055 0.762325 0.879637
0.679103 0.769833 0.888731
0.761440 0.782559 0.905364
0.854032 0.795773 0.926879
0.941558 0.789578 0.939147
0.618372 0.851194 0.900389
0.623163 0.851377 0.900450
0.642817 0.852110 0.900877
0.679561 0.853696 0.901793
0.731289 0.856657 0.903777
0.795499 0.863462 0.909239
0.875731 0.882750 0.929107
0.948821 0.892607 0.947631
0.753262 0.947692 0.941985
0.756680 0.947784 0.942168
0.770901 0.948119 0.942870
0.797543 0.948913 0.944396
0.834989 0.950469 0.946990
0.879454 0.953368 0.951141
0.927062 0.958923 0.958068
0.970550 0.970459 0.970581
