Luts/panasonic/白色负片.cube
# Created by Adobe Lightroom plugin Export LUT (1.34.0)
# www.johnrellis.com/lightroom/exportlut.htm
# Preset: Silver01
# Color profile: /Volumes/Media/影片/Lut/exportlut.lrplugin/color profiles/Rec709gamma2.4.icc
LUT_3D_SIZE 32
DOMAIN_MIN 0.0 0.0 0.0
DOMAIN_MAX 1.0 1.0 1.0
0.000000 0.000000 0.000000
0.004944 0.000519 0.000946
0.020081 0.004303 0.004669
0.051606 0.010651 0.009949
0.093141 0.021790 0.022004
0.111086 0.039490 0.037690
0.129000 0.057801 0.054108
0.150454 0.072328 0.069276
0.174624 0.082734 0.082368
0.201999 0.090639 0.090730
0.233127 0.097353 0.098665
0.268254 0.104891 0.107271
0.307164 0.112764 0.117220
0.349187 0.121614 0.128298
0.393774 0.131319 0.140749
0.440284 0.142611 0.154696
0.488502 0.155489 0.169986
0.537835 0.170321 0.187045
0.587701 0.186893 0.205081
0.638025 0.204807 0.224338
0.688106 0.224277 0.244327
0.737575 0.245151 0.265476
0.786038 0.267308 0.287449
0.834592 0.291386 0.310704
0.881254 0.317693 0.335729
0.924437 0.346654 0.362829
0.963409 0.378393 0.392065
0.997559 0.412543 0.423346
1.000000 0.449104 0.456825
1.000000 0.487709 0.492470
1.000000 0.528130 0.530205
1.000000 0.570031 0.569879
0.002533 0.004150 0.001648
0.004517 0.003906 0.001648
0.019623 0.007691 0.005341
0.052857 0.013794 0.011749
0.092592 0.026398 0.023682
0.110658 0.044068 0.039338
0.129366 0.060975 0.054780
0.150729 0.075502 0.069947
0.174746 0.085481 0.082704
0.202304 0.092195 0.091341
0.233402 0.098787 0.098817
0.268559 0.106447 0.107698
0.307561 0.114107 0.117586
0.349523 0.123323 0.128847
0.394141 0.133089 0.141176
0.440650 0.144137 0.155062
0.488869 0.157015 0.170474
0.538048 0.172091 0.187442
0.588098 0.188479 0.205539
0.638361 0.206332 0.224735
0.688380 0.225498 0.244785
0.737819 0.246342 0.265873
0.786313 0.268559 0.287877
0.834867 0.292454 0.311070
0.881468 0.318669 0.336156
0.924590 0.347723 0.363287
0.963561 0.379339 0.392462
0.997620 0.413458 0.423743
1.000000 0.449989 0.457252
1.000000 0.488502 0.492866
1.000000 0.528771 0.530571
1.000000 0.570642 0.570214
0.010193 0.022095 0.006958
0.013855 0.021668 0.008057
0.021515 0.020752 0.009155
0.050050 0.028534 0.015473
0.091188 0.042298 0.028351
0.109316 0.061219 0.045014
0.128481 0.076905 0.059480
0.150546 0.085512 0.074769
0.175357 0.092042 0.085603
0.202884 0.098238 0.092958
0.234379 0.105104 0.100801
0.269749 0.112673 0.109407
0.308843 0.120760 0.119509
0.350835 0.129732 0.130709
0.395514 0.139437 0.143191
0.442054 0.150759 0.157076
0.490211 0.163760 0.172457
0.539513 0.178378 0.189273
0.589410 0.194614 0.207492
0.639643 0.212222 0.226627
0.689601 0.231357 0.246708
0.738979 0.251774 0.267735
0.787381 0.273564 0.289586
0.835874 0.297215 0.312871
0.882322 0.323339 0.337987
0.925231 0.351995 0.364904
0.964019 0.383307 0.394141
0.997894 0.417182 0.425422
1.000000 0.453407 0.458961
1.000000 0.491646 0.494575
1.000000 0.531701 0.532250
1.000000 0.573236 0.571801
0.028779 0.060975 0.019348
0.032441 0.060517 0.020478
0.043763 0.059174 0.022705
0.060060 0.058381 0.025879
0.089021 0.068391 0.037324
0.107546 0.082490 0.053162
0.127871 0.090791 0.067445
0.150729 0.096529 0.080720
0.175937 0.102785 0.089509
0.204135 0.109194 0.096345
0.236179 0.116426 0.104341
0.271977 0.124117 0.113283
0.311254 0.132784 0.123201
0.353582 0.141787 0.134249
0.398260 0.151858 0.146944
0.444739 0.163119 0.160800
0.492958 0.176181 0.176181
0.542077 0.190585 0.193149
0.592004 0.206363 0.211246
0.642176 0.223667 0.230289
0.692073 0.242313 0.250248
0.741299 0.262119 0.271183
0.789548 0.283635 0.293065
0.837827 0.306767 0.316320
0.883879 0.332433 0.341405
0.926543 0.360510 0.368444
0.964935 0.391333 0.397650
0.998444 0.424628 0.428962
1.000000 0.460365 0.462409
1.000000 0.498054 0.497993
1.000000 0.537499 0.535576
1.000000 0.578546 0.575067
0.062379 0.093965 0.041352
0.065339 0.094209 0.042329
0.077363 0.093324 0.044709
0.087434 0.092195 0.048188
0.093568 0.091890 0.052491
0.106508 0.094972 0.062959
0.126467 0.101686 0.077943
0.149752 0.108919 0.087282
0.176394 0.116091 0.093874
0.205509 0.123751 0.101259
0.238193 0.131655 0.109377
0.274723 0.140169 0.118257
0.314549 0.149294 0.128603
0.357214 0.158999 0.139864
0.401984 0.169528 0.152590
0.448768 0.181033 0.166537
0.496986 0.194217 0.182254
0.546105 0.208377 0.199069
0.595941 0.223850 0.216922
0.646052 0.240543 0.235904
0.695796 0.258762 0.255985
0.744808 0.278019 0.276890
0.792874 0.298772 0.298619
0.840787 0.321233 0.321813
0.886381 0.346227 0.346899
0.928435 0.373693 0.373938
0.966308 0.403632 0.403082
0.999207 0.436164 0.434394
1.000000 0.471046 0.467903
1.000000 0.507958 0.503380
1.000000 0.546593 0.540917
1.000000 0.586847 0.580255
0.085786 0.113832 0.062531
0.087984 0.113710 0.063630
0.092226 0.113344 0.065858
0.099001 0.112398 0.070466
0.105623 0.110750 0.074250
0.112062 0.110323 0.077394
0.125399 0.113313 0.083162
0.147555 0.120912 0.090822
0.175387 0.130312 0.098543
0.205905 0.139895 0.106905
0.239841 0.149447 0.115328
0.277409 0.159213 0.125002
0.317998 0.169406 0.135317
0.361273 0.179995 0.146853
0.406622 0.191348 0.159854
0.453529 0.203464 0.174105
0.501976 0.216800 0.190066
0.551293 0.231022 0.206851
0.601068 0.246281 0.224979
0.651118 0.262730 0.243778
0.700679 0.280308 0.263737
0.749447 0.298985 0.284611
0.797238 0.318914 0.306279
0.844785 0.340673 0.329473
0.889647 0.364843 0.354528
0.930999 0.391333 0.381537
0.968048 0.420417 0.410742
1.000000 0.451881 0.442084
1.000000 0.485664 0.475532
1.000000 0.521508 0.511009
1.000000 0.559167 0.548363
1.000000 0.598260 0.587457
0.100191 0.135897 0.081910
0.100526 0.136080 0.082521
0.104707 0.135775 0.083925
0.111543 0.134920 0.086763
0.119295 0.133455 0.088594
0.126101 0.131777 0.090059
0.133333 0.131197 0.091646
0.147250 0.134096 0.095003
0.171542 0.142885 0.102266
0.203464 0.154849 0.111391
0.239811 0.167514 0.121553
0.279240 0.179568 0.131685
0.320958 0.191623 0.142824
0.365179 0.203647 0.155123
0.411139 0.216068 0.168612
0.458717 0.229191 0.183536
0.507622 0.242985 0.199619
0.557122 0.257481 0.216587
0.607080 0.272740 0.234623
0.657038 0.288975 0.253605
0.706569 0.306035 0.273503
0.755123 0.324193 0.294285
0.802609 0.343389 0.316045
0.849577 0.364508 0.339117
0.893584 0.387793 0.364263
0.934051 0.413397 0.391485
0.970153 0.441260 0.420722
1.000000 0.471656 0.452064
1.000000 0.504112 0.485389
1.000000 0.538628 0.520836
1.000000 0.574945 0.558007
1.000000 0.612787 0.596887
0.114656 0.161654 0.094179
0.115114 0.161624 0.094575
0.119112 0.161318 0.095338
0.126070 0.160769 0.097230
0.134707 0.159426 0.099275
0.142580 0.157717 0.100893
0.149874 0.155581 0.101930
0.158328 0.155398 0.103456
0.172915 0.158602 0.106935
0.198825 0.167666 0.114626
0.235416 0.182528 0.125551
0.277745 0.198734 0.137545
0.322179 0.213870 0.150301
0.367620 0.228244 0.163668
0.414954 0.242527 0.178378
0.463416 0.256931 0.193881
0.512963 0.271580 0.210239
0.563073 0.286748 0.227634
0.613458 0.302342 0.246036
0.663600 0.318547 0.265110
0.713008 0.335393 0.285252
0.761349 0.353033 0.305974
0.808652 0.371740 0.327642
0.854826 0.392218 0.350988
0.897948 0.414527 0.376257
0.937316 0.439124 0.403540
0.972320 0.465949 0.432837
1.000000 0.494881 0.464179
1.000000 0.525994 0.497627
1.000000 0.559045 0.532891
1.000000 0.593805 0.569879
1.000000 0.630121 0.608392
0.130526 0.190921 0.105257
0.131777 0.190829 0.105562
0.135409 0.190738 0.106172
0.142061 0.190219 0.107851
0.151034 0.189181 0.110140
0.160494 0.187442 0.112581
0.169070 0.185214 0.114137
0.177035 0.183444 0.115541
0.186618 0.183291 0.116732
0.202762 0.186831 0.120699
0.230381 0.196506 0.128786
0.270573 0.213657 0.140871
0.317540 0.232792 0.155337
0.367132 0.251560 0.171176
0.416754 0.268894 0.187564
0.466621 0.285222 0.204196
0.517449 0.301396 0.221592
0.568322 0.317571 0.239689
0.619409 0.333837 0.258488
0.669856 0.350347 0.278080
0.719448 0.367254 0.298192
0.767758 0.384710 0.319249
0.814939 0.402991 0.341039
0.860319 0.422950 0.364752
0.902403 0.444556 0.390173
0.940642 0.468025 0.417670
0.974334 0.493568 0.447059
1.000000 0.521172 0.478614
1.000000 0.550805 0.511986
1.000000 0.582269 0.547143
1.000000 0.615412 0.583917
1.000000 0.649866 0.621881
0.148531 0.224735 0.116609
0.149203 0.224674 0.116915
0.152743 0.224460 0.117494
0.159609 0.224063 0.119142
0.168948 0.222995 0.121492
0.179751 0.221500 0.124361
0.190158 0.219455 0.126772
0.199557 0.217166 0.128939
0.208530 0.215488 0.130098
0.219791 0.215702 0.131868
0.237308 0.219547 0.135988
0.265873 0.229068 0.144411
0.308263 0.247227 0.157748
0.358801 0.269169 0.175082
0.412726 0.291478 0.194156
0.466773 0.312108 0.213413
0.519677 0.330846 0.232517
0.572076 0.348608 0.251530
0.624109 0.366125 0.271397
0.675410 0.383398 0.291508
0.725368 0.400793 0.312322
0.773861 0.418158 0.333654
0.820890 0.436378 0.355901
0.865507 0.455787 0.379980
0.906554 0.476722 0.405829
0.943633 0.499245 0.433478
0.976013 0.523674 0.463355
1.000000 0.549889 0.494972
1.000000 0.577935 0.528405
1.000000 0.607752 0.563439
1.000000 0.639063 0.599817
1.000000 0.671321 0.636957
0.167910 0.262119 0.128817
0.168795 0.262089 0.129061
0.172244 0.261936 0.129763
0.178897 0.261601 0.131472
0.188540 0.260807 0.133944
0.200229 0.259525 0.136873
0.212314 0.257603 0.139895
0.223545 0.255192 0.142519
0.233616 0.252903 0.144625
0.243626 0.251225 0.146242
0.256443 0.251682 0.148379
0.275395 0.255772 0.153048
0.304173 0.264591 0.161776
0.347631 0.283299 0.176730
0.400824 0.307500 0.196475
0.458289 0.332677 0.218143
0.516503 0.356695 0.240696
0.572869 0.378332 0.262425
0.626612 0.397833 0.283665
0.679042 0.416419 0.304936
0.729946 0.434577 0.326604
0.778744 0.452461 0.348638
0.825864 0.470832 0.371588
0.869932 0.490028 0.396277
0.910124 0.510307 0.422736
0.945953 0.532067 0.451057
0.976989 0.555322 0.481117
1.000000 0.580194 0.512993
1.000000 0.606714 0.546502
1.000000 0.634791 0.581415
1.000000 0.664240 0.617426
1.000000 0.694057 0.653254
0.189029 0.302708 0.142580
0.189792 0.302647 0.142824
0.193545 0.302434 0.143679
0.199863 0.302159 0.145357
0.209537 0.301427 0.147707
0.221500 0.300328 0.150668
0.234958 0.298680 0.154238
0.247929 0.296452 0.157687
0.259800 0.293858 0.160555
0.270603 0.291478 0.162783
0.282017 0.289921 0.164645
0.295964 0.290623 0.167269
0.316014 0.294713 0.172396
0.344884 0.302983 0.181613
0.388251 0.321324 0.197513
0.443244 0.346899 0.218936
0.503471 0.374578 0.243168
0.564843 0.401495 0.268467
0.624170 0.426154 0.293431
0.679927 0.447913 0.317235
0.732082 0.467567 0.340185
0.781949 0.486336 0.363348
0.829374 0.505211 0.387488
0.873075 0.524498 0.413092
0.912566 0.544457 0.440345
0.947356 0.565454 0.469368
0.977111 0.587671 0.500023
1.000000 0.611261 0.532250
1.000000 0.636286 0.565850
1.000000 0.662715 0.600671
1.000000 0.689998 0.635889
1.000000 0.717250 0.670375
0.212619 0.345434 0.158755
0.213169 0.345464 0.158907
0.216495 0.345342 0.159640
0.223148 0.344915 0.161135
0.232486 0.344366 0.163485
0.244633 0.343389 0.166567
0.258366 0.341955 0.170352
0.272709 0.339849 0.174197
0.286442 0.337285 0.177707
0.298711 0.334569 0.180728
0.310369 0.332158 0.183108
0.322698 0.330907 0.185336
0.337926 0.331670 0.188418
0.358679 0.335790 0.194156
0.387549 0.343755 0.203738
0.430365 0.360906 0.219821
0.486091 0.387304 0.242557
0.548058 0.416815 0.269047
0.611475 0.446143 0.296880
0.672938 0.473426 0.324834
0.730312 0.497597 0.351629
0.782467 0.518608 0.376898
0.830716 0.538537 0.402594
0.874510 0.558221 0.429603
0.913542 0.578058 0.458045
0.947601 0.598566 0.488075
0.976226 0.619898 0.519402
0.999603 0.642359 0.552209
1.000000 0.665919 0.586053
1.000000 0.690639 0.620661
1.000000 0.715633 0.654780
1.000000 0.740444 0.687922
0.237858 0.390082 0.176761
0.238346 0.390082 0.176913
0.241733 0.389837 0.177554
0.247898 0.389624 0.179110
0.257023 0.389075 0.181460
0.269230 0.388159 0.184421
0.283055 0.386877 0.187991
0.298253 0.385016 0.192203
0.313207 0.382605 0.196262
0.327153 0.379889 0.200046
0.339879 0.377111 0.203098
0.352209 0.374792 0.205631
0.365393 0.373602 0.208103
0.381537 0.374548 0.211673
0.402899 0.378668 0.217716
0.431861 0.386267 0.227481
0.473121 0.401801 0.243351
0.528557 0.428046 0.267002
0.591363 0.458869 0.295293
0.655970 0.489967 0.325505
0.718532 0.519310 0.356268
0.776974 0.545830 0.386297
0.829007 0.569268 0.415686
0.873747 0.590112 0.444862
0.912840 0.610254 0.474891
0.946349 0.630426 0.506126
0.974090 0.651087 0.538628
0.996551 0.672511 0.572045
1.000000 0.694911 0.606409
1.000000 0.717739 0.640497
1.000000 0.740505 0.673487
1.000000 0.763027 0.705257
0.264714 0.435889 0.196262
0.265476 0.435920 0.196384
0.268559 0.435767 0.197208
0.274327 0.435462 0.198581
0.283268 0.435004 0.200717
0.294987 0.434211 0.203677
0.308812 0.433051 0.207431
0.324254 0.431342 0.211460
0.340246 0.429206 0.215976
0.355444 0.426581 0.220157
0.369543 0.423651 0.223850
0.382605 0.420874 0.226963
0.395514 0.418585 0.229831
0.409491 0.417578 0.232639
0.426368 0.418647 0.236484
0.448188 0.422644 0.242863
0.477119 0.429999 0.252811
0.516381 0.443610 0.268162
0.570794 0.469215 0.292302
0.633387 0.500389 0.322026
0.698177 0.532738 0.354467
0.761410 0.563989 0.387976
0.819425 0.592676 0.422034
0.868986 0.617731 0.456153
0.910002 0.639857 0.489662
0.943481 0.660243 0.522789
0.970764 0.680476 0.556695
0.992493 0.701106 0.591241
1.000000 0.722255 0.625879
1.000000 0.743282 0.659388
1.000000 0.764096 0.691554
1.000000 0.784543 0.722164
0.293095 0.482612 0.217472
0.293797 0.482551 0.217594
0.296605 0.482429 0.218296
0.302281 0.482185 0.219577
0.310674 0.481697 0.221714
0.321965 0.480964 0.224521
0.335607 0.479927 0.228122
0.350896 0.478462 0.232151
0.367285 0.476478 0.236667
0.383612 0.474037 0.241306
0.398871 0.471260 0.245609
0.413214 0.468238 0.249241
0.426642 0.465461 0.252476
0.440040 0.463325 0.255375
0.454597 0.462440 0.258488
0.472023 0.463539 0.262791
0.494118 0.467414 0.269352
0.522728 0.474403 0.279454
0.560021 0.486091 0.294255
0.612512 0.510246 0.318517
0.674067 0.541344 0.349187
0.739162 0.575036 0.383948
0.801938 0.607874 0.420905
0.856809 0.637354 0.459419
0.902342 0.663386 0.498085
0.938476 0.686519 0.536126
0.966247 0.707393 0.572808
0.987579 0.727474 0.608759
1.000000 0.747402 0.643702
1.000000 0.766934 0.676936
1.000000 0.786038 0.708431
1.000000 0.804654 0.738064
0.322789 0.529625 0.240299
0.323613 0.529503 0.240421
0.326238 0.529442 0.241123
0.331426 0.529229 0.242344
0.339483 0.528740 0.244297
0.350286 0.528130 0.247044
0.363378 0.527153 0.250492
0.378515 0.525872 0.254520
0.394934 0.524132 0.259007
0.411719 0.521904 0.263828
0.428107 0.519158 0.268376
0.443397 0.516228 0.272557
0.457710 0.513207 0.276280
0.471382 0.510399 0.279454
0.485145 0.508354 0.282414
0.500237 0.507561 0.285863
0.518029 0.508690 0.290349
0.540246 0.512413 0.297246
0.568353 0.518975 0.307469
0.603693 0.529046 0.321630
0.654047 0.551598 0.345647
0.714992 0.582879 0.377722
0.779294 0.617334 0.414862
0.838499 0.650050 0.455604
0.888884 0.679561 0.498238
0.929015 0.705806 0.541192
0.959411 0.729335 0.583276
0.981811 0.750759 0.623194
0.998535 0.770047 0.659205
1.000000 0.788418 0.692653
1.000000 0.806088 0.723751
1.000000 0.823087 0.752560
0.353826 0.576257 0.264927
0.354528 0.576257 0.264988
0.356939 0.576135 0.265537
0.361822 0.575921 0.266789
0.369390 0.575525 0.268772
0.379583 0.574975 0.271336
0.392248 0.574060 0.274540
0.406806 0.572900 0.278386
0.422827 0.571374 0.282780
0.439857 0.569329 0.287510
0.456886 0.566827 0.292332
0.473060 0.564019 0.296910
0.488167 0.560937 0.300938
0.502434 0.557916 0.304540
0.516320 0.555200 0.307836
0.530388 0.553338 0.310948
0.545830 0.552575 0.314519
0.563836 0.553704 0.319280
0.586145 0.557275 0.326390
0.614008 0.563745 0.336828
0.648463 0.573297 0.351049
0.696895 0.594385 0.374914
0.756252 0.625208 0.407965
0.816587 0.658473 0.447944
0.870817 0.690120 0.492073
0.915435 0.718898 0.538445
0.949401 0.744686 0.585016
0.974243 0.768063 0.629908
0.992248 0.788846 0.670253
1.000000 0.807309 0.705715
1.000000 0.824063 0.737148
1.000000 0.839689 0.765438
0.386023 0.622553 0.291264
0.386572 0.622522 0.291325
0.388830 0.622370 0.291814
0.393378 0.622217 0.293065
0.400458 0.621881 0.294774
0.410071 0.621302 0.297215
0.422004 0.620539 0.300298
0.435920 0.619501 0.304021
0.451484 0.618097 0.308171
0.468299 0.616266 0.312840
0.485573 0.614008 0.317693
0.502312 0.611414 0.322454
0.518303 0.608453 0.326879
0.533288 0.605432 0.330816
0.547509 0.602502 0.334417
0.561486 0.599969 0.337621
0.575952 0.598291 0.340887
0.591821 0.597894 0.344762
0.610407 0.599359 0.349981
0.633021 0.603235 0.357549
0.660975 0.610010 0.368383
0.694942 0.619440 0.382879
0.740688 0.638422 0.406256
0.795804 0.666957 0.440864
0.850584 0.697932 0.483162
0.898650 0.727840 0.530358
0.936645 0.755154 0.579767
0.964660 0.780087 0.628931
0.984833 0.802304 0.673732
0.999207 0.821927 0.713130
1.000000 0.839231 0.747280
1.000000 0.854398 0.776364
0.419928 0.669520 0.319493
0.420508 0.669490 0.319615
0.422614 0.669368 0.320043
0.426795 0.669184 0.321202
0.433448 0.668879 0.322850
0.442359 0.668360 0.325139
0.453590 0.667689 0.328008
0.466957 0.666743 0.331548
0.481941 0.665461 0.335607
0.498268 0.663874 0.340063
0.515435 0.661891 0.344884
0.532586 0.659480 0.349828
0.549065 0.656764 0.354406
0.564813 0.653834 0.358770
0.579675 0.650904 0.362737
0.593896 0.648157 0.366217
0.608087 0.645869 0.369512
0.622889 0.644495 0.372930
0.639185 0.644465 0.377203
0.658198 0.646265 0.382849
0.681117 0.650477 0.390906
0.708919 0.657313 0.402319
0.741848 0.666407 0.417517
0.782864 0.682033 0.440681
0.832212 0.707210 0.476387
0.880613 0.735409 0.520775
0.921721 0.762875 0.570336
0.953185 0.788479 0.622004
0.976104 0.811704 0.670710
0.992401 0.832334 0.714137
1.000000 0.850431 0.751705
1.000000 0.866117 0.783413
0.455848 0.716518 0.350103
0.456184 0.716487 0.350225
0.458198 0.716365 0.350652
0.462104 0.716213 0.351690
0.468177 0.715938 0.353246
0.476570 0.715450 0.355383
0.487098 0.714839 0.358068
0.499641 0.714046 0.361425
0.513970 0.712917 0.365301
0.529686 0.711513 0.369574
0.546380 0.709773 0.374243
0.563714 0.707637 0.379217
0.580591 0.705165 0.384009
0.596765 0.702449 0.388556
0.612177 0.699641 0.392828
0.626947 0.696803 0.396704
0.641199 0.694301 0.400214
0.655512 0.692287 0.403662
0.670527 0.691188 0.407507
0.687098 0.691402 0.412116
0.706111 0.693294 0.418402
0.728542 0.697292 0.427192
0.755062 0.703395 0.439338
0.785916 0.711574 0.455573
0.822141 0.724117 0.478676
0.865110 0.745602 0.515007
0.906310 0.770382 0.560784
0.940398 0.795224 0.612024
0.966186 0.818631 0.663172
0.984802 0.839811 0.710018
0.997803 0.858579 0.751095
1.000000 0.874815 0.785763
0.493355 0.760861 0.384344
0.493782 0.760861 0.384436
0.495552 0.760769 0.384924
0.499062 0.760616 0.385840
0.504723 0.760311 0.387213
0.512291 0.759915 0.389227
0.522057 0.759396 0.391821
0.533745 0.758633 0.394873
0.547082 0.757687 0.398566
0.562005 0.756466 0.402625
0.577996 0.754940 0.407202
0.594751 0.753048 0.411902
0.611627 0.750912 0.416754
0.627985 0.748501 0.421485
0.643763 0.745876 0.425910
0.658778 0.743191 0.430030
0.673152 0.740627 0.433875
0.687312 0.738338 0.437507
0.701534 0.736599 0.441169
0.716457 0.735714 0.445350
0.732876 0.736049 0.450568
0.751431 0.737850 0.457527
0.772885 0.741390 0.467048
0.797726 0.746822 0.480049
0.825986 0.753964 0.497261
0.857420 0.763760 0.520195
0.893523 0.781369 0.556634
0.927642 0.802823 0.603296
0.955505 0.824887 0.653956
0.976471 0.845792 0.702724
0.991394 0.864714 0.746670
1.000000 0.881376 0.784421
0.532616 0.801602 0.422553
0.532952 0.801602 0.422644
0.534569 0.801541 0.423011
0.537743 0.801389 0.423926
0.542748 0.801144 0.425238
0.549676 0.800809 0.427100
0.558495 0.800290 0.429419
0.569177 0.799619 0.432288
0.581476 0.798825 0.435737
0.595270 0.797726 0.439551
0.610193 0.796414 0.443793
0.626001 0.794827 0.448341
0.642329 0.792905 0.453010
0.658412 0.790768 0.457710
0.674037 0.788418 0.462287
0.689082 0.786007 0.466651
0.703456 0.783536 0.470619
0.717372 0.781216 0.474464
0.731044 0.779202 0.478187
0.744961 0.777676 0.482185
0.759548 0.776974 0.486763
0.775418 0.777310 0.492561
0.793118 0.778958 0.500237
0.813169 0.782040 0.510552
0.835904 0.786679 0.524437
0.861051 0.792691 0.542596
0.887877 0.800320 0.565637
0.917510 0.814481 0.601709
0.945098 0.832670 0.647150
0.967712 0.851865 0.695003
0.984558 0.870146 0.740352
0.996490 0.886717 0.780453
0.573358 0.838071 0.464668
0.573693 0.838041 0.464698
0.575067 0.838010 0.465156
0.577874 0.837827 0.465888
0.582300 0.837644 0.467079
0.588434 0.837308 0.468788
0.596277 0.836881 0.470954
0.605798 0.836301 0.473640
0.616938 0.835538 0.476814
0.629389 0.834623 0.480354
0.643000 0.833524 0.484291
0.657649 0.832120 0.488533
0.672877 0.830472 0.493080
0.688289 0.828611 0.497688
0.703395 0.826566 0.502190
0.717983 0.824338 0.506554
0.732052 0.822080 0.510643
0.745571 0.819852 0.514641
0.758724 0.817746 0.518456
0.771756 0.815976 0.522393
0.785031 0.814725 0.526635
0.798917 0.814145 0.531701
0.813870 0.814420 0.538140
0.830320 0.815824 0.546532
0.848569 0.818418 0.557702
0.868742 0.822263 0.572442
0.890654 0.827298 0.591455
0.913237 0.833494 0.614771
0.937224 0.844724 0.648768
0.959564 0.859953 0.690883
0.977539 0.876249 0.734737
0.990936 0.891936 0.775723
0.615290 0.869535 0.510552
0.615503 0.869535 0.510613
0.616754 0.869474 0.511009
0.619165 0.869352 0.511681
0.623011 0.869139 0.512779
0.628321 0.868864 0.514336
0.635126 0.868467 0.516289
0.643549 0.867948 0.518669
0.653285 0.867308 0.521569
0.664332 0.866514 0.524895
0.676539 0.865507 0.528527
0.689631 0.864347 0.532555
0.703456 0.862943 0.536736
0.717678 0.861326 0.541100
0.731899 0.859525 0.545525
0.745693 0.857603 0.549889
0.759091 0.855589 0.554070
0.771969 0.853544 0.558099
0.784451 0.851560 0.562005
0.796628 0.849760 0.565911
0.808743 0.848203 0.570031
0.821073 0.847135 0.574640
0.833951 0.846677 0.580255
0.847684 0.846952 0.587243
0.862577 0.848142 0.596368
0.878843 0.850340 0.608331
0.896391 0.853605 0.623590
0.915099 0.858000 0.642725
0.934081 0.863279 0.665187
0.953429 0.872038 0.695613
0.971221 0.884550 0.733639
0.985473 0.898131 0.772610
0.658076 0.896361 0.559808
0.658350 0.896330 0.559930
0.659327 0.896269 0.560174
0.661433 0.896178 0.560815
0.664668 0.895995 0.561791
0.669215 0.895720 0.563165
0.675044 0.895384 0.565026
0.682216 0.894926 0.567224
0.690639 0.894347 0.569818
0.700221 0.893645 0.572839
0.710811 0.892790 0.576196
0.722286 0.891783 0.579828
0.734463 0.890623 0.583734
0.747250 0.889220 0.587854
0.760098 0.887694 0.592096
0.772824 0.886015 0.596216
0.785183 0.884245 0.600336
0.797147 0.882414 0.604303
0.808713 0.880613 0.608179
0.819913 0.878904 0.612055
0.830930 0.877348 0.616083
0.841917 0.876097 0.620386
0.853117 0.875212 0.625269
0.864744 0.874876 0.631281
0.877073 0.875212 0.638697
0.890257 0.876280 0.648066
0.904448 0.878233 0.660029
0.919554 0.881102 0.675013
0.935363 0.884947 0.693355
0.951141 0.889586 0.714656
0.966583 0.896513 0.741451
0.980560 0.906554 0.774502
0.700954 0.918914 0.610986
0.701198 0.918883 0.611078
0.702022 0.918853 0.611353
0.703700 0.918730 0.611872
0.706447 0.918578 0.612726
0.710201 0.918364 0.613916
0.715114 0.918029 0.615503
0.721096 0.917632 0.617426
0.728145 0.917144 0.619715
0.736233 0.916533 0.622339
0.745266 0.915831 0.625269
0.755032 0.914977 0.628473
0.765499 0.913970 0.631891
0.776486 0.912840 0.635584
0.787869 0.911528 0.639399
0.799222 0.910094 0.643244
0.810361 0.908598 0.647120
0.821164 0.907012 0.650874
0.831662 0.905425 0.654597
0.841825 0.903868 0.658320
0.851713 0.902434 0.662165
0.861509 0.901152 0.666133
0.871275 0.900114 0.670527
0.881254 0.899474 0.675654
0.891569 0.899290 0.681788
0.902373 0.899626 0.689296
0.913848 0.900664 0.698726
0.925994 0.902434 0.710445
0.938750 0.904997 0.724819
0.951843 0.908385 0.742092
0.964752 0.912505 0.761776
0.977111 0.918029 0.784787
0.742214 0.937804 0.661372
0.742397 0.937804 0.661402
0.743069 0.937774 0.661646
0.744442 0.937682 0.662104
0.746670 0.937530 0.662806
0.749722 0.937346 0.663813
0.753750 0.937072 0.665156
0.758663 0.936736 0.666743
0.764523 0.936309 0.668696
0.771206 0.935790 0.670924
0.778683 0.935180 0.673487
0.786923 0.934478 0.676265
0.795773 0.933623 0.679286
0.805081 0.932677 0.682490
