Luts/panasonic/糖果色.cube
TITLE "Generated by Resolve"
LUT_3D_SIZE 5
0.054902 0.0470588 0.0431373
0.548043 0.030396 0.117647
0.774502 0.184314 0.14313
0.896086 0.240192 0.168627
0.992157 0.380392 0.372549
0.159808 0.506859 0.255879
0.57966 0.475486 0.199512
0.784314 0.440681 0.172061
0.899992 0.396811 0.185046
0.989212 0.464714 0.376471
0.337255 0.666667 0.427451
0.487251 0.710292 0.350973
0.721569 0.627451 0.356863
0.858824 0.624506 0.277455
0.976471 0.641184 0.427451
0.435294 0.778439 0.554894
0.481132 0.790188 0.528435
0.644114 0.792645 0.471077
0.844358 0.756619 0.480385
0.992157 0.782345 0.476478
0.407843 0.956863 0.698039
0.426474 0.960784 0.68333
0.533333 0.964706 0.629419
0.784314 0.967651 0.584314
1 0.945098 0.588235
0.2 0.359808 0.52549
0.53579 0.302205 0.481865
0.66569 0.264698 0.368627
0.824262 0.328435 0.427451
0.98529 0.375494 0.413733
0.34902 0.413977 0.443626
0.46421 0.444419 0.428061
0.68983 0.435294 0.426596
0.835477 0.439216 0.397848
0.989212 0.44828 0.372549
0.347555 0.642161 0.475486
0.451713 0.685542 0.410422
0.708339 0.619608 0.371817
0.854902 0.619608 0.262135
0.976471 0.633341 0.425483
0.427451 0.774502 0.558083
0.468818 0.785534 0.532174
0.636271 0.79118 0.469123
0.838788 0.753246 0.479408
0.992157 0.782345 0.476478
0.4 0.956863 0.709804
0.414954 0.960784 0.694118
0.510292 0.964706 0.638727
0.772793 0.968627 0.584314
1 0.945098 0.588235
0.409812 0.568627 0.707835
0.409812 0.565194 0.702449
0.690196 0.500008 0.649012
0.723033 0.406867 0.503426
0.901961 0.466667 0.560784
0.381369 0.590692 0.698039
0.433204 0.572549 0.688243
0.683818 0.499748 0.620096
0.726223 0.4598 0.519112
0.928435 0.471565 0.569604
0.53431 0.599023 0.621576
0.55613 0.601968 0.613977
0.60441 0.59559 0.578439
0.771572 0.602945 0.589944
0.980392 0.592157 0.568627
0.499504 0.751965 0.660288
0.494118 0.757351 0.638117
0.565194 0.786023 0.554406
0.822675 0.748775 0.522179
0.997055 0.774502 0.474022
0.392157 0.960784 0.74313
0.396078 0.960784 0.73138
0.442161 0.964706 0.678431
0.728435 0.972549 0.588235
1 0.945098 0.588235
0.443137 0.672541 0.864698
0.443137 0.672541 0.861769
0.470588 0.662745 0.85539
0.812985 0.60882 0.798291
0.833341 0.544121 0.666667
0.440192 0.671565 0.860792
0.440192 0.668635 0.857847
0.525612 0.652934 0.844968
0.820829 0.598032 0.775738
0.837247 0.539223 0.654902
0.397055 0.748043 0.8598
0.422065 0.748043 0.861769
0.533333 0.711757 0.852934
0.810788 0.628305 0.759441
0.867643 0.560296 0.637247
0.611765 0.747799 0.796811
0.626902 0.751904 0.796078
0.673533 0.76054 0.79057
0.712444 0.72047 0.708339
1 0.729168 0.71986
0.593133 0.944121 0.866667
0.574517 0.948043 0.855879
0.493141 0.962249 0.801465
0.546075 0.977203 0.641169
1 0.945098 0.588235
0.482353 0.741176 0.94902
0.482353 0.741176 0.94902
0.478431 0.741176 0.94902
0.506859 0.737255 0.94902
0.909804 0.717647 0.952941
0.482353 0.741176 0.94902
0.482353 0.741176 0.94902
0.482353 0.741176 0.94902
0.518624 0.737255 0.94902
0.928435 0.717647 0.952941
0.482353 0.741176 0.94902
0.482353 0.741176 0.94902
0.482353 0.741176 0.94902
0.539208 0.737255 0.94902
0.970581 0.717647 0.952941
0.491173 0.849027 0.952941
0.487251 0.84509 0.952941
0.479408 0.830396 0.952941
0.537011 0.776226 0.952941
1 0.727443 0.937255
0.584314 0.843137 0.921569
0.603922 0.847059 0.921569
0.678431 0.870588 0.929412
0.834318 0.922545 0.946075
0.964706 0.968627 0.968627
