Luts/panasonic/糖果色.cube
TITLE "Generated by Resolve"
LUT_3D_SIZE 33
0.054902 0.0470588 0.0431373
0.159197 0.0316167 0.0585794
0.22916 0.012253 0.0703441
0.294728 0.000732433 0.0855421
0.356863 0 0.0975509
0.411399 0 0.109194
0.462257 0.0110323 0.113725
0.505516 0.0226749 0.117647
0.548043 0.030396 0.117647
0.59057 0.0352941 0.108095
0.625238 0.0656901 0.112505
0.657359 0.0965744 0.117647
0.685786 0.12108 0.124025
0.711269 0.140322 0.127825
0.736034 0.157351 0.135546
0.755276 0.172793 0.139345
0.774502 0.184314 0.14313
0.791913 0.195834 0.146929
0.811276 0.205631 0.150729
0.825116 0.213352 0.152941
0.838239 0.221073 0.156863
0.853681 0.227451 0.160784
0.867887 0.232593 0.162005
0.880644 0.236393 0.164706
0.896086 0.240192 0.168627
0.911513 0.243992 0.169482
0.923033 0.247059 0.172549
0.939086 0.247059 0.176471
0.956863 0.253925 0.179904
0.961151 0.29633 0.253925
0.968872 0.334066 0.307103
0.980514 0.357229 0.345586
0.992157 0.380392 0.372549
0.0590677 0.201968 0.0817426
0.209186 0.156985 0.0699779
0.27187 0.154131 0.0743877
0.3337 0.155032 0.0894789
0.388235 0.147433 0.101472
0.442283 0.139834 0.102083
0.489296 0.132113 0.102235
0.53257 0.124849 0.102205
0.571328 0.123064 0.104845
0.606043 0.1337 0.112505
0.637964 0.145418 0.11751
0.66508 0.158526 0.124025
0.692073 0.170291 0.127871
0.71667 0.182055 0.133288
0.737682 0.192096 0.13933
0.759136 0.201587 0.143191
0.776471 0.20943 0.14699
0.795773 0.217151 0.14902
0.811276 0.224964 0.152941
0.826719 0.231052 0.156786
0.840604 0.236515 0.158282
0.853681 0.240391 0.160784
0.867887 0.246784 0.164706
0.880644 0.250767 0.165805
0.896086 0.251804 0.168627
0.911513 0.25478 0.172457
0.926955 0.255467 0.173251
0.942397 0.258701 0.176471
0.957336 0.261158 0.181781
0.961151 0.300237 0.246555
0.968872 0.338094 0.303548
0.980514 0.364828 0.341665
0.992157 0.384192 0.372549
0.0776989 0.261036 0.127947
0.198322 0.278706 0.0859083
0.290974 0.222263 0.0894636
0.353399 0.221561 0.086244
0.411063 0.232868 0.0938735
0.46186 0.229114 0.0980392
0.505837 0.214664 0.104906
0.548135 0.200107 0.10869
0.584009 0.193866 0.11342
0.614939 0.197833 0.120211
0.643137 0.200977 0.124025
0.670375 0.206195 0.129152
0.697307 0.212741 0.133242
0.720455 0.218204 0.137148
0.739956 0.224506 0.14107
0.760906 0.228489 0.144976
0.78027 0.236271 0.148898
0.795834 0.240269 0.152804
0.811276 0.246326 0.15465
0.826719 0.250309 0.158343
0.842069 0.254261 0.160784
0.853681 0.255726 0.162127
0.869123 0.259556 0.164706
0.880644 0.262226 0.168627
0.896086 0.263416 0.169543
0.911513 0.266148 0.172549
0.926955 0.266423 0.176272
0.942397 0.266407 0.177035
0.957351 0.268376 0.180453
0.961151 0.307454 0.2392
0.968872 0.342138 0.303197
0.980514 0.368734 0.341665
0.992157 0.387991 0.372549
0.0859083 0.311513 0.166796
0.19379 0.371649 0.12047
0.283742 0.322118 0.109606
0.361425 0.284001 0.115877
0.41973 0.283406 0.098558
0.470466 0.294606 0.104906
0.513893 0.291096 0.112612
0.55613 0.276844 0.116426
0.591791 0.261585 0.121202
0.622675 0.257252 0.125383
0.649744 0.256138 0.131731
0.676722 0.256489 0.135546
0.701106 0.256611 0.139345
0.722148 0.259098 0.143297
0.743664 0.260838 0.147097
0.762921 0.263157 0.148852
0.780392 0.265202 0.152758
0.79939 0.269123 0.156497
0.814817 0.269444 0.158404
0.826719 0.273198 0.160784
0.842161 0.273548 0.162112
0.856001 0.277333 0.164706
0.869123 0.277409 0.168368
0.883192 0.277699 0.169619
0.896086 0.281346 0.172549
0.911513 0.281621 0.173327
0.926955 0.28159 0.176471
0.942397 0.281621 0.180087
0.957351 0.27953 0.18088
0.96437 0.31519 0.23183
0.968872 0.349615 0.299504
0.980514 0.376471 0.341665
0.992157 0.395712 0.372549
0.104906 0.361761 0.187259
0.144213 0.398245 0.151614
0.272084 0.422858 0.121538
0.353674 0.366079 0.128359
0.423163 0.334737 0.135424
0.474754 0.331212 0.114351
0.520684 0.341268 0.116426
0.557244 0.34139 0.124147
0.595102 0.330877 0.128069
0.626963 0.316289 0.132845
0.654994 0.310292 0.136767
0.680568 0.306538 0.140688
0.704906 0.302937 0.14461
0.726024 0.302937 0.147143
0.747524 0.299504 0.150942
0.76495 0.299504 0.152941
0.78407 0.299748 0.156619
0.799756 0.300008 0.158465
0.815198 0.300008 0.160784
0.830442 0.300008 0.164416
0.842161 0.300008 0.165988
0.857435 0.300496 0.168307
0.869123 0.300496 0.169696
0.884428 0.300496 0.172549
0.896086 0.300496 0.173404
0.911513 0.297063 0.176471
0.926955 0.297063 0.179995
0.942397 0.297063 0.180392
0.957778 0.297124 0.183886
0.964706 0.326345 0.217472
0.968872 0.361242 0.296056
0.980514 0.384192 0.337865
0.992157 0.403433 0.372549
0.124269 0.400854 0.206622
0.143511 0.424613 0.178943
0.258015 0.496635 0.136797
0.338659 0.454353 0.118868
0.411963 0.405112 0.140444
0.473716 0.381155 0.150668
0.521202 0.373831 0.12401
0.559945 0.377218 0.127947
0.592157 0.380789 0.132357
0.626032 0.37438 0.137087
0.65742 0.361532 0.143252
0.682231 0.354528 0.144884
0.705394 0.349264 0.148791
0.728557 0.343389 0.152331
0.749233 0.339757 0.154788
0.76704 0.338109 0.158618
0.784314 0.334493 0.160479
0.799756 0.332647 0.162325
0.815198 0.330816 0.164706
0.83064 0.32929 0.168017
0.844221 0.326955 0.168627
0.857603 0.325826 0.171939
0.869123 0.323613 0.172549
0.884565 0.323659 0.17586
0.898558 0.319738 0.176471
0.911513 0.319738 0.179919
0.926955 0.319066 0.180392
0.942397 0.315816 0.183795
0.957839 0.312993 0.184726
0.964706 0.340871 0.203067
0.968872 0.375952 0.2925
0.980514 0.399039 0.337865
0.992157 0.415076 0.372549
0.139712 0.443381 0.222065
0.15584 0.462577 0.198154
0.219577 0.510643 0.166964
0.326848 0.521324 0.129305
0.399847 0.481468 0.122362
0.459831 0.437278 0.158099
0.51397 0.416526 0.165362
0.559731 0.408591 0.136034
0.592157 0.409369 0.136278
0.623041 0.41268 0.140963
0.653925 0.411505 0.147295
0.682231 0.400763 0.15111
0.705394 0.393133 0.152667
0.728557 0.385763 0.156558
0.749508 0.380636 0.160052
0.768872 0.374563 0.162463
0.785901 0.371206 0.16434
0.803677 0.367315 0.166186
0.816983 0.363561 0.168627
0.83064 0.360113 0.169909
0.844602 0.356374 0.172091
0.857603 0.352773 0.173632
0.871809 0.3505 0.175967
0.884565 0.346761 0.177356
0.899809 0.345281 0.179843
0.911513 0.34284 0.181079
0.926955 0.338964 0.183719
0.942397 0.338308 0.184802
0.957839 0.335042 0.188235
0.964706 0.360082 0.198047
0.968872 0.391424 0.291905
0.977432 0.414435 0.337865
0.992157 0.429908 0.372549
0.152087 0.47892 0.237507
0.163729 0.494362 0.218235
0.189624 0.515862 0.193622
0.31751 0.570611 0.152132
0.385534 0.541054 0.125139
0.447074 0.502083 0.137102
0.499825 0.464775 0.17705
0.549508 0.447547 0.180575
0.591394 0.439704 0.151263
0.623041 0.440314 0.143999
0.650004 0.442618 0.148745
0.677821 0.441047 0.152941
0.70425 0.433631 0.156863
0.728557 0.42475 0.160433
0.749508 0.416953 0.163836
0.768872 0.411795 0.166323
0.786282 0.405951 0.1682
0.803677 0.400092 0.170062
0.817395 0.394797 0.172061
0.83064 0.391058 0.173785
0.846082 0.387259 0.175937
0.857603 0.381445 0.176471
0.871809 0.377493 0.179522
0.884565 0.373648 0.180392
0.899992 0.36997 0.183459
0.911513 0.368444 0.184314
0.926955 0.364569 0.187366
0.942397 0.361517 0.188235
0.957839 0.358587 0.191409
0.964706 0.383215 0.200809
0.968872 0.409888 0.291905
0.976715 0.429908 0.337865
0.992157 0.44535 0.372549
0.159808 0.506859 0.255879
0.168505 0.515526 0.240436
0.183825 0.530877 0.221317
0.302937 0.596963 0.182513
0.370962 0.587869 0.150973
0.432349 0.557351 0.129351
0.487007 0.522301 0.159319
0.534066 0.492226 0.196017
0.57966 0.475486 0.199512
0.616876 0.467491 0.170932
0.647974 0.467338 0.15172
0.674388 0.467643 0.15552
0.698161 0.467033 0.160418
0.724025 0.463355 0.164309
0.747799 0.452689 0.166354
0.76704 0.447913 0.168627
0.784314 0.440681 0.172061
0.800732 0.433463 0.173922
0.815198 0.427024 0.175921
0.83064 0.421942 0.176471
0.846082 0.415686 0.179416
0.857603 0.410758 0.180392
0.87274 0.406622 0.181308
0.884565 0.402823 0.184314
0.899992 0.396811 0.185046
0.91458 0.39292 0.187472
0.926955 0.389029 0.188785
0.942397 0.385138 0.191333
0.957473 0.382727 0.192523
0.962036 0.409033 0.204898
0.96611 0.432898 0.298528
0.976715 0.45211 0.341756
0.989212 0.464714 0.376471
0.163607 0.527199 0.279042
0.172396 0.53492 0.267399
0.18909 0.548928 0.250996
0.283848 0.600504 0.219593
0.362371 0.623667 0.185641
0.41735 0.600412 0.157275
0.471595 0.572915 0.151568
0.521691 0.541054 0.185901
0.56495 0.515618 0.216114
0.605325 0.502571 0.218631
0.640116 0.49163 0.19086
0.670222 0.490806 0.160723
0.694728 0.490806 0.162539
0.717891 0.490806 0.166369
0.74107 0.487434 0.168627
0.763638 0.479774 0.172549
0.78291 0.472053 0.175372
0.799756 0.464332 0.176471
0.815198 0.457053 0.179278
0.83064 0.452811 0.180392
0.844602 0.44509 0.181445
0.857603 0.441306 0.183597
0.871809 0.433875 0.184314
0.884565 0.430091 0.187442
0.899992 0.423865 0.188235
0.91458 0.419974 0.191058
0.926955 0.415518 0.192157
0.942397 0.410834 0.19498
0.957 0.412131 0.196429
0.958221 0.439567 0.227665
0.96495 0.455955 0.305196
0.973861 0.471443 0.348409
0.988235 0.484062 0.379294
0.162005 0.542641 0.302205
0.171115 0.550332 0.293248
0.216754 0.575662 0.278019
0.279164 0.608927 0.254963
0.359472 0.645167 0.223285
0.405402 0.632792 0.196048
0.456123 0.615183 0.173312
0.506554 0.588144 0.18146
0.550484 0.557351 0.215015
0.592294 0.537179 0.238941
0.628534 0.523033 0.238621
0.660746 0.514839 0.215503
0.689921 0.511269 0.179873
0.713375 0.511238 0.167041
0.733333 0.51397 0.17084
0.755093 0.511254 0.17464
0.776349 0.504295 0.176471
0.796414 0.495155 0.179736
0.812497 0.487495 0.181567
0.827451 0.480217 0.183581
0.842161 0.475975 0.184314
0.857603 0.468193 0.186999
0.869963 0.462608 0.188235
0.884565 0.457038 0.188983
0.899992 0.452949 0.192157
0.91458 0.446403 0.192737
0.926955 0.441657 0.195087
0.942397 0.43798 0.19649
0.950576 0.450248 0.2
0.954421 0.470283 0.254612
0.961105 0.483085 0.31397
0.972793 0.49456 0.352316
0.985534 0.506127 0.384314
0.18529 0.568383 0.326711
0.214908 0.582559 0.317647
0.24445 0.596689 0.306111
0.286763 0.617395 0.289464
0.347463 0.648844 0.261891
0.401251 0.657145 0.234318
0.441932 0.644434 0.211078
0.488807 0.624628 0.196521
0.534401 0.601099 0.212406
0.577569 0.573754 0.242649
0.616205 0.557778 0.261921
0.64828 0.544976 0.259159
0.678325 0.534676 0.238621
0.703792 0.531685 0.206012
0.728786 0.532052 0.17702
0.748775 0.533211 0.175845
0.768017 0.531243 0.178439
0.787259 0.528038 0.181598
0.807279 0.519768 0.184314
0.826719 0.510658 0.185351
0.842161 0.502937 0.188235
0.854566 0.496574 0.18912
0.869123 0.489601 0.191226
0.884565 0.484077 0.192157
0.899992 0.477974 0.195071
0.911513 0.473533 0.196078
0.926955 0.469062 0.198642
0.938811 0.472923 0.200397
0.943008 0.488029 0.207126
0.949386 0.500862 0.280644
0.958618 0.50988 0.325353
0.970169 0.520272 0.35993
0.984314 0.52929 0.390814
0.231861 0.599512 0.348531
0.248768 0.607233 0.34081
0.269368 0.616327 0.333089
0.298878 0.629404 0.320119
0.34197 0.649821 0.299687
0.399481 0.674113 0.273533
0.433555 0.667185 0.24976
0.475074 0.652201 0.229664
0.518624 0.63566 0.22414
0.562127 0.613108 0.242283
0.600732 0.589487 0.266911
0.635416 0.57586 0.284092
0.666728 0.564218 0.280949
0.693736 0.55404 0.262623
0.717891 0.549996 0.234958
0.741741 0.549996 0.198764
0.761517 0.549996 0.180392
0.777691 0.549996 0.182223
0.797055 0.548531 0.185382
0.813977 0.545464 0.188235
0.833326 0.535729 0.190692
0.849622 0.528557 0.192157
0.866667 0.51838 0.194614
0.882109 0.51107 0.196078
0.896086 0.507469 0.196689
0.908537 0.50605 0.2
0.91986 0.509102 0.200458
0.927581 0.514824 0.203922
0.935286 0.523522 0.243381
0.943252 0.527962 0.299519
0.954803 0.537011 0.3393
0.968795 0.544732 0.37145
0.981857 0.552453 0.398535
0.265812 0.62034 0.36936
0.277409 0.626474 0.363973
0.292729 0.63183 0.356207
0.313359 0.641016 0.347097
0.346853 0.656245 0.331868
0.393744 0.6766 0.311513
0.432776 0.683787 0.287846
0.464469 0.674861 0.268254
0.503761 0.663264 0.250095
0.545586 0.645151 0.25127
0.585321 0.624689 0.270329
0.620768 0.604166 0.292958
0.652201 0.591775 0.30515
0.682139 0.580179 0.30016
0.707881 0.572656 0.284688
0.729412 0.566522 0.261784
0.751415 0.565438 0.232715
0.770733 0.568124 0.201068
0.789349 0.569329 0.186023
0.804776 0.568719 0.189181
0.820813 0.567178 0.192157
0.838056 0.563302 0.1935
0.855039 0.557763 0.196078
0.870466 0.55172 0.198856
0.883574 0.548898 0.2
0.896925 0.547662 0.202686
0.908965 0.548821 0.203922
0.91986 0.550484 0.227329
0.927871 0.552377 0.282551
0.939437 0.556374 0.31986
0.951125 0.562295 0.350698
0.96495 0.567895 0.379294
0.980392 0.573281 0.406256
0.292897 0.639704 0.390936
0.300572 0.643473 0.38703
0.313863 0.647303 0.379416
0.329137 0.652796 0.371649
0.353674 0.66424 0.36054
0.392737 0.679393 0.343603
0.435126 0.695171 0.322621
0.463233 0.691508 0.303243
0.493202 0.682536 0.285298
0.531273 0.670909 0.273854
0.569848 0.654948 0.278874
0.60592 0.635584 0.296193
0.64004 0.616754 0.316091
0.669276 0.607141 0.325063
0.69633 0.596567 0.321096
0.719509 0.5888 0.304829
0.740932 0.581979 0.285786
0.760189 0.58085 0.264714
0.778454 0.583566 0.237705
0.79707 0.584772 0.209476
0.813321 0.587015 0.19353
0.829404 0.586969 0.196078
0.843381 0.587015 0.197299
0.858839 0.585229 0.2
0.874266 0.581369 0.20264
0.888869 0.581308 0.206302
0.900496 0.579171 0.234134
0.912154 0.579126 0.274235
0.924056 0.579446 0.306615
0.935637 0.583246 0.335271
0.949371 0.587152 0.363867
0.962768 0.591012 0.390799
0.980392 0.594858 0.413977
0.31606 0.653071 0.410178
0.323781 0.655146 0.406317
0.333181 0.658915 0.402411
0.34461 0.664668 0.394858
0.365576 0.672175 0.387137
0.395712 0.683497 0.372183
0.433112 0.700145 0.3552
0.464088 0.703059 0.335546
0.48864 0.698741 0.318715
0.51899 0.690227 0.303548
0.554437 0.678599 0.296407
0.590448 0.663844 0.303426
0.625238 0.645274 0.320714
0.656123 0.630137 0.336156
0.684016 0.619684 0.344411
0.709072 0.612009 0.33959
0.732174 0.604288 0.325978
0.752453 0.59939 0.308705
0.769985 0.596292 0.290425
0.789334 0.59707 0.271305
0.804776 0.600244 0.254093
0.820218 0.602808 0.235035
0.837537 0.604715 0.22211
0.851102 0.608087 0.221347
0.866545 0.60763 0.231312
0.878065 0.606256 0.256123
0.893172 0.60621 0.279179
0.905028 0.606256 0.302495
0.918364 0.606256 0.327199
0.931823 0.606622 0.35053
0.945586 0.610376 0.375357
0.961028 0.614221 0.398535
0.976471 0.618021 0.421698
0.337255 0.666667 0.427451
0.343008 0.668559 0.425559
0.350729 0.672419 0.421698
0.363973 0.67628 0.416052
0.379416 0.68014 0.408331
0.40177 0.690929 0.398657
0.431983 0.700862 0.383825
0.465202 0.712871 0.366415
0.487251 0.710292 0.350973
0.511833 0.703059 0.335546
0.542153 0.695338 0.321447
0.576288 0.685054 0.3196
0.609812 0.671565 0.328435
0.640681 0.656123 0.343877
0.671565 0.642893 0.357107
0.69749 0.635172 0.361822
0.721569 0.627451 0.356863
0.742885 0.618692 0.345342
0.762249 0.613977 0.3299
0.781613 0.611765 0.316426
0.797055 0.612497 0.300984
0.812497 0.615686 0.288167
0.827939 0.619608 0.279164
0.843381 0.622126 0.275059
0.858824 0.624506 0.277455
0.873838 0.627451 0.287984
0.887373 0.629404 0.303792
0.900923 0.629404 0.3234
0.914702 0.629404 0.342641
0.929961 0.631556 0.365621
0.943755 0.633463 0.386892
0.961028 0.637263 0.406256
0.976471 0.641184 0.427451
0.35845 0.680262 0.446815
0.36434 0.682048 0.442893
0.369924 0.684031 0.439185
0.379583 0.68603 0.435218
0.393011 0.691539 0.429297
0.41001 0.69926 0.419974
0.433082 0.706966 0.406943
0.464866 0.717769 0.393378
0.488228 0.721843 0.377935
0.510414 0.71667 0.362493
0.535012 0.71075 0.350347
0.565316 0.703059 0.3402
0.596201 0.692119 0.340932
0.62916 0.679286 0.351598
0.657984 0.666804 0.363104
0.685908 0.654414 0.376471
0.710964 0.646693 0.380148
0.733089 0.638972 0.37525
0.754543 0.63212 0.362432
0.773892 0.62829 0.350011
0.790021 0.627207 0.337743
0.808698 0.62855 0.32549
0.824155 0.631754 0.315877
0.839582 0.63563 0.310628
0.854505 0.63949 0.309834
0.868376 0.643748 0.314549
0.883818 0.64712 0.324254
0.897429 0.650736 0.338552
0.91078 0.652567 0.355993
0.926223 0.652766 0.375296
0.941665 0.656443 0.39472
0.959258 0.65864 0.413977
0.976471 0.66041 0.433204
0.375982 0.693629 0.462257
0.379873 0.693599 0.458305
0.387503 0.695689 0.45626
0.393484 0.69752 0.452369
0.404868 0.701259 0.447059
0.41973 0.706966 0.439307
0.438727 0.714702 0.429831
0.463233 0.722408 0.418585
0.492027 0.731991 0.403189
0.510887 0.729519 0.390997
0.529656 0.723827 0.377401
0.556161 0.718471 0.365774
0.584558 0.710781 0.360937
0.615457 0.701717 0.362585
0.645365 0.690181 0.371588
0.674342 0.677531 0.382345
0.700496 0.668132 0.391913
0.725383 0.662089 0.39556
0.746807 0.654414 0.391669
0.766888 0.647547 0.380987
0.785534 0.643717 0.370092
0.802701 0.642618 0.358389
0.818143 0.645396 0.350729
0.835798 0.647639 0.342947
0.850675 0.653132 0.339773
0.864454 0.656977 0.3393
0.879896 0.662669 0.345342
0.895338 0.666758 0.353643
0.91078 0.670314 0.368902
0.926223 0.674144 0.3832
0.941665 0.675868 0.40235
0.957229 0.679606 0.421546
0.976471 0.683574 0.440925
0.391424 0.70515 0.477699
0.395346 0.707393 0.473823
0.399237 0.708949 0.473747
0.406744 0.709072 0.469856
0.416495 0.712795 0.46389
0.427817 0.71667 0.458701
0.443244 0.722408 0.45095
0.464088 0.730144 0.440925
0.489006 0.737865 0.427543
0.511513 0.7411 0.414832
0.530144 0.737224 0.403265
0.551781 0.733394 0.390997
0.576837 0.726223 0.382727
0.6038 0.718502 0.37966
0.633814 0.71075 0.381826
0.66273 0.70074 0.391913
0.689769 0.689097 0.400427
0.714809 0.68246 0.408942
0.739101 0.676646 0.411002
0.760052 0.669856 0.407111
0.780285 0.663005 0.39852
0.797726 0.661219 0.388785
0.814221 0.660365 0.37998
0.831983 0.662013 0.372305
0.847425 0.665934 0.366766
0.862867 0.670359 0.36556
0.879896 0.674479 0.365957
0.895338 0.681987 0.372427
0.91078 0.68603 0.380438
0.926223 0.693385 0.394491
0.941665 0.697276 0.409918
0.961028 0.69897 0.427695
0.976471 0.702815 0.444724
0.405386 0.719112 0.493141
0.409232 0.720592 0.489342
0.413077 0.720592 0.489219
0.416922 0.722805 0.485298
0.424506 0.724514 0.481559
0.435538 0.728206 0.47538
0.447517 0.732082 0.470344
0.464958 0.737865 0.4607
0.487251 0.745586 0.451347
0.513924 0.753307 0.437995
0.530877 0.751965 0.426474
0.548898 0.747082 0.417517
0.570596 0.741665 0.406439
0.596078 0.737865 0.400488
0.623041 0.730144 0.399023
0.651148 0.722423 0.401099
0.67892 0.712261 0.411276
0.705226 0.70454 0.418997
0.729168 0.696818 0.42565
0.752331 0.692134 0.426474
0.774578 0.685298 0.422553
0.793881 0.680537 0.414832
0.811063 0.677455 0.407111
0.829664 0.677455 0.39939
0.84509 0.678431 0.392645
0.860533 0.682231 0.388724
0.875975 0.688014 0.388724
0.892027 0.693751 0.39118
0.91078 0.701289 0.39559
0.926223 0.707485 0.405753
0.941909 0.712993 0.417639
0.961028 0.718212 0.433082
0.980392 0.722057 0.448524
0.417029 0.732113 0.508583
0.420829 0.732113 0.504784
0.422202 0.735927 0.504631
0.428428 0.736034 0.501106
0.432227 0.738277 0.497307
0.44213 0.739956 0.493507
0.453681 0.743603 0.486839
0.468879 0.747509 0.479408
0.487251 0.753307 0.471687
0.509071 0.761028 0.460777
0.533578 0.764263 0.449592
0.55024 0.760906 0.440681
0.568139 0.757107 0.430518
0.589944 0.753307 0.421317
0.615335 0.746303 0.418936
0.641566 0.741787 0.417166
0.668559 0.734066 0.42034
0.695567 0.727703 0.428061
0.721462 0.717891 0.434424
0.746197 0.712261 0.441108
0.768612 0.708461 0.441917
0.790036 0.701625 0.437995
0.809369 0.697704 0.430228
0.825742 0.69424 0.422934
0.84509 0.694881 0.418753
0.860533 0.696818 0.411887
0.875975 0.701198 0.410025
0.892027 0.705272 0.410544
0.91078 0.712993 0.412207
0.926345 0.720714 0.418753
0.945586 0.728405 0.426612
0.962448 0.734722 0.438193
0.981735 0.739956 0.452323
0.42475 0.747555 0.524025
0.428626 0.747524 0.520195
0.431205 0.747555 0.520104
0.435035 0.751339 0.516518
0.439948 0.751476 0.513817
0.447654 0.754742 0.509941
0.457588 0.755398 0.50515
0.468879 0.759289 0.498344
0.484321 0.76495 0.490929
0.505623 0.76907 0.483162
0.528435 0.776471 0.472404
0.55024 0.778897 0.463004
0.565682 0.773312 0.453223
0.586664 0.769436 0.444434
0.609308 0.76495 0.438972
0.632486 0.759854 0.435004
0.659556 0.75404 0.435782
0.686015 0.746883 0.438987
0.713039 0.739223 0.446082
0.736904 0.733761 0.450584
0.763973 0.72871 0.45658
0.786206 0.723857 0.456382
0.807218 0.720104 0.452583
0.825742 0.713436 0.44567
0.84509 0.713176 0.440986
0.860533 0.71223 0.435004
0.876204 0.716182 0.431128
0.895338 0.7205 0.429877
0.91078 0.724514 0.429908
0.927703 0.732204 0.433799
0.94583 0.739956 0.437995
0.964981 0.747646 0.448386
0.984314 0.755398 0.460044
0.432471 0.762997 0.539467
0.432471 0.762997 0.535668
0.436316 0.762966 0.535515
0.439948 0.766659 0.531991
0.444099 0.766918 0.531624
0.45037 0.766918 0.527703
0.458091 0.770809 0.521447
0.469734 0.773892 0.516793
0.484321 0.776867 0.509896
0.501778 0.780697 0.502449
0.521813 0.78526 0.493599
0.547799 0.791913 0.483085
0.565682 0.79086 0.474952
0.584604 0.786969 0.467643
0.603937 0.783047 0.459876
0.625269 0.777691 0.455604
0.651835 0.773342 0.453193
0.676844 0.768994 0.453193
0.703807 0.762325 0.456458
0.729168 0.757916 0.461524
0.756252 0.750851 0.466011
0.779797 0.747051 0.469841
0.803677 0.743221 0.468849
0.824933 0.737438 0.467765
0.84509 0.732723 0.46186
0.860792 0.731624 0.457359
0.879896 0.731594 0.452613
0.895506 0.735546 0.450202
0.912245 0.739956 0.449271
0.930251 0.746563 0.449271
0.949569 0.754269 0.453346
0.968902 0.762005 0.460044
0.988235 0.77084 0.467765
0.435294 0.778439 0.554894
0.439124 0.779416 0.55111
0.439216 0.782162 0.550988
0.442863 0.782345 0.548318
0.446693 0.782345 0.547051
0.454292 0.783185 0.54313
0.458091 0.786282 0.539223
0.469734 0.789334 0.532998
0.481132 0.790188 0.528435
0.497948 0.794125 0.520714
0.516915 0.798032 0.512993
0.540078 0.803891 0.505272
0.563241 0.808331 0.494606
0.581125 0.806287 0.486885
0.600061 0.802396 0.480827
0.620951 0.796933 0.474907
0.644114 0.792645 0.471077
0.667277 0.788815 0.468635
0.694362 0.784985 0.468635
0.721447 0.779416 0.472541
0.748531 0.774014 0.477577
0.773678 0.768292 0.481407
0.799084 0.765743 0.483635
0.822919 0.762615 0.484321
0.844358 0.756619 0.480385
0.864454 0.751965 0.475822
0.880888 0.751965 0.471992
0.89926 0.751965 0.468635
0.91606 0.755398 0.46569
0.934157 0.759197 0.46569
0.95349 0.766918 0.468635
0.972824 0.774639 0.472648
0.992157 0.782345 0.476478
0.435294 0.797787 0.570336
0.439216 0.797787 0.566537
0.439216 0.797757 0.566384
0.443137 0.798657 0.566415
0.446952 0.798657 0.562493
0.45098 0.801709 0.559197
0.458091 0.80238 0.555367
0.465812 0.804959 0.551598
0.477241 0.806287 0.544518
0.491051 0.809552 0.540078
0.509209 0.812482 0.532326
0.528435 0.816052 0.524636
0.553506 0.820996 0.514992
0.578683 0.825238 0.506127
0.596567 0.822141 0.500099
0.617151 0.817807 0.493751
0.63682 0.813916 0.488426
0.659556 0.810025 0.486152
0.686656 0.806088 0.484031
0.713222 0.802228 0.485313
0.74081 0.797177 0.487984
0.767895 0.793378 0.491341
0.794995 0.789532 0.495216
0.818998 0.786023 0.498894
0.842161 0.782193 0.498131
0.865324 0.778363 0.495155
0.88397 0.774487 0.491295
0.903319 0.771206 0.487511
0.919875 0.774258 0.484062
0.939132 0.775418 0.484062
0.95819 0.782315 0.484031
0.977569 0.789212 0.484184
0.996933 0.796933 0.487984
0.435294 0.817151 0.585779
0.438392 0.817121 0.581949
0.438483 0.817853 0.581857
0.442115 0.817853 0.581827
0.445838 0.817899 0.577935
0.449653 0.820539 0.574609
0.45417 0.821073 0.571435
0.461891 0.821775 0.56701
0.472801 0.824994 0.563241
0.483345 0.825696 0.556008
0.498772 0.828916 0.55172
0.517906 0.832807 0.543969
0.539956 0.835569 0.536278
0.566323 0.839353 0.525322
0.59379 0.842817 0.517647
0.611673 0.839292 0.511574
0.632593 0.835538 0.507347
0.655772 0.831693 0.503395
0.67892 0.827939 0.499504
0.703685 0.824094 0.499474
0.730632 0.82182 0.50071
0.759716 0.817853 0.503395
0.787488 0.813977 0.506844
0.814557 0.810529 0.510521
0.841611 0.806683 0.511269
0.865324 0.805371 0.511238
0.888487 0.798886 0.507347
0.908339 0.794934 0.504021
0.927199 0.794369 0.503029
0.946548 0.794629 0.499474
0.962249 0.798489 0.499504
0.981476 0.802274 0.499474
1 0.809308 0.503426
0.430762 0.837125 0.601221
0.430762 0.837125 0.601221
0.434485 0.837079 0.597299
0.434684 0.837125 0.597299
0.438605 0.840024 0.593866
0.442527 0.840955 0.593378
0.449653 0.841001 0.589426
