Luts/panasonic/糖果色.cube
TITLE "Generated by Resolve"
LUT_3D_SIZE 9
0.054902 0.0470588 0.0431373
0.356863 0 0.0975509
0.548043 0.030396 0.117647
0.685786 0.12108 0.124025
0.774502 0.184314 0.14313
0.838239 0.221073 0.156863
0.896086 0.240192 0.168627
0.956863 0.253925 0.179904
0.992157 0.380392 0.372549
0.104906 0.361761 0.187259
0.423163 0.334737 0.135424
0.595102 0.330877 0.128069
0.704906 0.302937 0.14461
0.78407 0.299748 0.156619
0.842161 0.300008 0.165988
0.896086 0.300496 0.173404
0.957778 0.297124 0.183886
0.992157 0.403433 0.372549
0.159808 0.506859 0.255879
0.370962 0.587869 0.150973
0.57966 0.475486 0.199512
0.698161 0.467033 0.160418
0.784314 0.440681 0.172061
0.846082 0.415686 0.179416
0.899992 0.396811 0.185046
0.957473 0.382727 0.192523
0.989212 0.464714 0.376471
0.231861 0.599512 0.348531
0.34197 0.649821 0.299687
0.518624 0.63566 0.22414
0.666728 0.564218 0.280949
0.761517 0.549996 0.180392
0.833326 0.535729 0.190692
0.896086 0.507469 0.196689
0.935286 0.523522 0.243381
0.981857 0.552453 0.398535
0.337255 0.666667 0.427451
0.379416 0.68014 0.408331
0.487251 0.710292 0.350973
0.609812 0.671565 0.328435
0.721569 0.627451 0.356863
0.797055 0.612497 0.300984
0.858824 0.624506 0.277455
0.914702 0.629404 0.342641
0.976471 0.641184 0.427451
0.405386 0.719112 0.493141
0.424506 0.724514 0.481559
0.487251 0.745586 0.451347
0.570596 0.741665 0.406439
0.67892 0.712261 0.411276
0.774578 0.685298 0.422553
0.84509 0.678431 0.392645
0.91078 0.701289 0.39559
0.980392 0.722057 0.448524
0.435294 0.778439 0.554894
0.446693 0.782345 0.547051
0.481132 0.790188 0.528435
0.563241 0.808331 0.494606
0.644114 0.792645 0.471077
0.748531 0.774014 0.477577
0.844358 0.756619 0.480385
0.91606 0.755398 0.46569
0.992157 0.782345 0.476478
0.423041 0.860288 0.616663
0.430884 0.860288 0.612741
0.453437 0.86421 0.598032
0.509804 0.872053 0.571572
0.62034 0.883574 0.5402
0.71342 0.870771 0.5299
0.830884 0.86067 0.533944
0.93872 0.848096 0.53431
1 0.844114 0.530388
0.407843 0.956863 0.698039
0.411765 0.956863 0.694118
0.426474 0.960784 0.68333
0.4598 0.960784 0.660288
0.533333 0.964706 0.629419
0.66862 0.968627 0.590692
0.784314 0.967651 0.584314
0.924025 0.960784 0.588724
1 0.945098 0.588235
0.101961 0.229419 0.356863
0.359136 0.19411 0.336034
0.454414 0.130144 0.22536
0.634318 0.133822 0.282536
0.736767 0.168383 0.269123
0.828733 0.17261 0.179538
0.892149 0.229908 0.166049
0.953429 0.249516 0.179416
0.992157 0.373037 0.372549
0.225055 0.274632 0.290257
0.330953 0.30721 0.29482
0.51754 0.294728 0.294301
0.657847 0.280278 0.26128
0.767712 0.262074 0.183124
0.840375 0.270283 0.162356
0.895964 0.296742 0.173404
0.954284 0.293202 0.183886
0.992157 0.399512 0.369543
0.166918 0.462257 0.33431
0.305486 0.545846 0.257618
0.557412 0.466667 0.240803
0.682033 0.465339 0.161913
0.780819 0.430701 0.170092
0.842161 0.413672 0.177569
0.896086 0.39617 0.184314
0.957473 0.378302 0.192523
0.989212 0.460777 0.375494
0.21648 0.590188 0.345892
0.330694 0.642847 0.297047
0.512139 0.632349 0.216281
0.660914 0.558145 0.274067
0.757595 0.54638 0.178439
0.829526 0.53254 0.189151
0.89546 0.505028 0.196689
0.935286 0.520104 0.2327
0.984314 0.548531 0.398535
0.331365 0.662745 0.427451
0.371786 0.678187 0.406378
0.48333 0.708339 0.347051
0.606043 0.668879 0.324605
0.717891 0.623529 0.35491
0.794125 0.611765 0.297063
0.858396 0.623529 0.273533
0.914702 0.629404 0.342397
0.976471 0.637263 0.425483
0.402945 0.71667 0.493141
0.420752 0.722728 0.481376
0.48333 0.741665 0.449516
0.568139 0.741665 0.40589
0.676966 0.712261 0.407355
0.772488 0.685298 0.421637
0.844129 0.677455 0.391669
0.907774 0.699687 0.39559
0.980392 0.722057 0.448524
0.432715 0.778439 0.554894
0.443244 0.782025 0.547051
0.477516 0.789548 0.528435
0.561151 0.807401 0.494606
0.640314 0.792645 0.469123
0.746075 0.774014 0.475853
0.842161 0.755886 0.479652
0.915679 0.754894 0.465568
0.992157 0.782345 0.476478
0.41912 0.860288 0.620584
0.426963 0.860288 0.613184
0.449516 0.86421 0.598413
0.504601 0.87187 0.575006
0.61471 0.883574 0.540444
0.711086 0.870771 0.5299
0.830884 0.86067 0.533944
0.93872 0.848096 0.53431
1 0.844114 0.530388
0.40441 0.956863 0.701961
0.40827 0.956863 0.698039
0.422553 0.960784 0.686275
0.455879 0.960784 0.66421
0.527459 0.964706 0.633341
0.662257 0.968627 0.593133
0.780514 0.968627 0.584314
0.924025 0.964218 0.588724
1 0.945098 0.588235
0.2 0.359808 0.52549
0.192523 0.355032 0.518135
0.53579 0.302205 0.481865
0.553185 0.193744 0.337133
0.66569 0.264698 0.368627
0.753918 0.297551 0.411276
0.824262 0.328435 0.427451
0.900496 0.35111 0.422553
0.98529 0.375494 0.413733
0.129168 0.367163 0.509438
0.243229 0.372534 0.497551
0.524514 0.322271 0.453529
0.560113 0.284184 0.358587
0.675425 0.320165 0.404044
0.757839 0.338231 0.424277
0.827359 0.358267 0.422919
0.904372 0.379355 0.413397
0.989212 0.397177 0.397543
0.34902 0.413977 0.443626
0.387747 0.425681 0.440681
0.46421 0.444419 0.428061
0.592981 0.439216 0.434562
0.68983 0.435294 0.426596
0.765499 0.436851 0.413046
0.835477 0.439216 0.397848
0.911894 0.441428 0.377478
0.989212 0.44828 0.372549
0.364828 0.556252 0.482841
0.360418 0.563867 0.462257
0.432349 0.608301 0.392157
0.628916 0.551995 0.374807
0.713115 0.548287 0.359808
0.776349 0.547051 0.362982
0.847761 0.534798 0.339437
0.926177 0.518517 0.285039
0.984314 0.537743 0.394614
0.347555 0.642161 0.475486
0.365133 0.650248 0.4598
0.451713 0.685542 0.410422
0.586267 0.666362 0.360418
0.708339 0.619608 0.371817
0.786084 0.606622 0.310597
0.854902 0.619608 0.262135
0.912749 0.621698 0.334798
0.976471 0.633341 0.425483
0.392157 0.711635 0.490684
0.41091 0.71667 0.479225
0.472557 0.737285 0.449149
0.560906 0.737743 0.402106
0.670832 0.708339 0.402518
0.76788 0.68069 0.417945
0.841184 0.673686 0.387747
0.906859 0.697414 0.391669
0.980392 0.718135 0.448524
0.427451 0.774502 0.558083
0.436149 0.778149 0.550988
0.468818 0.785534 0.532174
0.549813 0.803525 0.497459
0.636271 0.79118 0.469123
0.742153 0.770748 0.473655
0.838788 0.753246 0.479408
0.914824 0.751476 0.464698
0.992157 0.782345 0.476478
0.414832 0.856367 0.624872
0.419867 0.856474 0.619837
0.441306 0.860945 0.60502
0.491127 0.868681 0.579293
0.602762 0.881621 0.544366
0.703822 0.870771 0.528847
0.826963 0.86067 0.533944
0.936049 0.84509 0.53431
1 0.844114 0.530388
0.4 0.956863 0.709804
0.403922 0.959442 0.705882
0.414954 0.960784 0.694118
0.442649 0.960784 0.672053
0.510292 0.964706 0.638727
0.646937 0.970092 0.598169
0.772793 0.968627 0.584314
0.920104 0.964218 0.588724
1 0.945098 0.588235
0.340688 0.489708 0.623041
0.339223 0.485786 0.62089
0.396201 0.476844 0.608331
0.630518 0.416724 0.577447
0.642161 0.321813 0.4701
0.69308 0.336278 0.428977
0.766659 0.387381 0.471565
0.85539 0.400977 0.504723
0.959808 0.400977 0.518624
0.32665 0.478248 0.615198
0.32372 0.477745 0.615198
0.459495 0.453346 0.59855
0.631846 0.402029 0.556374
0.638575 0.329168 0.4598
0.695155 0.372061 0.445777
0.771557 0.408698 0.486839
0.862776 0.4159 0.510704
0.966171 0.409812 0.518624
0.3196 0.517159 0.600488
0.346334 0.520104 0.599023
0.414771 0.504784 0.585412
0.604929 0.450004 0.543694
0.624872 0.41648 0.467521
0.701106 0.449104 0.494682
0.782361 0.45539 0.515908
0.872999 0.451469 0.52108
0.974014 0.446571 0.513237
0.454414 0.51899 0.545525
0.468254 0.522774 0.542565
0.501213 0.529915 0.534905
0.549401 0.532082 0.515984
0.639002 0.53431 0.525002
0.715923 0.535866 0.525002
0.793332 0.535851 0.520165
0.879896 0.535668 0.510109
0.974945 0.533394 0.493629
0.498527 0.612009 0.580636
0.494606 0.615198 0.572457
0.485115 0.621317 0.548531
0.524544 0.648646 0.492866
0.670222 0.611765 0.478798
0.738933 0.612802 0.474968
0.804471 0.625498 0.486458
0.885298 0.625498 0.470893
0.977935 0.619608 0.442161
0.452949 0.687678 0.572061
0.452949 0.690684 0.564584
0.462058 0.697917 0.544121
0.526467 0.722972 0.496223
0.640681 0.708339 0.464714
0.752514 0.677455 0.465248
0.827329 0.672419 0.429923
0.90454 0.693446 0.398108
0.980392 0.710292 0.448524
0.421073 0.764828 0.573526
0.427939 0.768612 0.565393
0.450675 0.776165 0.546319
0.522896 0.793881 0.507042
0.6215 0.790692 0.467643
0.733394 0.770092 0.469734
0.834318 0.749599 0.475731
0.912139 0.747875 0.460792
0.993133 0.778439 0.475486
0.403433 0.852445 0.636576
0.407309 0.854078 0.631098
0.423346 0.857481 0.617548
0.466361 0.865034 0.591012
0.571237 0.877699 0.552361
0.689052 0.87097 0.528923
0.818891 0.8598 0.531243
0.934859 0.844602 0.53431
1 0.840681 0.526467
0.396078 0.960784 0.724025
0.396078 0.960784 0.720104
0.403311 0.960784 0.708705
0.423529 0.960784 0.687739
0.481865 0.964706 0.654169
0.613291 0.970092 0.60882
0.757229 0.968627 0.584314
0.912444 0.964706 0.592157
1 0.945098 0.588235
0.409812 0.568627 0.707835
0.409812 0.568627 0.705882
0.409812 0.565194 0.702449
0.516426 0.544121 0.684306
0.690196 0.500008 0.649012
0.700008 0.430396 0.563729
0.723033 0.406867 0.503426
0.793622 0.449516 0.520348
0.901961 0.466667 0.560784
0.408087 0.564706 0.700252
0.407843 0.564706 0.700008
0.413108 0.560174 0.696208
0.566018 0.528832 0.676661
0.694118 0.489464 0.634684
0.700008 0.422553 0.552361
0.72549 0.409064 0.500008
0.799481 0.451652 0.522301
0.909316 0.466667 0.562737
0.381369 0.590692 0.698039
0.388785 0.587442 0.696086
0.433204 0.572549 0.688243
0.564218 0.541176 0.66508
0.683818 0.499748 0.620096
0.6878 0.448035 0.546075
0.726223 0.4598 0.519112
0.812314 0.482902 0.546563
0.928435 0.471565 0.569604
0.431617 0.609064 0.672053
0.442344 0.609812 0.672053
0.468635 0.6103 0.668132
0.521538 0.591699 0.65272
0.65478 0.540932 0.606012
0.667643 0.512474 0.54728
0.73872 0.533761 0.563302
0.839704 0.525795 0.581765
0.961273 0.501717 0.584314
0.53431 0.599023 0.621576
0.540932 0.6 0.620584
0.55613 0.601968 0.613977
0.58027 0.602335 0.60209
0.60441 0.59559 0.578439
0.682109 0.6 0.586023
0.771572 0.602945 0.589944
0.869368 0.600855 0.584314
0.980392 0.592157 0.568627
0.571572 0.666423 0.654414
0.569604 0.668376 0.651225
0.563485 0.669123 0.641855
0.552697 0.676402 0.61474
0.581613 0.696574 0.560784
0.719646 0.670344 0.547829
0.796811 0.678614 0.543877
0.880644 0.697154 0.547158
0.980392 0.696574 0.524514
0.499504 0.751965 0.660288
0.497551 0.753918 0.653132
0.494118 0.757351 0.638117
0.497307 0.76495 0.609003
0.565194 0.786023 0.554406
0.6981 0.774014 0.526467
0.822675 0.748775 0.522179
0.908278 0.747494 0.487617
0.997055 0.774502 0.474022
0.395102 0.848524 0.655634
0.397299 0.848524 0.650248
0.402701 0.852018 0.635721
0.430243 0.857847 0.611429
0.517891 0.871077 0.569116
0.662013 0.874846 0.530541
0.803494 0.8598 0.530388
0.931151 0.843107 0.533883
1 0.840192 0.526467
0.392157 0.960784 0.74313
0.392157 0.960784 0.741176
0.396078 0.960784 0.73138
0.40441 0.964706 0.713237
0.442161 0.964706 0.678431
0.555154 0.971328 0.627939
0.728435 0.972549 0.588235
0.898772 0.968139 0.592157
1 0.945098 0.588235
0.432837 0.624994 0.787259
0.432837 0.624994 0.785107
0.432837 0.622553 0.784802
0.439887 0.619547 0.78088
0.593866 0.592645 0.75613
0.747127 0.559808 0.71667
0.751965 0.508705 0.636759
0.765377 0.477455 0.581857
0.837751 0.501961 0.577935
0.432837 0.622553 0.784802
0.432837 0.622553 0.783352
0.432837 0.621256 0.78088
0.460349 0.612421 0.774502
0.625147 0.583246 0.751476
0.750942 0.55378 0.706691
0.751644 0.503166 0.62977
0.766979 0.475578 0.577935
0.843809 0.503426 0.577935
0.429541 0.620462 0.776959
0.427695 0.620462 0.776959
0.429068 0.620462 0.775494
0.507439 0.605188 0.761028
0.674327 0.573526 0.737255
0.74818 0.543755 0.686351
0.747219 0.498405 0.616663
0.77348 0.477287 0.569299
0.858824 0.507347 0.577935
0.403433 0.671138 0.776959
0.412558 0.670588 0.776959
0.439216 0.664179 0.774044
0.496086 0.643137 0.762737
0.627451 0.608576 0.733333
0.734752 0.571633 0.681376
0.734432 0.532357 0.612741
0.780209 0.52285 0.580926
0.887312 0.527947 0.594614
0.473533 0.682841 0.74902
0.481041 0.683909 0.74902
0.498344 0.68658 0.74902
0.528923 0.68603 0.746105
0.58088 0.661768 0.730144
0.708339 0.606897 0.668193
0.720714 0.577996 0.607965
0.809964 0.587411 0.618631
0.94461 0.564218 0.633341
0.577935 0.66807 0.7019
0.583154 0.668055 0.699428
0.594324 0.670527 0.695521
0.6121 0.671077 0.688807
0.634348 0.669001 0.671962
0.653101 0.651652 0.635416
0.749798 0.660655 0.646693
0.866331 0.661768 0.650004
0.996078 0.650004 0.635782
0.624872 0.736889 0.73959
0.623041 0.73872 0.737133
0.621973 0.74081 0.736156
0.613077 0.745876 0.723903
0.59295 0.750484 0.688167
0.623407 0.769772 0.618936
0.794614 0.748043 0.602701
0.89514 0.756497 0.591791
1 0.773404 0.579782
0.524025 0.844602 0.758816
0.520104 0.84509 0.75491
0.510826 0.848524 0.742763
0.496574 0.85037 0.716747
0.489952 0.856764 0.671077
0.577752 0.875975 0.598413
0.763058 0.867658 0.56289
0.925704 0.840879 0.555062
1 0.836576 0.522545
0.388235 0.956863 0.768627
0.390692 0.956863 0.766171
0.392157 0.960784 0.758953
0.394614 0.964157 0.744121
0.40589 0.966659 0.717159
0.475975 0.972549 0.664271
0.682109 0.976471 0.596567
0.872053 0.968627 0.592157
1 0.945098 0.588235
0.443137 0.672541 0.864698
0.443137 0.672541 0.864698
0.443137 0.672541 0.861769
0.440192 0.671565 0.860792
0.470588 0.662745 0.85539
0.643626 0.636759 0.834928
0.812985 0.60882 0.798291
0.822553 0.570962 0.717159
0.833341 0.544121 0.666667
0.443137 0.672541 0.861769
0.443137 0.672541 0.861769
0.443137 0.671565 0.860792
0.440192 0.671565 0.860792
0.485908 0.658824 0.851957
0.66569 0.632837 0.831235
0.816907 0.60589 0.79118
0.822553 0.567163 0.709911
0.836271 0.54313 0.662745
0.440192 0.671565 0.860792
0.440192 0.669642 0.858579
0.440192 0.668635 0.857847
0.440192 0.668635 0.85687
0.525612 0.652934 0.844968
0.711147 0.624262 0.822797
0.820829 0.598032 0.775738
0.818631 0.559411 0.698405
0.837247 0.539223 0.654902
0.418509 0.691173 0.860792
0.418509 0.691173 0.860792
0.418051 0.691173 0.859953
0.449546 0.680568 0.856168
0.555642 0.658335 0.840192
0.739818 0.626474 0.816739
0.818631 0.598535 0.758831
0.815076 0.559945 0.685298
0.84596 0.535286 0.639216
0.397055 0.748043 0.8598
0.401465 0.748043 0.8598
0.422065 0.748043 0.861769
0.460914 0.742153 0.861769
0.533333 0.711757 0.852934
0.688792 0.670161 0.82298
0.810788 0.628305 0.759441
0.810544 0.58677 0.681437
0.867643 0.560296 0.637247
0.48101 0.763729 0.837751
0.486534 0.763729 0.837751
0.501564 0.767651 0.841672
0.526589 0.774884 0.845594
0.567895 0.778805 0.848402
0.640055 0.747204 0.83389
0.786496 0.672709 0.752575
0.80264 0.632486 0.675074
0.920958 0.630884 0.676478
0.611765 0.747799 0.796811
0.616541 0.748043 0.79617
0.626902 0.751904 0.796078
0.646387 0.756344 0.796078
0.673533 0.76054 0.79057
0.701473 0.757137 0.771267
0.712444 0.72047 0.708339
0.855634 0.736278 0.724178
1 0.729168 0.71986
0.68394 0.82536 0.836393
0.68394 0.828428 0.837263
0.684932 0.832349 0.837263
0.686275 0.840192 0.837263
0.676661 0.848524 0.82855
0.635904 0.855879 0.783688
0.661891 0.869368 0.68603
0.903319 0.848524 0.654459
1 0.843748 0.622919
0.593133 0.944121 0.866667
0.589212 0.944121 0.865812
0.574517 0.948043 0.855879
0.54461 0.955886 0.837751
0.493141 0.962249 0.801465
0.43444 0.969726 0.732967
0.546075 0.977203 0.641169
0.829908 0.975982 0.592157
1 0.945098 0.588235
0.459312 0.714214 0.922057
0.459312 0.714214 0.922057
0.459312 0.714214 0.922057
0.459312 0.714214 0.918624
0.458824 0.714214 0.918624
0.495583 0.705394 0.914702
0.674998 0.68542 0.906004
0.875059 0.659373 0.883818
0.919112 0.625483 0.815198
0.459312 0.714214 0.922057
0.459312 0.714214 0.922057
0.459312 0.714214 0.922057
0.459312 0.714214 0.918624
0.458824 0.714214 0.918624
0.503426 0.701823 0.914702
0.689021 0.682841 0.906004
0.882475 0.656687 0.883391
0.919539 0.624994 0.811276
0.459312 0.714214 0.922057
0.459312 0.714214 0.918624
0.459312 0.714214 0.918624
0.459312 0.714214 0.918624
0.458824 0.714214 0.918379
0.525841 0.699092 0.913237
0.719738 0.678828 0.903304
0.893477 0.655406 0.876081
0.919234 0.621073 0.800366
0.459312 0.714214 0.918624
0.459312 0.714214 0.918624
0.459312 0.714214 0.918624
0.458824 0.714214 0.918624
0.458824 0.714214 0.918135
0.560113 0.695094 0.91078
0.766247 0.671397 0.902083
0.906432 0.648035 0.864118
0.919112 0.61323 0.784802
0.434562 0.746075 0.922057
0.434806 0.744366 0.922057
0.436759 0.740871 0.922057
0.440681 0.735195 0.922057
0.459312 0.723278 0.919234
0.592157 0.700252 0.91078
0.809552 0.672114 0.898528
0.914763 0.641917 0.844846
0.919112 0.605386 0.767407
0.41796 0.813413 0.924697
0.417945 0.813428 0.924712
0.41796 0.81323 0.925978
0.418738 0.809384 0.925978
0.472557 0.803433 0.927764
0.570382 0.770382 0.92372
0.754772 0.728298 0.90985
0.911162 0.683528 0.852171
0.919112 0.629908 0.763241
0.469001 0.828428 0.909804
0.475273 0.831861 0.909804
0.490623 0.835874 0.912993
0.521202 0.844282 0.916548
0.568811 0.856123 0.922057
0.637751 0.865675 0.929503
0.734585 0.841215 0.926467
0.898482 0.751965 0.860304
0.9234 0.689586 0.756741
0.635294 0.820584 0.88333
0.639216 0.823636 0.883696
0.653925 0.828412 0.887251
0.677455 0.83653 0.89102
0.716182 0.850431 0.895094
0.768475 0.868086 0.899458
0.818265 0.879896 0.895644
0.801816 0.819608 0.814145
0.991241 0.841611 0.835966
0.752941 0.900984 0.909804
0.756863 0.900984 0.909804
0.763851 0.905394 0.913725
0.775677 0.915373 0.917647
0.7897 0.928679 0.922057
0.790066 0.945586 0.924697
0.729046 0.965194 0.887007
0.70753 0.976471 0.728862
1 0.945586 0.662257
0.482353 0.741176 0.94902
0.482353 0.741176 0.94902
0.482353 0.741176 0.94902
0.482353 0.741176 0.94902
0.478431 0.741176 0.94902
0.478431 0.741176 0.94902
0.506859 0.737255 0.94902
0.686275 0.732845 0.94902
0.909804 0.717647 0.952941
0.482353 0.741176 0.94902
0.482353 0.741176 0.94902
0.482353 0.741176 0.94902
0.482353 0.741176 0.94902
0.482109 0.741176 0.94902
0.478431 0.741176 0.94902
0.510781 0.737255 0.94902
0.693629 0.732845 0.949508
0.917159 0.717647 0.952941
0.482353 0.741176 0.94902
0.482353 0.741176 0.94902
0.482353 0.741176 0.94902
0.482353 0.741176 0.94902
0.482353 0.741176 0.94902
0.478431 0.741176 0.94902
0.518624 0.737255 0.94902
0.708461 0.729412 0.952941
0.928435 0.717647 0.952941
0.482353 0.741176 0.94902
0.482353 0.741176 0.94902
0.482353 0.741176 0.94902
0.482353 0.741176 0.94902
0.482353 0.741176 0.94902
0.482353 0.741176 0.94902
0.530388 0.737255 0.94902
0.72813 0.729412 0.952941
0.947555 0.717647 0.952941
0.482353 0.741176 0.94902
0.482353 0.741176 0.94902
0.482353 0.741176 0.94902
0.482353 0.741176 0.94902
0.482353 0.741176 0.94902
0.482353 0.741176 0.94902
0.539208 0.737255 0.94902
0.758831 0.729412 0.955154
0.970581 0.717647 0.952941
0.47451 0.757351 0.950484
0.476967 0.757351 0.950484
0.476967 0.749508 0.94902
0.480888 0.742641 0.94902
0.482353 0.741176 0.94902
0.482353 0.741176 0.94902
0.548043 0.737255 0.94902
0.79411 0.729412 0.957351
0.997543 0.713726 0.945098
0.491173 0.849027 0.952941
0.488243 0.849027 0.952941
0.487251 0.84509 0.952941
0.484321 0.841184 0.952941
0.479408 0.830396 0.952941
0.473411 0.8103 0.952941
0.537011 0.776226 0.952941
0.806012 0.751476 0.95993
1 0.727443 0.937255
0.518135 0.877943 0.945098
0.518135 0.877943 0.948531
0.521569 0.878431 0.948531
0.521569 0.878431 0.948531
0.522057 0.878431 0.94902
0.533639 0.880705 0.950301
0.643503 0.895216 0.956863
0.796567 0.8878 0.960357
0.999512 0.825986 0.941665
0.584314 0.843137 0.921569
0.591669 0.843137 0.921569
0.603922 0.847059 0.921569
0.633829 0.857359 0.92549
0.678431 0.870588 0.929412
0.745586 0.891661 0.937255
0.834318 0.922545 0.946075
0.922545 0.952941 0.960784
0.964706 0.968627 0.968627
