Luts/panasonic/胶片印象.cube
TITLE "Generated by Resolve"
LUT_3D_SIZE 5
0.00784314 0.00784314 0.0117647
0.182361 0.00784314 0
0.321569 0.0117647 0.00392157
0.593133 0.0411841 0
0.862745 0.0901961 0.00784314
0.0343175 0.146075 0.0539254
0.106371 0.139208 0.027451
0.318135 0.113237 0.00538643
0.59559 0.114458 0
0.875486 0.166659 0.00784314
0.0686351 0.32549 0.158816
0.137743 0.339223 0.165194
0.31078 0.338231 0.0970626
0.60441 0.34461 0.049012
0.903929 0.35491 0.027451
0.0823529 0.481376 0.261769
0.1402 0.513237 0.280385
0.360784 0.5897 0.315679
0.606378 0.588479 0.17966
0.916671 0.615686 0.177447
0.152941 0.815686 0.384314
0.263722 0.839216 0.433326
0.580392 0.896086 0.537255
0.757839 0.9402 0.48333
0.92549 0.960784 0.356863
0.057847 0.0235294 0.165682
0.171817 0.0196078 0.131365
0.347051 0.0156863 0.0818647
0.63505 0.0470588 0.0735332
0.873533 0.0843214 0.0803998
0.00563058 0.123522 0.132845
0.129168 0.135103 0.137194
0.340688 0.102327 0.0936294
0.634256 0.119799 0.0735332
0.88014 0.164462 0.0803998
0.0524453 0.296086 0.206867
0.118135 0.314702 0.217517
0.321813 0.341421 0.190448
0.61593 0.345342 0.120714
0.906859 0.354406 0.0985275
0.0605325 0.448768 0.287739
0.117464 0.479469 0.307469
0.356619 0.584192 0.378683
0.612375 0.591852 0.262867
0.920592 0.614221 0.248524
0.112749 0.804898 0.396078
0.209064 0.822065 0.444114
0.572549 0.894118 0.59559
0.771328 0.946075 0.574517
0.929412 0.964706 0.452949
0.107836 0.0470588 0.305882
0.176959 0.0392157 0.291173
0.331365 0.0539254 0.281376
0.652934 0.0588235 0.152453
0.905882 0.0901961 0.182361
0.0740215 0.134798 0.273533
0.146807 0.138964 0.284566
0.333333 0.142885 0.289464
0.654902 0.12929 0.152331
0.905882 0.160296 0.182849
0.049012 0.267643 0.296086
0.112261 0.28603 0.314458
0.344121 0.356863 0.367651
0.670588 0.386526 0.346807
0.929412 0.398047 0.350988
0.030396 0.432837 0.321569
0.0838178 0.459068 0.347066
0.342885 0.56936 0.451469
0.657969 0.63064 0.441917
0.940688 0.633829 0.415198
0.0686351 0.784314 0.45687
0.11078 0.799512 0.483818
0.484321 0.886275 0.641184
0.78677 0.952941 0.704906
0.94313 0.968627 0.603922
0.152941 0.0931411 0.484321
0.214221 0.0943618 0.484565
0.364706 0.119112 0.488243
0.593622 0.138231 0.475486
0.901961 0.0999924 0.360784
0.147066 0.159075 0.48481
0.211826 0.166796 0.496208
0.372183 0.192157 0.495094
0.596994 0.20943 0.471199
0.909072 0.177447 0.368872
0.116182 0.270588 0.506371
0.17818 0.291295 0.527199
0.387503 0.360784 0.555154
0.646693 0.406622 0.552087
0.935286 0.355886 0.434806
0.0507362 0.446082 0.542397
0.100923 0.466178 0.560784
0.260166 0.538354 0.612619
0.71606 0.68217 0.682475
0.974014 0.762005 0.749508
0.0666667 0.780392 0.620584
0.11078 0.800244 0.641672
0.159808 0.841184 0.704417
0.78407 0.96054 0.833082
0.968627 0.980392 0.803922
0.215686 0.14902 0.686275
0.302937 0.155886 0.689219
0.435294 0.180392 0.690196
0.650004 0.233341 0.687251
0.882353 0.25098 0.67451
0.222553 0.206867 0.693141
0.311025 0.217655 0.698039
0.435294 0.240192 0.691661
0.658091 0.310048 0.697307
0.891173 0.323522 0.682353
0.252934 0.368627 0.733333
0.346563 0.396078 0.749508
0.500984 0.436271 0.758831
0.727459 0.500496 0.766659
0.927459 0.507836 0.75491
0.238239 0.584314 0.85687
0.318868 0.601709 0.864454
0.570581 0.673533 0.873045
0.809308 0.747555 0.892653
0.960784 0.764706 0.894118
0.137255 0.87451 0.996078
0.188235 0.878431 0.996078
0.247059 0.896086 0.996078
0.673533 0.955886 0.992157
0.988235 0.984314 0.984314
