Luts/panasonic/胶片印象.cube
TITLE "Generated by Resolve"
LUT_3D_SIZE 33
0.00784314 0.00784314 0.0117647
0.0346838 0.00784314 0.00796521
0.050248 0.00784314 0.00416571
0.0734112 0.00784314 0
0.100008 0.00784314 0
0.119738 0.00784314 0
0.144366 0.00784314 0
0.166049 0.00784314 0
0.182361 0.00784314 0
0.192767 0.00784314 0
0.21471 0.010544 0
0.23003 0.0117647 0.00392157
0.246571 0.0117647 0.00637827
0.263478 0.0117647 0.00550851
0.277211 0.0139773 0.00392157
0.300374 0.0135958 0.00392157
0.321569 0.0117647 0.00392157
0.348287 0.0175174 0.00392157
0.383825 0.0156863 0
0.406378 0.0196078 0
0.441169 0.0249943 0
0.474754 0.0287938 0
0.52108 0.0313725 0
0.559564 0.0414282 0
0.593133 0.0411841 0
0.626963 0.0479133 0
0.661768 0.0588235 0
0.702327 0.0639658 0
0.743633 0.0710765 0
0.770459 0.0752422 0
0.808576 0.0825971 0.00392157
0.835782 0.0863966 0.00404364
0.862745 0.0901961 0.00784314
0.00784314 0.0231632 0.0116426
0.0196078 0.0156863 0.00796521
0.0458686 0.0191348 0.000610361
0.0650797 0.0191348 0
0.0889601 0.0160372 0
0.115831 0.0155642 0
0.138277 0.0155642 0
0.151369 0.0155642 0
0.174517 0.0185092 0
0.190066 0.0194858 0
0.208301 0.0220951 0
0.228672 0.0232853 0.00257877
0.241825 0.0232853 0.00399786
0.264317 0.0232853 0.00630198
0.274998 0.0232853 0.00392157
0.30042 0.0233463 0.00392157
0.32163 0.0233463 0.00392157
0.352621 0.0234684 0.00392157
0.381689 0.0234073 0
0.409613 0.0289158 0
0.441169 0.03505 0
0.476143 0.0365606 0
0.522225 0.0403143 0
0.559594 0.0491951 0
0.596963 0.0489967 0
0.627771 0.0595254 0
0.663294 0.0697337 0
0.708431 0.0749981 0
0.739223 0.0822309 0
0.770321 0.0861524 0
0.804898 0.0903182 0.00392157
0.835782 0.0977951 0.00772107
0.866667 0.101839 0.00784314
0.0117647 0.0348058 0.0117647
0.0194858 0.0276799 0.00796521
0.0276493 0.026978 0.00784314
0.0535744 0.0235294 0.000686656
0.0804608 0.0269932 0
0.106859 0.0232853 0
0.126757 0.0232853 0
0.150362 0.0232853 0
0.169604 0.0232853 0
0.185 0.0261692 0
0.200488 0.0273747 0
0.225986 0.0311284 0
0.241672 0.0311284 0.00392157
0.26183 0.0311284 0.0062562
0.274678 0.0311284 0.00552377
0.300252 0.0328527 0.00392157
0.3234 0.0329595 0.00392157
0.346593 0.0348058 0.00392157
0.383368 0.0348058 0
0.409552 0.0366369 0
0.442649 0.0428931 0
0.47602 0.0467384 0
0.523537 0.0480354 0
0.560769 0.059678 0
0.594049 0.0623178 0
0.628672 0.0682689 0
0.669215 0.0775006 0
0.711025 0.0856184 0
0.739437 0.0867323 0
0.776791 0.0975662 0
0.805127 0.0980545 0.00392157
0.835554 0.109316 0.00759899
0.8701 0.10956 0.00784314
0.0153201 0.0498817 0.0153201
0.0234073 0.0432441 0.0118715
0.0307774 0.0426642 0.0114137
0.0355993 0.0417639 0.00784314
0.0614481 0.0353704 0.0009308
0.0887312 0.0384833 0
0.113588 0.0349279 0
0.137911 0.0349279 0
0.160967 0.0349279 0
0.18117 0.0349279 0
0.197543 0.0384833 0
0.217044 0.0388495 0
0.240055 0.0388495 0.00378424
0.258854 0.0388495 0.0062562
0.274342 0.0388495 0.00547799
0.296666 0.0388495 0.00392157
0.3196 0.0388495 0.00392157
0.346624 0.0429389 0.00392157
0.381613 0.042771 0
0.412619 0.0466926 0
0.43975 0.0527352 0
0.473045 0.0556344 0
0.519738 0.0595712 0
0.560403 0.0682383 0
0.595987 0.0685283 0
0.627665 0.0785534 0
0.666346 0.0859083 0
0.708339 0.091371 0
0.742321 0.097673 0
0.770092 0.101961 0
0.804883 0.109438 0.00392157
0.832456 0.113481 0.00404364
0.867033 0.121202 0.00784314
0.0191196 0.0647135 0.0191196
0.0268406 0.0623484 0.0162814
0.0311284 0.057847 0.0156558
0.0388495 0.0614481 0.0153201
0.0465705 0.0548409 0.0117647
0.0733349 0.0481727 0.00114443
0.10457 0.0433814 0
0.128084 0.042649 0
0.146685 0.042649 0
0.171099 0.042649 0
0.193988 0.0449989 0
0.211963 0.0488136 0
0.237446 0.0500038 0.0024567
0.254047 0.0500038 0.00392157
0.274937 0.0500038 0.00756847
0.295109 0.0502327 0.00392157
0.3196 0.0500038 0.00392157
0.348058 0.0520943 0.00392157
0.375769 0.0507057 0
0.41323 0.0558022 0
0.440131 0.0601053 0
0.476493 0.0634318 0
0.513848 0.0677348 0
0.55819 0.0786908 0
0.593011 0.0779431 0
0.62417 0.0838483 0
0.666239 0.0940261 0
0.70544 0.101671 0
0.739223 0.109316 0
0.770413 0.113115 0
0.804898 0.117861 0.00392157
0.839109 0.125002 0.00451667
0.870588 0.12549 0.00784314
0.0196078 0.0811322 0.0235294
0.0306401 0.0805219 0.0230259
0.0383612 0.0835737 0.0261845
0.0430152 0.0775158 0.0193027
0.0504921 0.0833295 0.0223087
0.0582132 0.0772106 0.0179599
0.0878614 0.0681315 0.0068513
0.114244 0.0591745 0
0.138537 0.0553292 0
0.164126 0.0536812 0
0.182483 0.0536812 0
0.206577 0.0568704 0
0.23003 0.0582132 0.000381476
0.249744 0.0582132 0.00392157
0.274662 0.0582132 0.00605783
0.29453 0.0602884 0.00392157
0.319295 0.0582132 0.00392157
0.34519 0.0621347 0.00392157
0.381613 0.0621347 0
0.409308 0.0654459 0
0.441169 0.0702068 0
0.478553 0.0750286 0
0.522301 0.0773938 0
0.559564 0.0865949 0
0.593286 0.089128 0
0.626368 0.0944991 0
0.66836 0.10454 0
0.702235 0.109804 0
0.743526 0.117037 0
0.770169 0.121324 0.00030518
0.810575 0.128466 0.00392157
0.835782 0.13283 0.00463874
0.870588 0.136645 0.00784314
0.0267185 0.104417 0.0345617
0.0344396 0.103593 0.033875
0.0421607 0.10367 0.0343175
0.0505379 0.104417 0.0345617
0.0548104 0.0975509 0.0304875
0.0620127 0.094255 0.0239109
0.0731823 0.0919051 0.0194705
0.101625 0.0914626 0.0105745
0.128313 0.0892805 0.00656138
0.152865 0.0764324 0.00282292
0.17673 0.0759899 0.00318914
0.20148 0.0738994 0
0.223499 0.0691234 0
0.250553 0.068513 0.00491341
0.27451 0.0659342 0.00563058
0.296452 0.0677653 0.00392157
0.320836 0.0678874 0.00392157
0.352697 0.0701915 0.00392157
0.383734 0.0719615 0
0.409995 0.0737774 0
0.440894 0.0776989 0
0.478309 0.0832227 0
0.520302 0.0867628 0
0.556374 0.0955825 0
0.5935 0.094728 0
0.626429 0.104738 0
0.662638 0.115572 0
0.705135 0.11751 0
0.743236 0.128038 0
0.773419 0.129046 0
0.809461 0.136721 0.00392157
0.841978 0.143648 0.00712596
0.870588 0.148287 0.00784314
0.027451 0.123781 0.0462043
0.038117 0.125887 0.0453498
0.0462043 0.123964 0.0433356
0.0536812 0.126467 0.0422827
0.0612955 0.123293 0.0419165
0.065919 0.117128 0.0352941
0.0736095 0.109392 0.0310826
0.0891432 0.114397 0.0239109
0.12221 0.108217 0.0151675
0.146334 0.105028 0.00784314
0.171572 0.105684 0.00994888
0.195956 0.10074 0.00727855
0.221332 0.0994583 0.00784314
0.247608 0.0922866 0.00733959
0.274632 0.0924086 0.00784314
0.296498 0.0820783 0.00535592
0.320714 0.0791028 0.00392157
0.352697 0.0806439 0.00392157
0.38381 0.0810101 0
0.411536 0.0827344 0
0.444556 0.091249 0
0.483818 0.0937514 0
0.522301 0.0968643 0
0.567269 0.108095 0
0.597726 0.104387 0
0.632898 0.117464 0
0.669444 0.123903 0
0.706249 0.129061 0
0.744381 0.136782 0
0.776669 0.13991 0.000366217
0.814817 0.148348 0.00392157
0.843626 0.152087 0.00784314
0.873655 0.156008 0.00784314
0.0343175 0.146075 0.0539254
0.0458686 0.149874 0.0529793
0.0534981 0.152514 0.056672
0.0593423 0.150881 0.0547189
0.0653239 0.14313 0.0496376
0.0730755 0.142916 0.0458686
0.0792859 0.138842 0.0425269
0.094789 0.137682 0.0383307
0.106371 0.139208 0.027451
0.133791 0.127459 0.0131685
0.161089 0.127764 0.0101778
0.191394 0.127413 0.0107881
0.218387 0.12549 0.0107881
0.242069 0.1243 0.0107881
0.267704 0.120836 0.00784314
0.29369 0.120531 0.00732433
0.318135 0.113237 0.00538643
0.345342 0.105608 0.00547799
0.383032 0.101961 0.00294499
0.414618 0.0983749 0
0.443381 0.0992599 0
0.477089 0.100404 0
0.525551 0.104906 0
0.562905 0.11667 0
0.59559 0.114458 0
0.630182 0.122942 0
0.668818 0.129229 0
0.707912 0.138323 0
0.747921 0.144488 0
0.774472 0.148501 0.000366217
0.812863 0.156191 0.0039826
0.843626 0.163821 0.00784314
0.875486 0.166659 0.00784314
0.0392157 0.169238 0.0644541
0.0469368 0.170214 0.0627146
0.0548257 0.17052 0.0618906
0.0649271 0.171893 0.0641947
0.0704509 0.166781 0.0606699
0.0773785 0.166247 0.0590982
0.0867323 0.160494 0.0526894
0.0960861 0.158343 0.0503548
0.111482 0.159869 0.0410773
0.132357 0.155093 0.0235294
0.154406 0.149294 0.0131838
0.189075 0.145205 0.0108797
0.21265 0.148531 0.0117647
0.239673 0.147311 0.0129091
0.265919 0.148531 0.0101778
0.2916 0.147204 0.0106661
0.313726 0.142641 0.00784314
0.344778 0.144274 0.00732433
0.372671 0.139101 0.00674449
0.408042 0.136187 0.00560006
0.441505 0.13022 0.00282292
0.47747 0.125994 0
0.523735 0.120546 0
0.558633 0.123461 0
0.598199 0.123552 0
0.62916 0.133089 0
0.668467 0.140276 0
0.712871 0.148531 0
0.747555 0.152468 0
0.778408 0.159045 0.000366217
0.816526 0.166659 0.00392157
0.843748 0.174304 0.00784314
0.88014 0.175372 0.00784314
0.0392157 0.192401 0.0759747
0.048249 0.189792 0.0733654
0.0585031 0.192401 0.0771344
0.0663005 0.19266 0.0759747
0.0740215 0.191333 0.0725567
0.080705 0.190143 0.0710307
0.0914168 0.185336 0.0684062
0.103212 0.17731 0.0615244
0.110414 0.180636 0.0544747
0.133944 0.181399 0.0436561
0.15935 0.179797 0.0289158
0.184878 0.174136 0.0187991
0.216175 0.177172 0.0156863
0.240055 0.175357 0.0160525
0.267445 0.175494 0.0137789
0.294682 0.173404 0.0117647
0.316426 0.169482 0.00784314
0.346654 0.174426 0.00784314
0.376532 0.171725 0.00784314
0.40856 0.172671 0.00784314
0.442618 0.170657 0.00270085
0.480827 0.169116 0.00177005
0.522683 0.166033 0
0.566461 0.160754 0
0.597177 0.147372 0
0.633097 0.145556 0
0.66894 0.148806 0
0.714092 0.159747 0
0.749722 0.163973 0
0.786633 0.173022 0.000366217
0.823041 0.17818 0.00408942
0.851881 0.185824 0.00784314
0.882353 0.187015 0.00784314
0.0392157 0.2065 0.0823529
0.047013 0.209155 0.0849317
0.0583352 0.214252 0.0886091
0.0663005 0.215213 0.0871443
0.0741894 0.213306 0.0852522
0.084123 0.214008 0.0855421
0.0926528 0.215076 0.0835737
0.101961 0.208576 0.0805219
0.124086 0.208606 0.0795605
0.1337 0.206622 0.0670634
0.152804 0.207294 0.0524605
0.176425 0.203372 0.0366369
0.20705 0.201343 0.0231479
0.236576 0.200183 0.0196078
0.263233 0.201221 0.0156863
0.290684 0.201877 0.0175479
0.315694 0.19791 0.0123751
0.345815 0.201968 0.00921645
0.38204 0.204166 0.0104219
0.411597 0.204227 0.00784314
0.444572 0.202457 0.00683604
0.479896 0.20325 0.00650034
0.524834 0.20499 0
0.557626 0.205646 0
0.597086 0.199481 0
0.637049 0.196887 0
0.678447 0.192981 0
0.719448 0.188083 0
0.754238 0.181338 0
0.781994 0.18529 0.00270085
0.823163 0.189548 0.00657664
0.846372 0.190936 0.00784314
0.882353 0.198657 0.00784314
0.0431373 0.230884 0.0990158
0.0508583 0.230808 0.0965744
0.0585794 0.232288 0.100252
0.0687572 0.234577 0.0987869
0.07776 0.234806 0.0968795
0.0856641 0.238117 0.100496
0.0958267 0.241459 0.104936
0.110002 0.240192 0.0994278
0.128313 0.237995 0.0984054
0.141421 0.230884 0.0872969
0.158083 0.231647 0.0755474
0.178805 0.230625 0.0633402
0.202823 0.226902 0.0455329
0.229038 0.224033 0.0262455
0.261189 0.221973 0.0224002
0.288609 0.228428 0.0225986
0.316915 0.224262 0.0196078
0.349065 0.225666 0.0189212
0.381552 0.224109 0.0139773
0.412009 0.229282 0.0127565
0.442283 0.22414 0.0102998
0.480491 0.224887 0.00688182
0.527672 0.22742 0.00637827
0.571283 0.230594 0.00456245
0.608576 0.237247 0.00183108
0.650538 0.232883 0
0.688731 0.234867 0
0.71899 0.227558 0.00230411
0.763119 0.227634 0.00373846
0.792386 0.230396 0.0065156
0.824964 0.216724 0.00646983
0.855467 0.222477 0.00784314
0.880888 0.224018 0.00784314
0.0431373 0.251713 0.114458
0.053193 0.253254 0.112078
0.062501 0.255543 0.114321
0.0725567 0.256519 0.114672
0.0802625 0.259358 0.11606
0.0915541 0.261769 0.113359
0.097734 0.261295 0.11545
0.113832 0.264958 0.118379
0.136065 0.264057 0.11664
0.152987 0.259068 0.107027
0.169604 0.257969 0.0968032
0.182742 0.255955 0.0844892
0.206485 0.249149 0.0644388
0.229862 0.24715 0.0450294
0.257191 0.244892 0.0348363
0.288365 0.245106 0.0271
0.3196 0.248951 0.0313725
0.346441 0.249516 0.0273442
0.378714 0.249546 0.0189059
0.412833 0.252659 0.0177157
0.444633 0.253178 0.0165408
0.476905 0.251713 0.0112154
0.527016 0.25687 0.0106661
0.564538 0.257267 0.00906386
0.604135 0.260105 0.0056611
0.643244 0.262242 0.00181582
0.691981 0.266987 0.000732433
0.730755 0.268132 0.00416571
0.770581 0.264652 0.0062562
0.804395 0.265248 0.00784314
0.84213 0.262577 0.00784314
0.865538 0.258854 0.00791943
0.890929 0.261036 0.0101778
0.053193 0.274998 0.12549
0.060914 0.275425 0.123842
0.0702373 0.278813 0.127596
0.0729534 0.273808 0.126146
0.0880446 0.281468 0.130175
0.0957046 0.281132 0.1299
0.104814 0.284306 0.130953
0.115068 0.289464 0.133822
0.133883 0.288426 0.131426
0.157824 0.286503 0.128191
0.171084 0.283284 0.121569
0.187213 0.2822 0.106981
0.203525 0.28278 0.101961
0.227909 0.28072 0.0817731
0.25417 0.277699 0.0664073
0.276844 0.275608 0.0528572
0.314336 0.271077 0.0447242
0.342992 0.27837 0.045716
0.376791 0.276234 0.0401923
0.405264 0.275166 0.0321508
0.438087 0.277394 0.03122
0.473304 0.281712 0.0283055
0.516121 0.281666 0.0196078
0.555993 0.286015 0.0210574
0.598093 0.285908 0.016907
0.637095 0.290318 0.0126345
0.687068 0.295018 0.00645457
0.729656 0.298817 0.00799573
0.772519 0.298741 0.00784314
0.801465 0.291539 0.00784314
0.838483 0.295094 0.00798047
0.868879 0.296757 0.00962844
0.900252 0.297307 0.0139773
0.0569924 0.292531 0.137499
0.0683299 0.296208 0.139284
0.0763409 0.298177 0.139467
0.0857404 0.300145 0.141192
0.0938888 0.302464 0.141207
0.105196 0.30605 0.143465
0.11284 0.309163 0.143114
0.123247 0.311727 0.146975
0.137072 0.311421 0.146654
0.164797 0.317098 0.151629
0.182071 0.316228 0.145388
0.195468 0.308934 0.133806
0.208042 0.308904 0.12282
0.231601 0.310536 0.113878
0.256901 0.309239 0.0988479
0.283711 0.312505 0.0848096
0.30901 0.303609 0.0699168
0.342397 0.296315 0.0569924
0.377813 0.302556 0.0583658
0.414221 0.303441 0.0507668
0.439338 0.301213 0.0472114
0.475578 0.305089 0.0439612
0.522515 0.310216 0.0363165
0.5579 0.310689 0.033341
0.599664 0.312261 0.0282139
0.643153 0.316503 0.0268406
0.687358 0.316838 0.0155795
0.732769 0.320592 0.0146639
0.774487 0.325719 0.0133516
0.80708 0.324315 0.0120089
0.840345 0.323919 0.0100557
0.873091 0.327764 0.0176394
0.900374 0.322301 0.0159304
0.0686351 0.32549 0.158816
0.0763409 0.32549 0.158816
0.084184 0.327459 0.156985
0.0953384 0.334554 0.165743
0.102937 0.336767 0.165927
0.109499 0.333944 0.162737
0.122423 0.339208 0.166293
0.13051 0.341848 0.166232
0.137743 0.339223 0.165194
0.165621 0.34847 0.172549
0.187869 0.349752 0.173892
0.207111 0.34583 0.164767
0.223285 0.347051 0.158328
0.238788 0.348653 0.143999
0.260914 0.346807 0.133944
0.285725 0.339223 0.114397
0.31078 0.338231 0.0970626
0.340688 0.336461 0.0845655
0.373281 0.333333 0.0775769
0.407965 0.328618 0.0693675
0.449012 0.337255 0.0666667
0.483207 0.337926 0.0640269
0.523033 0.339834 0.0556344
0.566293 0.346502 0.0529488
0.60441 0.34461 0.049012
0.646326 0.349447 0.04271
0.687617 0.35024 0.0361486
0.736706 0.352941 0.0346838
0.774517 0.352697 0.0252384
0.808087 0.35845 0.0256809
0.849882 0.358816 0.0332036
0.87892 0.360662 0.0332036
0.903929 0.35491 0.027451
0.0763409 0.346929 0.17438
0.084062 0.348775 0.176226
0.0937362 0.35256 0.17818
0.0995041 0.352697 0.17998
0.107485 0.35433 0.178088
0.116793 0.35845 0.180438
0.126253 0.359808 0.181842
0.1364 0.364004 0.185504
0.145495 0.364004 0.183612
0.157992 0.370611 0.189242
0.19118 0.380591 0.193744
0.214191 0.383185 0.193042
0.230884 0.376822 0.183001
0.24303 0.3738 0.168887
0.260716 0.370596 0.16054
0.284688 0.373037 0.14902
0.309804 0.363424 0.125124
0.338598 0.361395 0.10576
0.369512 0.360555 0.0970016
0.409201 0.358953 0.0876173
0.446204 0.36054 0.0845655
0.484749 0.363577 0.0793317
0.522377 0.365118 0.0718547
0.573922 0.375357 0.0717784
0.6121 0.37435 0.064332
0.654093 0.379446 0.065507
0.695171 0.379904 0.0557565
0.737621 0.382712 0.0517128
0.773129 0.383612 0.0479286
0.804089 0.38735 0.0426947
0.844495 0.386023 0.0449683
0.876966 0.393561 0.0487678
0.904051 0.387747 0.0449683
0.0823529 0.366415 0.186023
0.090074 0.368078 0.187747
0.0977951 0.37023 0.189837
0.105516 0.372259 0.189899
0.113237 0.375769 0.189944
0.122744 0.376318 0.193866
0.132601 0.381781 0.193866
0.140322 0.383444 0.197314
0.149325 0.385657 0.199084
0.15906 0.387121 0.198276
0.19118 0.402167 0.20882
0.221363 0.40618 0.20795
0.237354 0.404105 0.203342
0.251225 0.398322 0.188922
0.266194 0.397772 0.18085
0.287694 0.398108 0.171954
0.312871 0.394858 0.153674
0.341863 0.392218 0.136156
0.370886 0.391928 0.118593
0.404242 0.392203 0.108736
0.447791 0.386618 0.0999924
0.483192 0.390051 0.0937209
0.527901 0.3897 0.0869612
0.574014 0.397925 0.0824903
0.615686 0.402396 0.0825971
0.654414 0.406012 0.0801404
0.697704 0.407187 0.0746777
0.736996 0.411124 0.0712749
0.776074 0.412772 0.0639658
0.807752 0.413199 0.062089
0.847715 0.414847 0.0584726
0.874876 0.418692 0.0622568
0.898528 0.41471 0.0605325
0.0846876 0.385901 0.197665
0.0923323 0.389761 0.199268
0.10161 0.3935 0.205264
0.10573 0.393011 0.203189
0.11696 0.396445 0.202991
0.12488 0.397299 0.203555
0.132601 0.40116 0.207401
0.142138 0.405509 0.209094
0.150362 0.404929 0.20885
0.159686 0.409888 0.209888
0.182834 0.419837 0.220569
0.220706 0.433463 0.226719
0.239322 0.435889 0.226459
0.257877 0.430457 0.21413
0.276295 0.433127 0.20972
0.289799 0.43209 0.198138
0.315679 0.428367 0.18677
0.343526 0.425147 0.168994
0.368948 0.425574 0.15285
0.405203 0.424949 0.134188
0.443351 0.425711 0.119966
0.477028 0.423102 0.110658
0.517662 0.419226 0.101595
0.572915 0.426505 0.0994736
0.618265 0.429129 0.0949721
0.661173 0.439048 0.0964523
0.701411 0.440375 0.0926528
0.733944 0.439078 0.087129
0.780224 0.442893 0.0841382
0.808576 0.443107 0.0826886
0.846952 0.445594 0.0790417
0.871183 0.447898 0.0800488
0.897307 0.443259 0.0753643
0.0838178 0.40441 0.212253
0.0939193 0.406836 0.214633
0.0994125 0.409644 0.216175
0.109438 0.411063 0.215076
0.118441 0.417334 0.218814
0.124727 0.416403 0.21886
0.132601 0.424475 0.223011
0.141466 0.426642 0.224018
0.148775 0.42623 0.223285
0.159686 0.433997 0.229709
0.18088 0.442649 0.235569
0.220996 0.456779 0.242786
0.248035 0.467155 0.250004
0.269749 0.463828 0.241306
0.288243 0.466423 0.236027
0.303731 0.463386 0.224613
0.326955 0.466667 0.216175
0.352453 0.462547 0.198581
0.379812 0.462806 0.181277
0.405524 0.456855 0.159548
0.441184 0.455756 0.140627
0.478798 0.45243 0.129274
0.528252 0.452232 0.121569
0.567803 0.449714 0.109468
0.617899 0.45539 0.108461
0.660304 0.463767 0.108186
0.70251 0.46743 0.107347
0.743023 0.471077 0.103426
0.780575 0.473228 0.10312
0.816922 0.468864 0.0969253
0.844358 0.467643 0.0956741
0.87892 0.481254 0.103182
0.903426 0.472557 0.0946059
0.0874952 0.428794 0.231373
0.0927291 0.433951 0.231373
0.10045 0.436484 0.232715
0.108217 0.437751 0.232715
0.119402 0.441596 0.234073
0.126314 0.443046 0.234073
0.133074 0.444846 0.236393
0.142885 0.44889 0.239704
0.149966 0.451682 0.239918
0.158328 0.456489 0.241535
0.176333 0.462181 0.249882
0.215824 0.480201 0.260594
0.247745 0.490196 0.265202
0.277577 0.497124 0.267033
0.298756 0.496345 0.259388
0.311955 0.49424 0.247517
0.330083 0.496269 0.234806
0.353323 0.491096 0.220111
0.381125 0.492744 0.203037
0.4103 0.488792 0.187503
0.442771 0.486778 0.170108
0.477791 0.482933 0.148211
0.527489 0.487785 0.136995
0.566644 0.4804 0.123537
0.608484 0.481254 0.121691
0.65008 0.486198 0.117372
0.698512 0.494972 0.118746
0.738384 0.500542 0.11725
0.772595 0.499184 0.112673
0.810788 0.497551 0.112505
0.847303 0.502663 0.112993
0.878965 0.508705 0.120302
0.907225 0.504784 0.113848
0.0811322 0.444358 0.240436
0.0875715 0.444312 0.24036
0.0928206 0.448356 0.241672
0.103059 0.453315 0.245472
0.111864 0.457206 0.247944
0.119539 0.460655 0.24828
0.124041 0.464225 0.251469
0.133944 0.462501 0.249516
0.141665 0.466117 0.250736
0.146685 0.469993 0.255375
0.161486 0.478431 0.261067
0.204227 0.497795 0.272618
0.240406 0.51223 0.279408
0.278813 0.523659 0.285527
0.298238 0.523033 0.279896
0.321782 0.522545 0.272175
0.333822 0.524514 0.258579
0.354894 0.524392 0.24947
0.377218 0.519509 0.230304
0.410788 0.519982 0.217029
0.442954 0.518624 0.198291
0.477745 0.517281 0.178256
0.514076 0.514626 0.157244
0.564584 0.51809 0.144503
0.601648 0.517159 0.140261
0.637797 0.512703 0.131701
0.683513 0.517372 0.12694
0.737621 0.527077 0.127947
0.776074 0.532021 0.126864
0.813596 0.53431 0.130755
0.850736 0.535882 0.13048
0.879042 0.535622 0.131899
0.905882 0.540932 0.13579
0.0784314 0.457115 0.252079
0.0861524 0.462013 0.250416
0.0938735 0.464698 0.252934
0.0990311 0.468498 0.255741
0.106493 0.469841 0.256977
0.114214 0.473732 0.25948
0.121935 0.479011 0.262211
0.129656 0.480644 0.263233
0.139498 0.48539 0.264668
0.147921 0.487694 0.266972
0.157229 0.497032 0.273625
0.195209 0.512245 0.28098
0.243641 0.533669 0.292287
0.281788 0.547021 0.30045
0.310307 0.551232 0.303685
0.332509 0.552178 0.293507
0.350118 0.553429 0.284245
0.369635 0.555856 0.274479
0.39057 0.553918 0.25919
0.414221 0.556527 0.243091
0.447257 0.555917 0.227893
0.484443 0.552529 0.204395
0.516625 0.554116 0.187716
0.55581 0.553307 0.164446
0.6038 0.5579 0.160174
0.643748 0.550484 0.152819
0.678706 0.54345 0.143297
0.732692 0.551232 0.136492
0.786053 0.568551 0.146944
0.813977 0.571221 0.148409
0.856733 0.575601 0.153613
0.885573 0.587488 0.159014
0.912627 0.583703 0.156252
0.0823529 0.481376 0.261769
0.0872206 0.488273 0.26569
0.0948501 0.4916 0.269245
0.101686 0.493324 0.267826
0.110292 0.491417 0.267887
0.117189 0.500526 0.274357
0.124941 0.507164 0.277516
0.132692 0.511757 0.278096
0.1402 0.513237 0.280385
0.148623 0.516396 0.281376
0.155947 0.518318 0.281682
0.17821 0.533547 0.292744
0.23125 0.551598 0.301961
0.268101 0.562493 0.31133
0.308522 0.583398 0.326955
0.338659 0.59353 0.330083
0.360784 0.5897 0.315679
0.37818 0.596078 0.306188
0.397421 0.594049 0.289403
0.426352 0.593133 0.273503
0.457603 0.595712 0.261524
0.483787 0.59176 0.241703
0.525429 0.593866 0.225803
0.564034 0.585443 0.194614
0.606378 0.588479 0.17966
0.660975 0.596628 0.175067
0.6916 0.592584 0.16611
0.731502 0.588174 0.156863
0.773648 0.596933 0.159686
0.821347 0.607233 0.169879
0.858518 0.611704 0.173342
0.890593 0.615717 0.173587
0.916671 0.615686 0.177447
0.087129 0.52108 0.279286
0.0939956 0.525826 0.283207
0.0986496 0.524193 0.283207
0.106371 0.531624 0.286763
0.114092 0.532738 0.287129
0.121813 0.536156 0.287861
0.129366 0.541741 0.290486
0.1364 0.54136 0.291722
0.144762 0.544396 0.294972
0.151843 0.546807 0.295216
0.159564 0.555444 0.300633
0.169284 0.56231 0.305287
0.209262 0.575174 0.316106
0.266545 0.596551 0.32903
0.307942 0.61236 0.344823
0.344961 0.61912 0.348653
0.371878 0.624567 0.345281
0.392187 0.627634 0.33492
0.409552 0.63003 0.319371
0.436439 0.629633 0.306127
0.461646 0.63006 0.290471
0.490608 0.626963 0.270832
0.529244 0.63032 0.25716
0.570214 0.628199 0.234318
0.605875 0.623011 0.205692
0.649439 0.626947 0.187564
0.700893 0.640803 0.185992
0.740902 0.636011 0.181735
0.773831 0.631739 0.17818
0.813886 0.631251 0.175692
0.855268 0.642222 0.185168
0.881025 0.653605 0.186145
0.91458 0.654414 0.189944
0.0901961 0.548043 0.287739
0.0979171 0.551247 0.290852
0.105638 0.552651 0.292103
0.109499 0.559365 0.296193
0.117556 0.559167 0.295583
0.12488 0.5626 0.29839
0.132601 0.564324 0.300252
0.140322 0.571572 0.303426
0.148043 0.571756 0.303609
0.154864 0.578302 0.307668
0.160296 0.578698 0.31078
0.170108 0.591073 0.321202
0.213107 0.602823 0.328222
0.274266 0.624155 0.345846
0.320119 0.639796 0.359487
0.361517 0.655268 0.371832
0.385779 0.658579 0.368017
0.408682 0.65893 0.361151
0.419776 0.662501 0.344198
0.449256 0.662806 0.33106
0.474022 0.665965 0.319173
0.504173 0.66334 0.299855
0.537194 0.663417 0.282307
0.582223 0.667689 0.263111
0.619913 0.67071 0.239887
0.658167 0.665904 0.212345
0.709697 0.675135 0.204196
0.748623 0.678553 0.198413
0.787167 0.680827 0.201068
0.814343 0.671077 0.197482
0.851957 0.671672 0.197742
0.883726 0.675425 0.198505
0.914458 0.690684 0.206867
0.0941176 0.58677 0.302571
0.101839 0.58999 0.306493
0.106249 0.591257 0.310216
0.113909 0.594354 0.310475
0.12108 0.597498 0.311025
0.128801 0.598627 0.314946
0.133089 0.601831 0.315572
0.140459 0.603311 0.319005
0.148501 0.608698 0.322179
