Luts/panasonic/胶片印象.cube
TITLE "Generated by Resolve"
LUT_3D_SIZE 9
0.00784314 0.00784314 0.0117647
0.100008 0.00784314 0
0.182361 0.00784314 0
0.246571 0.0117647 0.00637827
0.321569 0.0117647 0.00392157
0.441169 0.0249943 0
0.593133 0.0411841 0
0.743633 0.0710765 0
0.862745 0.0901961 0.00784314
0.0191196 0.0647135 0.0191196
0.0465705 0.0548409 0.0117647
0.146685 0.042649 0
0.237446 0.0500038 0.0024567
0.3196 0.0500038 0.00392157
0.440131 0.0601053 0
0.593011 0.0779431 0
0.739223 0.109316 0
0.870588 0.12549 0.00784314
0.0343175 0.146075 0.0539254
0.0653239 0.14313 0.0496376
0.106371 0.139208 0.027451
0.218387 0.12549 0.0107881
0.318135 0.113237 0.00538643
0.443381 0.0992599 0
0.59559 0.114458 0
0.747921 0.144488 0
0.875486 0.166659 0.00784314
0.0431373 0.230884 0.0990158
0.07776 0.234806 0.0968795
0.128313 0.237995 0.0984054
0.202823 0.226902 0.0455329
0.316915 0.224262 0.0196078
0.442283 0.22414 0.0102998
0.608576 0.237247 0.00183108
0.763119 0.227634 0.00373846
0.880888 0.224018 0.00784314
0.0686351 0.32549 0.158816
0.102937 0.336767 0.165927
0.137743 0.339223 0.165194
0.223285 0.347051 0.158328
0.31078 0.338231 0.0970626
0.449012 0.337255 0.0666667
0.60441 0.34461 0.049012
0.774517 0.352697 0.0252384
0.903929 0.35491 0.027451
0.0838178 0.40441 0.212253
0.118441 0.417334 0.218814
0.148775 0.42623 0.223285
0.248035 0.467155 0.250004
0.326955 0.466667 0.216175
0.441184 0.455756 0.140627
0.617899 0.45539 0.108461
0.780575 0.473228 0.10312
0.903426 0.472557 0.0946059
0.0823529 0.481376 0.261769
0.110292 0.491417 0.267887
0.1402 0.513237 0.280385
0.23125 0.551598 0.301961
0.360784 0.5897 0.315679
0.457603 0.595712 0.261524
0.606378 0.588479 0.17966
0.773648 0.596933 0.159686
0.916671 0.615686 0.177447
0.0985275 0.625986 0.318135
0.125002 0.636881 0.326467
0.151965 0.646571 0.337865
0.237934 0.679347 0.368383
0.42916 0.739467 0.423529
0.510597 0.742336 0.38027
0.651469 0.755764 0.309682
0.799023 0.768505 0.240192
0.918624 0.769604 0.237247
0.152941 0.815686 0.384314
0.187747 0.823529 0.4
0.263722 0.839216 0.433326
0.424506 0.868635 0.496086
0.580392 0.896086 0.537255
0.659312 0.91519 0.516182
0.757839 0.9402 0.48333
0.860288 0.953918 0.433829
0.92549 0.960784 0.356863
0.030396 0.0112764 0.0808881
0.0905013 0.0156863 0.0696727
0.182361 0.00784314 0.0452277
0.248707 0.0117647 0.0387274
0.323278 0.0134737 0.0387274
0.442954 0.0238346 0.0382391
0.6 0.0411841 0.0382391
0.742702 0.0705882 0.0382391
0.870588 0.0941176 0.042649
0.0147707 0.0534981 0.0612802
0.0536507 0.0504921 0.0543526
0.14844 0.042649 0.0382391
0.238743 0.0500038 0.0385443
0.322271 0.050248 0.0387274
0.441199 0.0619821 0.0382391
0.597711 0.0776684 0.0382391
0.740032 0.109316 0.0382391
0.870588 0.128923 0.042649
0.0235294 0.137255 0.0760967
0.0587015 0.13872 0.0804608
0.119982 0.134066 0.0590982
0.22211 0.124956 0.0476387
0.322301 0.113359 0.0429541
0.445579 0.0995041 0.0382391
0.599359 0.116396 0.0382391
0.747433 0.14493 0.0382391
0.874876 0.166659 0.042649
0.0313725 0.216663 0.119615
0.0664836 0.222873 0.122057
0.132143 0.235203 0.13022
0.20853 0.226123 0.0782483
0.317983 0.220249 0.0559701
0.446555 0.227207 0.0497139
0.607721 0.234073 0.0382391
0.761654 0.225498 0.0385595
0.882353 0.218631 0.0462654
0.0568704 0.307836 0.176226
0.0916609 0.321172 0.186862
0.127947 0.327886 0.189456
0.223926 0.351232 0.193561
0.312261 0.334676 0.130266
0.445319 0.333272 0.103059
0.608515 0.345098 0.0849317
0.777935 0.356588 0.067155
0.902205 0.353674 0.0627451
0.0725414 0.387259 0.228122
0.105882 0.398535 0.23418
0.139712 0.413489 0.241886
0.236393 0.451041 0.267628
0.324025 0.462745 0.248035
0.445594 0.452811 0.174365
0.617456 0.458457 0.145357
0.776837 0.471214 0.137804
0.90312 0.476783 0.135607
0.0715648 0.467887 0.277089
0.0985885 0.481529 0.28481
0.129412 0.495247 0.292195
0.220722 0.538109 0.318944
0.361883 0.592157 0.35172
0.45774 0.59527 0.292699
0.607141 0.589334 0.216205
0.778485 0.595758 0.200061
0.917647 0.619974 0.213977
0.0897688 0.616358 0.325551
0.113405 0.625605 0.337316
0.140261 0.634806 0.346014
0.226276 0.670054 0.381338
0.420096 0.729625 0.443839
0.508659 0.74609 0.412711
0.651331 0.759213 0.345083
0.799222 0.768841 0.274586
0.921996 0.772488 0.275425
0.141665 0.807843 0.388235
0.176471 0.815259 0.406928
0.250126 0.835172 0.440314
0.40943 0.861891 0.505394
0.583825 0.897795 0.568139
0.665385 0.917342 0.553124
0.760784 0.942763 0.520592
0.860288 0.960784 0.476905
0.921569 0.953429 0.391669
0.057847 0.0235294 0.165682
0.113115 0.0234073 0.159197
0.171817 0.0196078 0.131365
0.257237 0.0117647 0.0868849
0.347051 0.0156863 0.0818647
0.48394 0.0289158 0.0803998
0.63505 0.0470588 0.0735332
0.763973 0.067277 0.0740215
0.873533 0.0843214 0.0803998
0.0392157 0.057969 0.136645
0.0811627 0.0547341 0.135454
0.149081 0.0527504 0.114519
0.247639 0.0478523 0.0831464
0.345098 0.0511025 0.0835126
0.474876 0.0646372 0.0813611
0.634989 0.085359 0.0735332
0.763394 0.105409 0.0740215
0.869978 0.123033 0.0803998
0.00563058 0.123522 0.132845
0.0404364 0.125093 0.133913
0.129168 0.135103 0.137194
0.231647 0.126009 0.116426
0.340688 0.102327 0.0936294
0.475822 0.103243 0.0794385
0.634256 0.119799 0.0735332
0.761425 0.14081 0.0741741
0.88014 0.164462 0.0803998
0.0219425 0.2038 0.158953
0.0569924 0.211826 0.168017
0.132021 0.2318 0.178866
0.222461 0.23212 0.161059
0.33579 0.228122 0.128923
0.456809 0.22533 0.0986954
0.618601 0.227359 0.0771191
0.769574 0.216236 0.0758831
0.885176 0.210056 0.0810101
0.0524453 0.296086 0.206867
0.0843824 0.306188 0.212802
0.118135 0.314702 0.217517
0.235294 0.349813 0.2383
0.321813 0.341421 0.190448
0.45803 0.337865 0.139895
0.61593 0.345342 0.120714
0.781613 0.349386 0.0969406
0.906859 0.354406 0.0985275
0.0663005 0.374502 0.247547
0.0990158 0.38996 0.260456
0.130053 0.401404 0.268528
0.230747 0.438987 0.292912
0.33106 0.467338 0.291051
0.451026 0.456626 0.224155
0.625299 0.461891 0.184649
0.789761 0.470161 0.175952
0.904051 0.471077 0.165682
0.0605325 0.448768 0.287739
0.0868544 0.470741 0.299596
0.117464 0.479469 0.307469
0.208576 0.526802 0.341878
0.356619 0.584192 0.378683
0.463996 0.597543 0.34078
0.612375 0.591852 0.262867
0.785412 0.599542 0.237324
0.920592 0.614221 0.248524
0.0785534 0.599878 0.333822
0.101747 0.613901 0.344717
0.128862 0.624689 0.355856
0.214313 0.658732 0.393317
0.410483 0.725063 0.463416
0.520943 0.748882 0.45539
0.652567 0.758022 0.395468
0.799908 0.773434 0.330205
0.922057 0.772671 0.306859
0.112749 0.804898 0.396078
0.125856 0.804532 0.404776
0.209064 0.822065 0.444114
0.387259 0.856001 0.523278
0.572549 0.894118 0.59559
0.670954 0.916304 0.597055
0.771328 0.946075 0.574517
0.867887 0.964828 0.52929
0.929412 0.964706 0.452949
0.0848096 0.0299077 0.232349
0.119295 0.0313725 0.232532
0.171572 0.0285496 0.213718
0.237568 0.0331426 0.206073
0.350484 0.018143 0.147555
0.485298 0.0298466 0.119478
0.647181 0.0547799 0.116182
0.790188 0.0710765 0.127764
0.894118 0.0823529 0.13138
0.0696117 0.0547189 0.205386
0.0995193 0.0547341 0.205432
0.157061 0.0635996 0.202319
0.230381 0.0681926 0.200824
0.347799 0.0534371 0.145495
0.489418 0.0678416 0.121202
0.646296 0.0914778 0.116411
0.788022 0.109773 0.127962
0.897185 0.118929 0.130694
0.0454719 0.128801 0.207355
0.0786145 0.129946 0.210559
0.142123 0.140688 0.21474
0.228092 0.14342 0.214511
0.352392 0.0926528 0.139956
0.494652 0.104906 0.122164
0.647608 0.128161 0.116274
0.794537 0.149233 0.128374
0.90367 0.15613 0.134554
0.0215 0.19498 0.213733
0.0530556 0.198642 0.218433
0.104814 0.211765 0.231968
0.233341 0.242039 0.250278
0.347799 0.2439 0.229725
0.482994 0.244007 0.213962
0.643839 0.233219 0.174411
0.798321 0.201572 0.138064
0.907408 0.197055 0.135286
0.0482795 0.283085 0.241672
0.0826581 0.296483 0.250492
0.115618 0.304234 0.257908
0.225711 0.338476 0.28481
0.336889 0.34963 0.272419
0.477363 0.346044 0.236728
0.635111 0.346807 0.212985
0.80058 0.362005 0.203677
0.916182 0.36054 0.201465
0.0597391 0.363729 0.280888
0.0881208 0.376226 0.289525
0.118654 0.387717 0.298177
0.220096 0.422751 0.327581
0.352758 0.470588 0.359106
0.466621 0.471962 0.307225
0.646204 0.471305 0.256733
0.795956 0.476478 0.240406
0.91519 0.4701 0.226963
0.0480354 0.450004 0.30576
0.074464 0.463874 0.318029
0.103059 0.473075 0.328038
0.18967 0.519646 0.363897
0.355032 0.576288 0.41796
0.477363 0.607248 0.410544
0.636698 0.609339 0.34641
0.800244 0.612894 0.297429
0.9234 0.617517 0.286519
0.0666667 0.597543 0.341482
0.0898909 0.604959 0.352987
0.114565 0.614557 0.365179
0.195972 0.654917 0.408484
0.397391 0.715038 0.486122
0.539788 0.755016 0.515373
0.673335 0.771282 0.467399
0.811322 0.784024 0.411856
0.930327 0.776959 0.369421
0.0823529 0.789212 0.415198
0.101656 0.802823 0.433341
0.143267 0.811276 0.454536
0.347311 0.853071 0.543328
0.545098 0.889952 0.616663
0.688243 0.922118 0.653437
0.775372 0.945953 0.634806
0.868818 0.963424 0.5935
0.931868 0.968627 0.518624
0.107836 0.0470588 0.305882
0.136767 0.0433814 0.305638
0.176959 0.0392157 0.291173
0.247059 0.0463264 0.287007
0.331365 0.0539254 0.281376
0.494606 0.0465705 0.236759
0.652934 0.0588235 0.152453
0.790188 0.0762188 0.162493
0.905882 0.0901961 0.182361
0.0921645 0.0698558 0.2804
0.125277 0.0683452 0.284321
0.165194 0.0686351 0.280949
0.241367 0.0790723 0.282536
0.329778 0.0893416 0.2804
0.494453 0.0842451 0.240009
0.651713 0.0921645 0.155764
0.78851 0.112779 0.16231
0.90367 0.125002 0.182361
0.0740215 0.134798 0.273533
0.108583 0.140078 0.282841
0.146807 0.138964 0.284566
0.235538 0.150729 0.292287
0.333333 0.142885 0.289464
0.495521 0.120226 0.237324
0.654902 0.12929 0.152331
0.797482 0.14847 0.161822
0.905882 0.160296 0.182849
0.0448463 0.183337 0.283574
0.0801404 0.191028 0.295918
0.123033 0.202396 0.306432
0.237964 0.23946 0.32987
0.341421 0.254414 0.332235
0.48777 0.223224 0.262837
0.657664 0.190936 0.189151
0.807996 0.198291 0.190936
0.917647 0.20589 0.21323
0.049012 0.267643 0.296086
0.0790417 0.275364 0.306004
0.112261 0.28603 0.314458
0.192279 0.313481 0.336889
0.344121 0.356863 0.367651
0.493874 0.365682 0.349508
0.670588 0.386526 0.346807
0.822797 0.401831 0.348653
0.929412 0.398047 0.350988
0.050248 0.342153 0.304662
0.0798047 0.35465 0.315496
0.111513 0.365499 0.325002
0.16437 0.390188 0.348775
0.340566 0.458213 0.405264
0.491753 0.485176 0.399084
0.67071 0.490929 0.372549
0.820462 0.4981 0.364828
0.934066 0.503929 0.377447
0.030396 0.432837 0.321569
0.0569314 0.443015 0.334188
0.0838178 0.459068 0.347066
0.173526 0.505821 0.388602
0.342885 0.56936 0.451469
0.506615 0.619058 0.489403
0.657969 0.63064 0.441917
0.826474 0.629664 0.4103
0.940688 0.633829 0.415198
0.0492714 0.583093 0.35613
0.0721141 0.592096 0.370809
0.097734 0.606806 0.387076
0.122148 0.624262 0.408087
0.364096 0.703792 0.513848
0.567163 0.761669 0.58471
0.68867 0.779355 0.551293
0.832746 0.796963 0.504875
0.943633 0.789212 0.467155
0.0686351 0.784314 0.45687
0.0899519 0.790448 0.468635
0.11078 0.799512 0.483818
0.244602 0.835538 0.55491
0.484321 0.886275 0.641184
0.697551 0.928923 0.707591
0.78677 0.952941 0.704906
0.877943 0.965194 0.664714
0.94313 0.968627 0.603922
0.134798 0.0720531 0.401953
0.163607 0.07187 0.40116
0.187625 0.0648356 0.3897
0.255024 0.0790417 0.382422
0.343389 0.0911727 0.388235
0.451408 0.0959487 0.37702
0.646204 0.079408 0.329778
0.790188 0.0798962 0.242954
0.903426 0.0862745 0.21323
0.12285 0.0914778 0.376959
0.151461 0.0949416 0.378653
0.187259 0.091722 0.375158
0.253727 0.109987 0.380255
0.341909 0.125154 0.387167
0.447074 0.13257 0.378637
0.648447 0.118395 0.336065
0.789609 0.114809 0.247776
0.904418 0.123217 0.211948
0.112016 0.15111 0.376715
0.145708 0.15465 0.386252
0.175555 0.152514 0.385962
0.248676 0.16289 0.390249
0.345342 0.172915 0.390387
0.452232 0.169955 0.377997
0.653712 0.153826 0.331899
0.79585 0.152926 0.246265
0.906981 0.159808 0.21323
0.109743 0.20827 0.386648
0.145937 0.214267 0.401892
0.178531 0.220584 0.409018
0.249393 0.238209 0.41973
0.350988 0.257572 0.420615
0.457984 0.267781 0.410025
0.663264 0.202945 0.334722
0.807599 0.191485 0.238148
0.917647 0.198535 0.237186
0.0602884 0.250248 0.377203
0.0893721 0.260197 0.386084
0.120836 0.269368 0.40502
0.212222 0.302022 0.430365
0.360906 0.352697 0.459068
0.480613 0.374014 0.4542
0.675425 0.371817 0.409873
0.828855 0.376257 0.368414
0.934554 0.397787 0.413474
0.045594 0.323598 0.363851
0.073106 0.335286 0.381048
0.10222 0.346593 0.393133
0.131868 0.3626 0.411963
0.304448 0.435355 0.469917
0.515831 0.509056 0.515785
0.699855 0.537697 0.517357
0.848936 0.571115 0.545617
0.952575 0.584009 0.558022
0.0246281 0.393866 0.343633
0.0521401 0.40972 0.360754
0.078645 0.424201 0.374578
0.10399 0.448356 0.396033
0.263478 0.52726 0.475059
0.511452 0.618891 0.554818
0.683909 0.647303 0.54847
0.85005 0.659312 0.544335
0.95845 0.663722 0.553185
0.0316777 0.558389 0.407721
0.0533303 0.568917 0.422019
0.0780652 0.579004 0.435019
0.101595 0.599695 0.454597
0.296452 0.683391 0.548592
0.538552 0.747127 0.623178
0.713329 0.797024 0.657038
0.850858 0.81268 0.615152
0.96434 0.806012 0.589822
0.0534371 0.78677 0.523033
0.07187 0.789517 0.532662
0.0931411 0.796689 0.553918
0.132784 0.818692 0.593622
0.347555 0.867155 0.659068
0.652949 0.924514 0.738659
0.80589 0.961395 0.787259
0.888731 0.970092 0.755581
0.951476 0.973526 0.700984
0.152941 0.0931411 0.484321
0.184436 0.094728 0.489342
0.214221 0.0943618 0.484565
0.257969 0.0932631 0.480644
0.364706 0.119112 0.488243
0.475608 0.139712 0.498161
0.593622 0.138231 0.475486
0.791547 0.109316 0.423529
0.901961 0.0999924 0.360784
0.143877 0.111025 0.469612
0.178836 0.118456 0.475959
0.208911 0.121813 0.475273
0.260334 0.127489 0.480003
0.360845 0.147982 0.485359
0.475898 0.174395 0.498543
0.587381 0.17847 0.475303
0.792233 0.14461 0.42739
0.905028 0.140444 0.369726
0.147066 0.159075 0.48481
0.177996 0.164462 0.490471
0.211826 0.166796 0.496208
0.267033 0.174487 0.500618
0.372183 0.192157 0.495094
0.478248 0.213138 0.498955
0.596994 0.20943 0.471199
0.798749 0.18526 0.431067
0.909072 0.177447 0.368872
0.142153 0.216663 0.488365
0.17554 0.22504 0.500725
0.206867 0.230549 0.509346
0.268025 0.239872 0.518837
0.371939 0.2598 0.516915
0.484596 0.288106 0.519219
0.613947 0.28542 0.497765
0.807584 0.220722 0.430655
0.917647 0.214588 0.370336
0.116182 0.270588 0.506371
0.144427 0.282536 0.516793
0.17818 0.291295 0.527199
0.255756 0.323339 0.541054
0.387503 0.360784 0.555154
0.510964 0.392584 0.560357
0.646693 0.406622 0.552087
0.830518 0.386648 0.512078
0.935286 0.355886 0.434806
0.0627451 0.323781 0.515694
0.0892042 0.338094 0.531838
0.116274 0.348013 0.541176
0.194507 0.389075 0.574823
0.371695 0.456733 0.607721
0.565042 0.530877 0.627756
0.677943 0.540139 0.615747
0.853895 0.54229 0.585687
0.957717 0.55024 0.575494
0.0507362 0.446082 0.542397
0.0760967 0.457542 0.555642
0.100923 0.466178 0.560784
0.128893 0.480232 0.577447
0.260166 0.538354 0.612619
0.490867 0.612589 0.650431
0.71606 0.68217 0.682475
0.875212 0.72105 0.706249
0.974014 0.762005 0.749508
0.0283055 0.530022 0.484184
0.0525368 0.541222 0.495171
0.0773938 0.551934 0.506859
0.114595 0.576242 0.533562
0.14313 0.604776 0.564034
0.367178 0.692897 0.643381
0.733242 0.808545 0.739284
0.875135 0.833524 0.741711
0.980392 0.839216 0.743633
0.0666667 0.780392 0.620584
0.087129 0.789456 0.630884
0.11078 0.800244 0.641672
0.139712 0.817899 0.669123
0.159808 0.841184 0.704417
0.476341 0.906126 0.773404
0.78407 0.96054 0.833082
0.899016 0.98027 0.849393
0.968627 0.980392 0.803922
0.180392 0.114214 0.581369
0.211276 0.118563 0.586206
0.242771 0.119478 0.583215
0.289891 0.12549 0.5897
0.392401 0.145586 0.589456
0.507225 0.17145 0.59823
0.614954 0.192645 0.589578
0.739712 0.187015 0.568261
0.906371 0.117647 0.523537
0.176898 0.141115 0.577874
0.208286 0.145098 0.582742
0.245304 0.1514 0.585794
0.290349 0.156374 0.5897
0.390753 0.176043 0.587777
0.502083 0.201968 0.594629
0.613809 0.230472 0.591409
0.747112 0.219684 0.563394
0.909072 0.156374 0.527016
0.17966 0.178683 0.589456
0.207843 0.183719 0.593683
0.249363 0.189303 0.59884
0.290425 0.18967 0.593225
0.399268 0.209735 0.590753
0.507622 0.236027 0.594751
0.617685 0.261463 0.588785
0.755093 0.255497 0.567208
0.917647 0.195102 0.53138
0.179416 0.237629 0.604776
0.209186 0.24445 0.609598
0.250233 0.253681 0.620127
0.304784 0.262028 0.623728
0.410361 0.282017 0.620005
0.524132 0.312215 0.619486
0.642603 0.338369 0.616144
0.777829 0.333974 0.597116
0.92813 0.230701 0.541665
0.179171 0.320104 0.627451
0.21416 0.335576 0.63769
0.252506 0.342397 0.645411
0.314763 0.361242 0.655024
0.436149 0.394369 0.661524
0.565682 0.423041 0.665446
0.684871 0.457053 0.667582
0.805081 0.452628 0.655512
0.937743 0.399512 0.612741
0.1402 0.370779 0.673228
0.168811 0.382834 0.679942
0.199969 0.401007 0.693355
0.283421 0.431662 0.701122
0.471473 0.520317 0.726955
0.617105 0.565042 0.730327
0.727764 0.590234 0.733242
0.83505 0.583154 0.716274
0.955886 0.548775 0.68603
0.0729229 0.476844 0.719982
0.0966354 0.494972 0.732586
0.121599 0.503792 0.734249
0.210452 0.541573 0.750362
0.407599 0.608576 0.770596
0.628931 0.675349 0.787243
0.77586 0.721904 0.80267
0.864652 0.723857 0.792493
0.981247 0.733089 0.791302
0.0724193 0.6318 0.761639
0.0958419 0.640986 0.773571
0.121691 0.644556 0.77499
0.149142 0.65948 0.782559
0.197574 0.682445 0.803464
0.489952 0.755428 0.819654
0.761334 0.824994 0.848295
0.899779 0.869184 0.872282
0.989151 0.900435 0.896574
0.0754864 0.800977 0.803922
0.0989548 0.81323 0.81973
0.122179 0.814832 0.810666
0.143633 0.828855 0.828244
0.153918 0.849515 0.830396
0.106737 0.869795 0.855573
0.318746 0.913848 0.893507
0.899077 0.976959 0.918685
0.976959 0.980392 0.91078
0.215686 0.14902 0.686275
0.266178 0.156863 0.690196
0.302937 0.155886 0.689219
0.34902 0.162249 0.695583
0.435294 0.180392 0.690196
0.539208 0.205386 0.686275
0.650004 0.233341 0.687251
0.758328 0.259312 0.682353
0.882353 0.25098 0.67451
0.216175 0.172549 0.686275
0.261769 0.179904 0.686275
0.304906 0.183825 0.690196
0.349691 0.189883 0.696269
0.435538 0.207843 0.688487
0.539406 0.238239 0.682841
0.647181 0.267765 0.687007
0.752392 0.294545 0.682353
0.886275 0.292653 0.681376
0.222553 0.206867 0.693141
0.262867 0.210788 0.695094
0.311025 0.217655 0.698039
0.350484 0.222675 0.697429
0.435294 0.240192 0.691661
0.543877 0.268757 0.683574
0.658091 0.310048 0.697307
0.763363 0.333577 0.686152
0.891173 0.323522 0.682353
0.234806 0.2804 0.706859
0.274388 0.282536 0.712749
0.323033 0.295827 0.721935
0.363302 0.297185 0.720104
0.45539 0.32108 0.718135
0.575494 0.350912 0.713726
0.685908 0.382727 0.713237
0.791974 0.403738 0.716487
0.908339 0.397055 0.704417
0.252934 0.368627 0.733333
0.305394 0.388235 0.748775
0.346563 0.396078 0.749508
0.397787 0.409064 0.757595
0.500984 0.436271 0.758831
0.616907 0.463478 0.758083
0.727459 0.500496 0.766659
0.820829 0.517891 0.770581
0.927459 0.507836 0.75491
0.271565 0.477943 0.795102
0.304723 0.48394 0.794736
0.353552 0.499382 0.802701
0.416968 0.52874 0.816541
0.576471 0.586526 0.828428
0.674571 0.605509 0.827024
0.772061 0.624018 0.829282
0.855756 0.639704 0.829908
0.945586 0.631861 0.821073
0.238239 0.584314 0.85687
0.281498 0.592035 0.862013
0.318868 0.601709 0.864454
0.406989 0.628183 0.871931
0.570581 0.673533 0.873045
0.721447 0.728069 0.887861
0.809308 0.747555 0.892653
0.889464 0.765438 0.89424
0.960784 0.764706 0.894118
0.123522 0.676478 0.923033
0.150912 0.695094 0.934798
0.174014 0.692409 0.930144
0.305333 0.731182 0.934493
0.501961 0.776226 0.930632
0.702754 0.826291 0.937743
0.836515 0.866911 0.953429
0.919173 0.892653 0.958328
0.98088 0.900984 0.958328
0.137255 0.87451 0.996078
0.160296 0.877943 0.996078
0.188235 0.878431 0.996078
0.222065 0.886275 0.996078
0.247059 0.896086 0.996078
0.351965 0.919112 0.994614
0.673533 0.955886 0.992157
0.88481 0.976471 0.992157
0.988235 0.984314 0.984314
