Luts/film/FujiColor 200.cube
# (C) 2014 VisionColor & Patchflyer [www.vision-color.com]
# Generator: VC Patchmatch v.2.1.1 [64/53]
# All work and no play makes Jack a dull boy.
# LUT generated from: FujiColor 200_FC
LUT_3D_SIZE 5
0.035889 0.039185 0.041596
0.272496 0.108186 0.021546
0.439582 0.142580 0.023377
0.558038 0.164126 0.027008
0.660609 0.188113 0.033295
0.115877 0.206851 0.147799
0.275792 0.233127 0.052308
0.513054 0.292271 0.065278
0.687251 0.345251 0.087556
0.786831 0.387671 0.107057
0.185153 0.393591 0.239750
0.417548 0.446479 0.134981
0.583795 0.461677 0.129580
0.750271 0.513024 0.166690
0.831327 0.552728 0.194369
0.210391 0.540642 0.331182
0.489418 0.588006 0.203586
0.680598 0.608423 0.212558
0.792111 0.641382 0.252506
0.861601 0.677058 0.293614
0.217472 0.655421 0.431220
0.505699 0.692500 0.269841
0.709346 0.701839 0.267491
0.842802 0.752194 0.364508
0.879423 0.790616 0.462745
0.026001 0.086458 0.163790
0.203372 0.113863 0.243839
0.420111 0.141939 0.241276
0.554253 0.151858 0.234226
0.686244 0.150027 0.218814
0.101564 0.246708 0.298772
0.236301 0.230137 0.243412
0.528191 0.270481 0.237400
0.723171 0.296635 0.237949
0.846738 0.311376 0.217441
0.153475 0.404456 0.408637
0.300969 0.423072 0.339239
0.532006 0.464424 0.287266
0.747494 0.504753 0.298650
0.863523 0.526329 0.281559
0.179721 0.523308 0.495705
0.335637 0.600275 0.414313
0.598016 0.642664 0.377234
0.766537 0.670863 0.402258
0.870970 0.712581 0.422156
0.192386 0.618982 0.579278
0.360021 0.748653 0.528740
0.633875 0.781064 0.475410
0.823880 0.810575 0.525628
0.883268 0.838895 0.612024
0.031250 0.133181 0.231449
0.129610 0.127138 0.334264
0.321355 0.146517 0.367132
0.463478 0.162417 0.371130
0.610834 0.163699 0.364935
0.092561 0.272068 0.382025
0.174929 0.238254 0.355322
0.366522 0.247990 0.426246
0.579431 0.272374 0.423468
0.784207 0.262821 0.382239
0.138643 0.426154 0.514153
0.269413 0.423224 0.478309
0.450935 0.441138 0.479591
0.693477 0.469673 0.466438
0.858579 0.475196 0.426032
0.165805 0.528069 0.590723
0.304051 0.568109 0.552361
0.493172 0.630396 0.542840
0.705776 0.670069 0.556085
0.873625 0.720729 0.561578
0.188418 0.617182 0.660212
0.304387 0.705928 0.657649
0.542077 0.818112 0.684627
0.794766 0.857816 0.708431
0.896757 0.884825 0.782895
0.023041 0.168490 0.302678
0.064515 0.146151 0.383825
0.262333 0.150179 0.449409
0.403906 0.163821 0.454871
0.549981 0.177127 0.456611
0.068421 0.300237 0.454658
0.145876 0.253483 0.412757
0.262379 0.242252 0.529503
0.456672 0.255497 0.536278
0.674311 0.256687 0.506737
0.125582 0.431708 0.547906
0.225925 0.419501 0.531121
0.339071 0.413123 0.574578
0.550958 0.431495 0.609674
0.776059 0.408759 0.562676
0.151827 0.525994 0.622919
0.288457 0.565972 0.626520
0.460731 0.623072 0.651331
0.677119 0.687129 0.691859
0.864591 0.701076 0.679042
0.181827 0.611231 0.696925
0.295384 0.697963 0.724880
0.493584 0.800839 0.772122
0.782254 0.880064 0.830686
0.907713 0.908293 0.877226
0.001282 0.192416 0.352422
0.016449 0.165347 0.414618
0.150301 0.149783 0.529686
0.327276 0.159426 0.550500
0.501945 0.173953 0.550835
0.027619 0.321172 0.508049
0.058198 0.261631 0.480720
0.099306 0.225467 0.569604
0.285191 0.224369 0.671351
0.555566 0.240391 0.653162
0.096254 0.436011 0.585595
0.134798 0.393469 0.561913
0.148379 0.345006 0.576959
0.256199 0.328893 0.731472
0.630671 0.366766 0.725368
0.135164 0.514549 0.638025
0.215183 0.530541 0.649592
0.279637 0.552422 0.688167
0.354955 0.563073 0.765835
0.773526 0.633478 0.799496
0.160189 0.592889 0.702419
0.248569 0.654475 0.734829
0.384771 0.756863 0.796414
0.675013 0.868986 0.863645
0.909026 0.917937 0.902220
