Luts/film/FujiColor 200.cube
# (C) 2014 VisionColor & Patchflyer [www.vision-color.com]
# Generator: VC Patchmatch v.2.1.1 [64/53]
# All work and no play makes Jack a dull boy.
# LUT generated from: FujiColor 200_FC
LUT_3D_SIZE 17
0.035889 0.039185 0.041596
0.091096 0.055787 0.039948
0.156985 0.077150 0.035462
0.212528 0.095064 0.031281
0.272496 0.108186 0.021546
0.316136 0.120150 0.024842
0.365332 0.127657 0.022278
0.412299 0.134615 0.020752
0.439582 0.142580 0.023377
0.465339 0.148898 0.026886
0.498665 0.152193 0.022980
0.531579 0.159670 0.022553
0.558038 0.164126 0.027008
0.578729 0.169284 0.032471
0.608484 0.172763 0.029358
0.636286 0.183139 0.030091
0.660609 0.188113 0.033295
0.045075 0.076661 0.066468
0.079255 0.082918 0.047944
0.145632 0.105470 0.043763
0.204623 0.121035 0.035676
0.266209 0.135866 0.023651
0.318853 0.145449 0.027100
0.374304 0.155825 0.026642
0.425422 0.167361 0.027588
0.463783 0.173587 0.028565
0.500206 0.181033 0.031830
0.534844 0.190249 0.030884
0.567346 0.198581 0.031098
0.594537 0.201389 0.034730
0.622095 0.210178 0.041016
0.654078 0.218692 0.041535
0.680354 0.227756 0.041993
0.704036 0.231266 0.044739
0.063142 0.122011 0.095247
0.097475 0.127840 0.073915
0.137331 0.133852 0.050385
0.196048 0.148745 0.042420
0.262821 0.161959 0.027863
0.320043 0.175784 0.032624
0.381384 0.187137 0.033021
0.438300 0.197452 0.033600
0.482673 0.211704 0.038697
0.521141 0.222293 0.043519
0.562554 0.229129 0.040833
0.602258 0.238926 0.041596
0.630274 0.249485 0.049134
0.656977 0.259739 0.056306
0.688319 0.266545 0.056092
0.718929 0.272709 0.054475
0.736934 0.283146 0.061219
0.090303 0.161135 0.121462
0.114931 0.168154 0.092012
0.158175 0.178561 0.066011
0.197757 0.179843 0.053010
0.268650 0.197299 0.040406
0.328618 0.206851 0.040986
0.391058 0.221653 0.042756
0.450294 0.239750 0.046906
0.502342 0.250675 0.051301
0.545281 0.259861 0.056245
0.589319 0.275456 0.059297
0.630610 0.289677 0.061677
0.663783 0.298466 0.067964
0.696193 0.306035 0.073396
0.719997 0.317601 0.076905
0.744015 0.328222 0.078676
0.763577 0.336187 0.084627
0.115877 0.206851 0.147799
0.146456 0.215854 0.110811
0.182284 0.229557 0.076600
0.233341 0.233921 0.064210
0.275792 0.233127 0.052308
0.337163 0.247166 0.053223
0.400488 0.262577 0.055390
0.461311 0.278782 0.059113
0.513054 0.292271 0.065278
0.562493 0.308171 0.072694
0.613306 0.322240 0.078553
0.655756 0.335180 0.080903
0.687251 0.345251 0.087556
0.716823 0.357031 0.094209
0.742733 0.369574 0.098726
0.767544 0.380285 0.101381
0.786831 0.387671 0.107057
0.137270 0.251743 0.171817
0.169772 0.265202 0.131441
0.213321 0.280217 0.096803
0.264652 0.287083 0.083619
0.316808 0.290867 0.073762
0.354711 0.290288 0.068879
0.415320 0.302708 0.070283
0.477821 0.320714 0.074037
0.532219 0.337255 0.082094
0.579095 0.351995 0.089998
0.629969 0.365393 0.094270
0.676020 0.380896 0.100832
0.707424 0.393591 0.108736
0.736171 0.404608 0.114656
0.761807 0.416541 0.118837
0.785489 0.427070 0.122927
0.799588 0.435859 0.128389
0.156039 0.297612 0.194553
0.191745 0.314092 0.153170
0.244541 0.331640 0.117922
0.296818 0.340887 0.103487
0.355901 0.347356 0.094545
0.397986 0.349828 0.089815
0.436194 0.350530 0.086702
0.497963 0.366766 0.089754
0.548333 0.378424 0.098024
0.597803 0.393286 0.107027
0.647120 0.409461 0.114046
0.690578 0.423194 0.121309
0.724910 0.436133 0.128237
0.755795 0.447974 0.136141
0.776761 0.458930 0.141817
0.796689 0.468544 0.146609
0.811124 0.477363 0.150515
0.172152 0.348760 0.217136
0.222751 0.367773 0.176059
0.278202 0.388098 0.137423
0.334386 0.396399 0.124086
0.393133 0.402441 0.114870
0.442908 0.408698 0.110384
0.481941 0.410712 0.107851
0.517510 0.411414 0.105043
0.567102 0.422339 0.113039
0.613397 0.433509 0.121645
0.662837 0.450446 0.131746
0.705959 0.463813 0.139864
0.739834 0.475807 0.146761
0.768124 0.487526 0.155856
0.787533 0.498573 0.164187
0.807279 0.507683 0.169070
0.822416 0.516167 0.172366
0.185153 0.393591 0.239750
0.242741 0.414649 0.196628
0.299931 0.433326 0.158694
0.362341 0.441718 0.143832
0.417548 0.446479 0.134981
0.470405 0.451637 0.131014
0.512200 0.456641 0.130068
0.549035 0.458015 0.127962
0.583795 0.461677 0.129580
0.630030 0.472877 0.137057
0.677089 0.487434 0.146151
0.719356 0.501762 0.157443
0.750271 0.513024 0.166690
0.778408 0.524559 0.175692
0.797818 0.534783 0.183719
0.818173 0.545708 0.189395
0.831327 0.552728 0.194369
0.196139 0.433631 0.261875
0.254185 0.455970 0.215732
0.322789 0.473091 0.180209
0.384833 0.481453 0.163088
0.441535 0.486336 0.155306
0.495033 0.491127 0.150668
0.536980 0.495979 0.150027
0.578576 0.500755 0.149966
0.613184 0.503685 0.150454
0.644617 0.508263 0.153903
0.689143 0.521691 0.165591
0.730434 0.534905 0.177005
0.759579 0.544244 0.185733
0.787839 0.556756 0.195804
0.807340 0.567437 0.203098
0.827054 0.580255 0.212345
0.837858 0.587243 0.216861
0.202274 0.471504 0.285008
0.268467 0.493233 0.236545
0.341588 0.510552 0.197848
0.401679 0.518669 0.179110
0.463142 0.522240 0.172244
0.516808 0.526604 0.166598
0.559960 0.531640 0.168032
0.603540 0.537194 0.170748
0.640497 0.541192 0.171023
0.670832 0.547723 0.177768
0.700130 0.554772 0.185428
0.741176 0.567346 0.196445
0.770077 0.575860 0.204685
0.796750 0.586297 0.216037
0.815488 0.597436 0.227420
0.835203 0.610254 0.236606
0.846586 0.617792 0.240513
0.205631 0.507469 0.308263
0.283970 0.527520 0.257969
0.357977 0.546014 0.212924
0.420844 0.553185 0.195010
0.480415 0.556329 0.188388
0.535760 0.560143 0.182681
0.580987 0.565698 0.185794
0.623377 0.571038 0.189273
0.664271 0.577356 0.192630
0.695186 0.585077 0.200473
0.723873 0.591974 0.207980
0.751553 0.598657 0.215213
0.781094 0.608698 0.227604
0.808072 0.619745 0.241154
0.825650 0.628992 0.251408
0.843107 0.639460 0.260197
0.855375 0.647486 0.264439
0.210391 0.540642 0.331182
0.286931 0.560143 0.282170
0.362493 0.578241 0.234867
0.432166 0.585077 0.210269
0.489418 0.588006 0.203586
0.550408 0.591241 0.199435
0.597223 0.595972 0.201144
0.637812 0.600732 0.204074
0.680598 0.608423 0.212558
0.716884 0.618006 0.222690
0.744961 0.624781 0.230045
0.769772 0.632746 0.240360
0.792111 0.641382 0.252506
0.819242 0.652766 0.265965
0.836881 0.662104 0.276310
0.853269 0.671778 0.284977
0.861601 0.677058 0.293614
0.212955 0.571038 0.354131
0.285679 0.590967 0.303685
0.368078 0.606806 0.255711
0.441260 0.613825 0.223606
0.497566 0.615686 0.217197
0.560265 0.618677 0.214817
0.611292 0.622034 0.215702
0.652216 0.627680 0.220829
0.694240 0.635676 0.230289
0.733272 0.645319 0.241367
0.763760 0.655909 0.253178
0.786679 0.664546 0.265202
0.809323 0.673091 0.277073
0.829007 0.682277 0.290806
0.846342 0.693019 0.304143
0.858915 0.701137 0.319738
0.866789 0.709163 0.329595
0.215457 0.599725 0.377935
0.288548 0.619959 0.321965
0.371893 0.634760 0.274601
0.446265 0.642206 0.239628
0.508171 0.641505 0.231449
0.568322 0.643915 0.228550
0.620111 0.646448 0.227878
0.664240 0.652430 0.235752
0.704494 0.659602 0.244266
0.743557 0.667109 0.253056
0.776608 0.682948 0.277745
0.803220 0.694942 0.296056
0.825956 0.703517 0.307958
0.844419 0.712245 0.322240
0.851438 0.720516 0.342290
0.864134 0.729397 0.358953
0.872129 0.738186 0.369757
0.215183 0.625360 0.403052
0.291569 0.644831 0.345251
0.371160 0.660243 0.296941
0.445563 0.668544 0.259831
0.509636 0.663508 0.242374
0.568475 0.665309 0.238376
0.623743 0.668910 0.238865
0.669032 0.674983 0.247868
0.711635 0.681453 0.256718
0.749538 0.688930 0.267399
0.782559 0.704036 0.293278
0.814664 0.720821 0.321324
0.841825 0.732845 0.341009
0.854826 0.741604 0.357855
0.862058 0.750088 0.378454
0.869596 0.759030 0.400092
0.877379 0.767758 0.412848
0.217472 0.655421 0.431220
0.291783 0.674342 0.375036
0.363195 0.692134 0.321996
0.443519 0.698054 0.287358
0.505699 0.692500 0.269841
0.566400 0.690089 0.255436
0.625299 0.692164 0.252232
0.668025 0.697047 0.259953
0.709346 0.701839 0.267491
0.751736 0.708400 0.282017
0.784848 0.720150 0.303685
0.815976 0.735805 0.330571
0.842802 0.752194 0.364508
0.861692 0.766140 0.399817
0.869230 0.774868 0.420874
0.876432 0.783780 0.442817
0.879423 0.790616 0.462745
0.031891 0.047791 0.075013
0.077821 0.058564 0.094820
0.146181 0.079072 0.091585
0.208194 0.096376 0.084596
0.268833 0.107973 0.079561
0.328984 0.119875 0.076600
0.376501 0.126345 0.070893
0.417609 0.131868 0.070405
0.454932 0.135531 0.068666
0.478004 0.140963 0.068788
0.505913 0.143221 0.063386
0.528496 0.145052 0.062135
0.562005 0.147982 0.061341
0.582208 0.152224 0.063111
0.607874 0.155093 0.057923
0.625788 0.156954 0.056367
0.653284 0.162875 0.054963
0.045808 0.083711 0.096315
0.081666 0.087739 0.089235
0.152438 0.109621 0.084077
0.223545 0.126406 0.079744
0.285313 0.138521 0.074952
0.347814 0.149966 0.071717
0.402014 0.156527 0.071992
0.445655 0.162112 0.070680
0.487495 0.168582 0.067750
0.527947 0.174014 0.067750
0.558923 0.179080 0.070192
0.588129 0.183230 0.070649
0.618738 0.191623 0.071443
0.651545 0.197421 0.073487
0.684382 0.201419 0.075105
0.709072 0.207126 0.076020
0.727016 0.215610 0.072572
0.063264 0.129549 0.126314
0.100801 0.131716 0.116701
0.142428 0.139193 0.089479
0.214847 0.157198 0.084840
0.282261 0.169863 0.079072
0.347326 0.181613 0.075837
0.405280 0.187381 0.076783
0.460914 0.199741 0.079927
0.506554 0.209751 0.079194
0.546502 0.214023 0.078859
0.582910 0.219791 0.080812
0.620203 0.230961 0.084138
0.652857 0.241276 0.086427
0.684810 0.245853 0.088075
0.716213 0.249302 0.089418
0.740902 0.258915 0.091310
0.756069 0.270237 0.090730
0.086427 0.168185 0.150271
0.118563 0.172549 0.140017
0.158755 0.179904 0.114046
0.210025 0.191043 0.088746
0.276036 0.202365 0.083986
0.344701 0.214206 0.081697
0.409400 0.228946 0.086213
0.465583 0.240940 0.088594
0.518883 0.249119 0.088411
0.565820 0.260258 0.091920
0.602960 0.270909 0.095338
0.639643 0.280491 0.098238
0.676417 0.289342 0.100343
0.711604 0.297917 0.102724
0.738277 0.307195 0.104921
0.762325 0.315129 0.106386
0.782254 0.322911 0.107454
0.109224 0.214054 0.181674
0.141085 0.215732 0.163638
0.183749 0.227512 0.130922
0.235813 0.242313 0.106722
0.285344 0.244144 0.095460
0.352483 0.256016 0.094087
0.418585 0.269230 0.098451
0.475746 0.282750 0.102693
0.531518 0.297734 0.104829
0.581292 0.307713 0.107485
0.625422 0.317754 0.113893
0.663050 0.328771 0.118288
0.697505 0.341650 0.119722
0.731502 0.351324 0.121706
0.760586 0.360143 0.125307
0.785092 0.367376 0.127077
0.799649 0.375158 0.127321
0.130526 0.257816 0.205692
0.160555 0.264286 0.186282
0.208103 0.276249 0.152285
0.259892 0.292119 0.124422
0.316564 0.298924 0.113863
0.363836 0.299077 0.104463
0.429328 0.313268 0.108919
0.487343 0.328496 0.114076
0.542779 0.342809 0.120272
0.592584 0.351843 0.122530
0.637995 0.364874 0.128389
0.678157 0.377722 0.135225
0.715908 0.389715 0.139651
0.749538 0.398260 0.141299
0.777279 0.407477 0.144686
0.797635 0.417182 0.147127
0.811612 0.425513 0.148135
0.149386 0.302129 0.228885
0.178531 0.315618 0.208988
0.225650 0.328069 0.175265
0.286320 0.344152 0.146731
0.343847 0.352667 0.134157
0.399054 0.358587 0.126436
0.445624 0.360815 0.119936
0.500481 0.372625 0.124178
0.552575 0.384771 0.130526
0.604486 0.398932 0.136660
0.648737 0.410925 0.143587
0.689845 0.423163 0.149172
0.728054 0.434546 0.153964
0.761685 0.444404 0.160189
0.785855 0.454078 0.163546
0.806302 0.463264 0.165927
0.822293 0.471382 0.168704
0.164034 0.349706 0.258244
0.195468 0.362097 0.231785
0.252293 0.379126 0.195834
0.315129 0.393317 0.168643
0.373388 0.402625 0.154330
0.431891 0.410285 0.147707
0.482368 0.415320 0.141360
0.519341 0.416724 0.139254
0.570428 0.427314 0.145083
0.616968 0.437263 0.151705
0.663600 0.450874 0.159854
0.703609 0.463600 0.167025
0.736812 0.474464 0.174502
0.771450 0.485908 0.179873
0.795377 0.495369 0.183169
0.815641 0.504692 0.185672
0.830564 0.512688 0.188266
0.176852 0.392309 0.282658
0.206821 0.409247 0.251713
0.277958 0.426123 0.216617
0.342351 0.440558 0.187320
0.401740 0.450355 0.173495
0.458381 0.456031 0.167758
0.512749 0.463874 0.161837
0.551751 0.466835 0.160739
0.587793 0.468666 0.159274
0.633875 0.477546 0.165469
0.677028 0.488319 0.175204
0.714992 0.501518 0.185885
0.746639 0.511650 0.194491
0.781369 0.522759 0.199863
0.806363 0.532036 0.201724
0.824491 0.541802 0.208164
0.836667 0.548455 0.211765
0.188571 0.431312 0.302708
0.219669 0.452735 0.273503
0.290929 0.469032 0.239536
0.360082 0.484443 0.207156
0.423865 0.493996 0.192477
0.477852 0.499092 0.186496
0.534691 0.505974 0.183413
0.578637 0.512688 0.183017
0.613764 0.514458 0.181582
0.649409 0.518364 0.182589
0.692012 0.528771 0.192874
0.727443 0.538445 0.202976
0.757656 0.546990 0.211795
0.790677 0.557610 0.218814
0.815549 0.568383 0.224308
0.833646 0.578790 0.232425
0.843107 0.583825 0.233768
0.194705 0.467018 0.327703
0.226261 0.492409 0.294286
0.295842 0.508446 0.260044
0.372076 0.521996 0.227817
0.440986 0.532036 0.207889
0.493965 0.536645 0.202884
0.552392 0.543511 0.202640
0.599390 0.549432 0.203861
0.637903 0.555047 0.205234
0.673213 0.559442 0.206790
0.704829 0.564813 0.210910
0.740993 0.575555 0.220066
0.770657 0.584222 0.230381
0.799649 0.593042 0.242924
0.823789 0.604181 0.247868
0.842496 0.614466 0.255802
0.850828 0.619196 0.257084
0.197665 0.500206 0.354864
0.232273 0.526482 0.317876
0.307225 0.542992 0.277104
0.385687 0.555474 0.245457
0.455116 0.564996 0.223789
0.512108 0.570214 0.221225
0.568414 0.576410 0.220523
0.616785 0.581964 0.221500
0.658320 0.589929 0.227604
0.694820 0.595880 0.230228
0.727291 0.600458 0.232700
0.752041 0.608454 0.243107
0.782040 0.618311 0.255619
0.810849 0.627741 0.267674
0.832334 0.637324 0.271855
0.851225 0.648341 0.279240
0.858549 0.653956 0.283757
0.202640 0.533532 0.376654
0.234348 0.558740 0.340368
0.318334 0.574121 0.292210
0.395331 0.586511 0.260075
0.465278 0.595941 0.237644
0.527489 0.599390 0.235294
0.581689 0.605615 0.235019
0.632471 0.612421 0.238163
0.674495 0.620752 0.247837
0.713466 0.628626 0.253910
0.746792 0.634211 0.257084
0.770596 0.642725 0.268559
0.793179 0.651240 0.280400
0.822080 0.660914 0.292607
0.843626 0.670741 0.296971
0.857939 0.678248 0.308812
0.863157 0.683833 0.317479
0.205661 0.563561 0.396979
0.238407 0.592248 0.364630
0.321355 0.606958 0.317510
0.399145 0.620264 0.277836
0.474434 0.628138 0.255772
0.534447 0.631800 0.253910
0.591363 0.636133 0.252598
0.646693 0.642786 0.257481
0.687465 0.651026 0.266911
0.727382 0.658900 0.275883
0.762997 0.668208 0.285527
0.788510 0.676112 0.295171
0.811276 0.684688 0.307103
0.831846 0.693416 0.320317
0.849119 0.700435 0.331487
0.862669 0.708064 0.345586
0.868498 0.716823 0.353918
0.207889 0.589166 0.418677
0.241520 0.625544 0.388373
0.322362 0.639887 0.342443
0.403326 0.651392 0.300755
0.481636 0.658930 0.274815
0.539422 0.661433 0.272709
0.598016 0.665034 0.271519
0.656733 0.670069 0.272892
0.698024 0.677638 0.281163
0.736355 0.685664 0.292271
0.772946 0.694636 0.309300
0.803800 0.704036 0.322911
0.826719 0.712673 0.334936
0.840696 0.721553 0.351293
0.853910 0.730892 0.369024
0.867552 0.739162 0.383948
0.873594 0.748989 0.393591
0.207614 0.613458 0.445228
0.243015 0.658808 0.412512
0.321569 0.673030 0.367071
0.405982 0.680995 0.329686
0.486580 0.688167 0.294347
0.542229 0.689418 0.290959
0.602472 0.693141 0.289830
0.660853 0.696834 0.288853
0.706600 0.702541 0.294682
0.742977 0.710719 0.309911
0.778653 0.719142 0.326635
0.813931 0.728603 0.345037
0.837064 0.741726 0.370092
0.850004 0.750851 0.387488
0.863523 0.760372 0.405615
0.872679 0.769558 0.426764
0.876493 0.774533 0.440253
0.210117 0.643824 0.472236
0.245151 0.687007 0.442756
0.319677 0.698482 0.394202
0.402625 0.706294 0.357488
0.481483 0.713741 0.322576
0.539208 0.710079 0.303288
0.596399 0.712123 0.299535
0.651942 0.714656 0.297398
0.699977 0.719142 0.303471
0.742916 0.726223 0.320195
0.778164 0.733547 0.335851
0.813565 0.741176 0.351995
0.834714 0.758083 0.393439
0.855314 0.773770 0.433509
0.869291 0.783627 0.452277
0.875547 0.791257 0.471504
0.878660 0.798398 0.492287
0.028473 0.060426 0.111910
0.067964 0.067597 0.130617
0.127413 0.081636 0.152834
0.189853 0.098634 0.151034
0.258274 0.110384 0.147890
0.316289 0.121767 0.145296
0.372747 0.129580 0.142672
0.418494 0.135622 0.140383
0.456458 0.138796 0.135927
0.490089 0.142275 0.134035
0.519524 0.143526 0.130648
0.541833 0.145357 0.127993
0.574884 0.148257 0.125246
0.602472 0.149966 0.125185
0.632624 0.149416 0.122133
0.649989 0.151400 0.119112
0.679683 0.157259 0.115328
0.043030 0.098695 0.133730
0.074922 0.098116 0.125093
0.132174 0.109895 0.149447
0.204623 0.125917 0.141604
0.272740 0.137301 0.135622
0.333074 0.146548 0.127810
0.394324 0.153262 0.125704
0.442359 0.158297 0.123018
0.478187 0.160494 0.117647
0.518242 0.164187 0.114046
0.556329 0.167880 0.112947
0.584314 0.170840 0.110567
0.607294 0.171969 0.108034
0.639002 0.176455 0.106477
0.675959 0.179751 0.105135
0.701564 0.184176 0.102693
0.717952 0.187167 0.094697
0.062226 0.137667 0.161196
0.098756 0.139620 0.153689
0.139101 0.140444 0.140719
0.208957 0.156710 0.135988
0.285771 0.170016 0.134096
0.350317 0.178500 0.131197
0.412024 0.188052 0.129946
0.472053 0.192782 0.127779
0.514885 0.197879 0.126436
0.556451 0.202823 0.124483
0.596185 0.211032 0.125032
0.641352 0.214817 0.125826
0.677028 0.219821 0.127291
0.709285 0.224552 0.127321
0.737087 0.234623 0.126711
0.764065 0.239902 0.125948
0.780118 0.245670 0.123568
0.084413 0.177157 0.187106
0.116548 0.179995 0.175113
0.154940 0.179538 0.163516
0.203189 0.190066 0.139590
0.281651 0.206332 0.137453
0.353491 0.220829 0.136965
0.417609 0.230564 0.137545
0.477485 0.234134 0.135195
0.527001 0.245640 0.137026
0.576532 0.254002 0.139040
0.615717 0.260868 0.139223
0.660334 0.263218 0.139590
0.696376 0.271641 0.140932
0.730129 0.282475 0.142550
0.758633 0.291142 0.141848
0.785031 0.294896 0.140688
0.806455 0.297002 0.140230
0.102785 0.222751 0.216312
0.134554 0.221897 0.202182
0.169741 0.220890 0.184237
0.219303 0.231968 0.161776
0.281102 0.245182 0.140169
0.351965 0.258244 0.140810
0.417700 0.270390 0.144167
0.481971 0.285557 0.147066
0.533165 0.297917 0.148135
0.584192 0.305333 0.149111
0.630884 0.311589 0.152010
0.674098 0.319005 0.152926
0.708827 0.328069 0.153933
0.742275 0.337530 0.155276
0.776303 0.344976 0.155581
0.801236 0.350774 0.153780
0.816464 0.356756 0.151583
0.123140 0.264866 0.245212
0.152987 0.268589 0.228336
0.186679 0.267002 0.205783
0.244297 0.279545 0.180423
0.306554 0.296300 0.160342
0.361425 0.302831 0.148043
0.424170 0.314611 0.152895
0.489906 0.330480 0.156497
0.542657 0.343084 0.161746
0.593591 0.353674 0.163668
0.641474 0.362188 0.166049
0.685664 0.369207 0.167422
0.724544 0.377966 0.171389
0.756771 0.387701 0.171115
0.785580 0.398566 0.171664
0.811521 0.405463 0.169497
0.827176 0.410773 0.167239
0.141360 0.306035 0.272251
0.171084 0.319249 0.249943
0.205600 0.319677 0.230533
0.265568 0.330907 0.202914
0.326055 0.346807 0.181857
0.388037 0.358221 0.169192
0.437903 0.361120 0.161105
0.499184 0.373175 0.165927
0.552514 0.387915 0.172091
0.603967 0.400153 0.177920
0.651606 0.408118 0.181369
0.696864 0.414435 0.181460
0.734737 0.424872 0.187289
0.764950 0.435218 0.190188
0.793515 0.444923 0.190738
0.820310 0.451331 0.187961
0.838254 0.457282 0.186465
0.155703 0.349584 0.300511
0.186954 0.361395 0.275029
0.221775 0.371160 0.253483
0.280003 0.382055 0.226596
0.346899 0.396429 0.202701
0.408484 0.408637 0.188876
0.461646 0.415961 0.182254
0.511864 0.420966 0.175204
0.563134 0.432044 0.181552
0.612299 0.441291 0.187961
0.661402 0.451423 0.194308
0.703761 0.461067 0.199893
0.743191 0.471443 0.204501
0.773495 0.481636 0.207523
0.801114 0.488960 0.208652
0.828122 0.495003 0.206302
0.843473 0.504051 0.210636
0.168338 0.390906 0.325628
0.197208 0.404059 0.300755
0.234989 0.420111 0.274693
0.297246 0.431769 0.247257
0.366644 0.443854 0.224002
0.430518 0.454780 0.208438
0.485603 0.464027 0.202853
0.537255 0.471260 0.196811
0.577752 0.474342 0.193057
0.624842 0.483558 0.200473
0.666743 0.492195 0.211673
0.710933 0.503532 0.216587
0.751339 0.515007 0.221256
0.780484 0.524193 0.224979
0.807950 0.534356 0.229343
0.831174 0.540917 0.231571
0.847257 0.549310 0.235111
0.179171 0.426795 0.350622
0.210147 0.447211 0.322179
0.244236 0.462348 0.295476
0.320562 0.475135 0.264225
0.386725 0.485542 0.241154
0.450599 0.496925 0.225376
0.508141 0.504814 0.224002
0.560845 0.514031 0.219272
0.604517 0.519677 0.216587
0.639887 0.524071 0.218143
0.681392 0.531640 0.228916
0.722408 0.539727 0.233677
0.762509 0.550225 0.238285
0.789120 0.561059 0.247654
0.815946 0.572290 0.254185
0.839841 0.579858 0.255009
0.852872 0.586664 0.258549
0.185702 0.460975 0.375555
0.217136 0.486915 0.341253
0.252598 0.502007 0.316411
0.330755 0.514458 0.284886
0.400092 0.525048 0.258396
0.468025 0.537133 0.244083
0.524102 0.544335 0.243931
0.577081 0.552178 0.242130
0.627619 0.561456 0.242618
0.662196 0.565728 0.244144
0.695552 0.569879 0.245609
0.735653 0.577783 0.252750
0.772244 0.586542 0.262699
0.798093 0.596155 0.271427
0.823850 0.608362 0.278172
0.848081 0.616632 0.279728
0.860288 0.622461 0.282139
0.189700 0.493568 0.400153
0.223728 0.519310 0.363714
0.259983 0.540795 0.337011
0.336065 0.552911 0.306310
0.411963 0.563745 0.277928
0.483040 0.575128 0.262058
0.536828 0.581994 0.261753
0.592279 0.588983 0.263981
0.646540 0.597345 0.266178
0.683589 0.604425 0.269505
0.716060 0.609339 0.272160
0.747066 0.616114 0.277714
0.783505 0.624384 0.287327
0.809110 0.633265 0.295567
0.832547 0.643671 0.302281
0.854826 0.653101 0.306615
0.863645 0.658442 0.315496
0.194766 0.525750 0.420783
0.224887 0.546990 0.386267
0.264195 0.580224 0.356725
0.338445 0.592035 0.326787
0.418830 0.601129 0.300908
0.495949 0.611658 0.278996
0.548272 0.618402 0.278752
0.605280 0.625238 0.283513
0.661311 0.631708 0.288426
0.702022 0.639185 0.293248
0.735256 0.647456 0.299718
0.765835 0.654169 0.305211
0.794766 0.661311 0.312139
0.820462 0.671321 0.320470
0.841581 0.679713 0.330907
0.858091 0.688350 0.340337
0.867033 0.695369 0.349767
0.196475 0.552483 0.442512
0.229007 0.580316 0.409613
0.267887 0.615228 0.380224
0.347631 0.626398 0.346014
0.427497 0.635126 0.320806
0.504173 0.644373 0.297185
0.561791 0.649012 0.297093
0.617304 0.654994 0.301457
0.671351 0.660883 0.305699
0.714931 0.668330 0.315740
0.750057 0.678004 0.326970
0.781308 0.685328 0.333043
0.811978 0.692164 0.338750
0.825895 0.701076 0.355200
0.846616 0.710292 0.367224
0.863523 0.720272 0.376989
0.871824 0.730739 0.385992
0.198428 0.577203 0.463905
0.232334 0.613916 0.432258
0.270268 0.647791 0.404089
0.354650 0.655756 0.366705
0.432746 0.664118 0.340459
0.507378 0.672419 0.317327
0.570001 0.677913 0.315465
0.626795 0.683314 0.317510
0.679469 0.689570 0.322179
0.724239 0.696864 0.333989
0.760739 0.706050 0.350988
0.795865 0.715694 0.363378
0.823423 0.722988 0.371130
0.837980 0.731960 0.387518
0.851530 0.741512 0.405707
0.868620 0.752499 0.416724
0.876127 0.761166 0.428717
0.198825 0.601801 0.488563
0.234104 0.647334 0.455146
0.275761 0.682216 0.432624
0.358068 0.689967 0.396185
0.436805 0.697414 0.361334
0.513085 0.705745 0.342351
0.575250 0.711299 0.338964
0.632593 0.716152 0.338964
0.687190 0.720424 0.341527
0.733639 0.726406 0.352026
0.769070 0.734798 0.368383
0.804959 0.743526 0.385779
0.833097 0.753414 0.409461
0.849515 0.762417 0.425269
0.863493 0.772305 0.444068
0.871916 0.780209 0.462226
0.878813 0.787717 0.476997
0.202976 0.632746 0.511589
0.237644 0.673823 0.483803
0.278019 0.710964 0.462989
0.358618 0.718563 0.427314
0.436255 0.725521 0.395636
0.513664 0.731502 0.370703
0.575067 0.735683 0.364752
0.630213 0.739010 0.364599
0.684077 0.743923 0.364263
0.736324 0.749233 0.365881
0.772824 0.756649 0.381842
0.803983 0.765438 0.404211
0.833280 0.775448 0.432929
0.857939 0.789548 0.470436
0.870024 0.799130 0.491402
0.876554 0.806485 0.509606
0.881315 0.814145 0.530541
0.029938 0.075044 0.141451
0.049500 0.076448 0.157534
0.106294 0.090211 0.186435
0.166934 0.101076 0.199710
0.229068 0.112093 0.200534
0.295171 0.121889 0.197574
0.352209 0.129549 0.194553
0.400214 0.136599 0.193729
0.443885 0.141512 0.194003
0.478584 0.144778 0.192020
0.511803 0.145632 0.187900
0.540276 0.147005 0.185916
0.572076 0.148440 0.186282
0.601312 0.149630 0.185763
