Luts/film/FujiColor 200.cube
# (C) 2014 VisionColor & Patchflyer [www.vision-color.com]
# Generator: VC Patchmatch v.2.1.1 [64/53]
# All work and no play makes Jack a dull boy.
# LUT generated from: FujiColor 200_FC
LUT_3D_SIZE 9
0.035889 0.039185 0.041596
0.156985 0.077150 0.035462
0.272496 0.108186 0.021546
0.365332 0.127657 0.022278
0.439582 0.142580 0.023377
0.498665 0.152193 0.022980
0.558038 0.164126 0.027008
0.608484 0.172763 0.029358
0.660609 0.188113 0.033295
0.063142 0.122011 0.095247
0.137331 0.133852 0.050385
0.262821 0.161959 0.027863
0.381384 0.187137 0.033021
0.482673 0.211704 0.038697
0.562554 0.229129 0.040833
0.630274 0.249485 0.049134
0.688319 0.266545 0.056092
0.736934 0.283146 0.061219
0.115877 0.206851 0.147799
0.182284 0.229557 0.076600
0.275792 0.233127 0.052308
0.400488 0.262577 0.055390
0.513054 0.292271 0.065278
0.613306 0.322240 0.078553
0.687251 0.345251 0.087556
0.742733 0.369574 0.098726
0.786831 0.387671 0.107057
0.156039 0.297612 0.194553
0.244541 0.331640 0.117922
0.355901 0.347356 0.094545
0.436194 0.350530 0.086702
0.548333 0.378424 0.098024
0.647120 0.409461 0.114046
0.724910 0.436133 0.128237
0.776761 0.458930 0.141817
0.811124 0.477363 0.150515
0.185153 0.393591 0.239750
0.299931 0.433326 0.158694
0.417548 0.446479 0.134981
0.512200 0.456641 0.130068
0.583795 0.461677 0.129580
0.677089 0.487434 0.146151
0.750271 0.513024 0.166690
0.797818 0.534783 0.183719
0.831327 0.552728 0.194369
0.202274 0.471504 0.285008
0.341588 0.510552 0.197848
0.463142 0.522240 0.172244
0.559960 0.531640 0.168032
0.640497 0.541192 0.171023
0.700130 0.554772 0.185428
0.770077 0.575860 0.204685
0.815488 0.597436 0.227420
0.846586 0.617792 0.240513
0.210391 0.540642 0.331182
0.362493 0.578241 0.234867
0.489418 0.588006 0.203586
0.597223 0.595972 0.201144
0.680598 0.608423 0.212558
0.744961 0.624781 0.230045
0.792111 0.641382 0.252506
0.836881 0.662104 0.276310
0.861601 0.677058 0.293614
0.215457 0.599725 0.377935
0.371893 0.634760 0.274601
0.508171 0.641505 0.231449
0.620111 0.646448 0.227878
0.704494 0.659602 0.244266
0.776608 0.682948 0.277745
0.825956 0.703517 0.307958
0.851438 0.720516 0.342290
0.872129 0.738186 0.369757
0.217472 0.655421 0.431220
0.363195 0.692134 0.321996
0.505699 0.692500 0.269841
0.625299 0.692164 0.252232
0.709346 0.701839 0.267491
0.784848 0.720150 0.303685
0.842802 0.752194 0.364508
0.869230 0.774868 0.420874
0.879423 0.790616 0.462745
0.028473 0.060426 0.111910
0.127413 0.081636 0.152834
0.258274 0.110384 0.147890
0.372747 0.129580 0.142672
0.456458 0.138796 0.135927
0.519524 0.143526 0.130648
0.574884 0.148257 0.125246
0.632624 0.149416 0.122133
0.679683 0.157259 0.115328
0.062226 0.137667 0.161196
0.139101 0.140444 0.140719
0.285771 0.170016 0.134096
0.412024 0.188052 0.129946
0.514885 0.197879 0.126436
0.596185 0.211032 0.125032
0.677028 0.219821 0.127291
0.737087 0.234623 0.126711
0.780118 0.245670 0.123568
0.102785 0.222751 0.216312
0.169741 0.220890 0.184237
0.281102 0.245182 0.140169
0.417700 0.270390 0.144167
0.533165 0.297917 0.148135
0.630884 0.311589 0.152010
0.708827 0.328069 0.153933
0.776303 0.344976 0.155581
0.816464 0.356756 0.151583
0.141360 0.306035 0.272251
0.205600 0.319677 0.230533
0.326055 0.346807 0.181857
0.437903 0.361120 0.161105
0.552514 0.387915 0.172091
0.651606 0.408118 0.181369
0.734737 0.424872 0.187289
0.793515 0.444923 0.190738
0.838254 0.457282 0.186465
0.168338 0.390906 0.325628
0.234989 0.420111 0.274693
0.366644 0.443854 0.224002
0.485603 0.464027 0.202853
0.577752 0.474342 0.193057
0.666743 0.492195 0.211673
0.751339 0.515007 0.221256
0.807950 0.534356 0.229343
0.847257 0.549310 0.235111
0.185702 0.460975 0.375555
0.252598 0.502007 0.316411
0.400092 0.525048 0.258396
0.524102 0.544335 0.243931
0.627619 0.561456 0.242618
0.695552 0.569879 0.245609
0.772244 0.586542 0.262699
0.823850 0.608362 0.278172
0.860288 0.622461 0.282139
0.194766 0.525750 0.420783
0.264195 0.580224 0.356725
0.418830 0.601129 0.300908
0.548272 0.618402 0.278752
0.661311 0.631708 0.288426
0.735256 0.647456 0.299718
0.794766 0.661311 0.312139
0.841581 0.679713 0.330907
0.867033 0.695369 0.349767
0.198428 0.577203 0.463905
0.270268 0.647791 0.404089
0.432746 0.664118 0.340459
0.570001 0.677913 0.315465
0.679469 0.689570 0.322179
0.760739 0.706050 0.350988
0.823423 0.722988 0.371130
0.851530 0.741512 0.405707
0.876127 0.761166 0.428717
0.202976 0.632746 0.511589
0.278019 0.710964 0.462989
0.436255 0.725521 0.395636
0.575067 0.735683 0.364752
0.684077 0.743923 0.364263
0.772824 0.756649 0.381842
0.833280 0.775448 0.432929
0.870024 0.799130 0.491402
0.881315 0.814145 0.530541
0.026001 0.086458 0.163790
0.079896 0.094453 0.215183
0.203372 0.113863 0.243839
0.323644 0.129519 0.243961
0.420111 0.141939 0.241276
0.491524 0.149233 0.237613
0.554253 0.151858 0.234226
0.616053 0.151858 0.230167
0.686244 0.150027 0.218814
0.057496 0.159182 0.212222
0.114839 0.149325 0.194644
0.213321 0.164462 0.245426
0.353613 0.181277 0.238224
0.464942 0.191135 0.233188
0.560754 0.198489 0.225650
0.638544 0.203098 0.221714
0.714168 0.204410 0.212100
0.781247 0.209384 0.199039
0.101564 0.246708 0.298772
0.158694 0.232853 0.265507
0.236301 0.230137 0.243412
0.396185 0.255650 0.243717
0.528191 0.270481 0.237400
0.634791 0.285618 0.239139
0.723171 0.296635 0.237949
0.801266 0.303349 0.228367
0.846738 0.311376 0.217441
0.131777 0.327459 0.354437
0.189242 0.324865 0.318059
0.272892 0.323980 0.295628
0.392248 0.347875 0.258640
0.529931 0.374823 0.259922
0.647791 0.394507 0.263279
0.737362 0.409735 0.263432
0.812955 0.418128 0.251408
0.857908 0.423774 0.241581
0.153475 0.404456 0.408637
0.216892 0.415137 0.365270
0.300969 0.423072 0.339239
0.425544 0.445655 0.304936
0.532006 0.464424 0.287266
0.648341 0.484901 0.296300
0.747494 0.504753 0.298650
0.821469 0.521843 0.294316
0.863523 0.526329 0.281559
0.170138 0.465522 0.451850
0.233555 0.487953 0.409186
0.320195 0.515038 0.376043
0.451850 0.534752 0.343481
0.565881 0.559960 0.334386
0.657710 0.571984 0.336400
0.752621 0.589502 0.348821
0.829770 0.614740 0.346777
0.865171 0.623590 0.347082
0.179721 0.523308 0.495705
0.243961 0.559411 0.447852
0.335637 0.600275 0.414313
0.472633 0.619043 0.385229
0.598016 0.642664 0.377234
0.695583 0.658961 0.390784
0.766537 0.670863 0.402258
0.838407 0.693843 0.413336
0.870970 0.712581 0.422156
0.187106 0.569238 0.532128
0.247745 0.616632 0.490547
0.349126 0.682246 0.461952
0.497902 0.698573 0.430426
0.623163 0.720485 0.421729
0.724636 0.733608 0.439979
0.802853 0.751553 0.464271
0.852659 0.768032 0.487404
0.877531 0.785519 0.510521
0.192386 0.618982 0.579278
0.254856 0.678248 0.544060
0.360021 0.748653 0.528740
0.504204 0.761440 0.487617
0.633875 0.781064 0.475410
0.738003 0.793027 0.485145
0.823880 0.810575 0.525628
0.869169 0.828580 0.580377
0.883268 0.838895 0.612024
0.031952 0.112978 0.199374
0.055390 0.111147 0.244633
0.170291 0.119814 0.295201
0.266728 0.132906 0.309209
0.367407 0.144259 0.312016
0.444709 0.152468 0.311711
0.508446 0.158633 0.313817
0.570733 0.158816 0.312078
0.646632 0.155215 0.304784
0.063996 0.182132 0.261906
0.104677 0.166079 0.237522
0.170657 0.165866 0.298436
0.280583 0.176761 0.328466
0.396216 0.190616 0.324895
0.489479 0.200473 0.321965
0.578515 0.205570 0.320745
0.662043 0.203403 0.311681
0.750668 0.199741 0.295842
0.097292 0.257420 0.339330
0.143984 0.242771 0.310155
0.203311 0.235630 0.308904
0.307134 0.242100 0.348577
0.444800 0.256291 0.341894
0.563333 0.271977 0.335515
0.661921 0.277989 0.329046
0.750423 0.277989 0.313420
0.822629 0.277440 0.289860
0.128878 0.347448 0.420630
0.178317 0.336156 0.394781
0.254276 0.329534 0.372107
0.344274 0.332036 0.369238
0.490883 0.352850 0.362280
0.613184 0.371130 0.360632
0.714229 0.387121 0.357031
0.799649 0.394171 0.343420
0.863737 0.389471 0.318303
0.145357 0.418372 0.474220
0.202853 0.421363 0.441657
0.283482 0.420203 0.416236
0.373754 0.429297 0.409705
0.480751 0.450507 0.394110
0.607980 0.468910 0.392096
0.724422 0.491005 0.387610
0.809415 0.505516 0.374121
0.866880 0.501549 0.349767
0.160586 0.475288 0.513695
0.218662 0.486641 0.480751
0.306706 0.503441 0.453559
0.399084 0.520592 0.444343
0.503960 0.541344 0.429786
0.604715 0.559228 0.431525
0.720088 0.579675 0.427771
0.817136 0.603601 0.422187
0.868345 0.613642 0.408850
0.170169 0.525353 0.551904
0.226902 0.550195 0.520195
0.319219 0.580194 0.488869
0.417975 0.613184 0.482765
0.538628 0.634028 0.470985
0.643931 0.658717 0.474006
0.732357 0.672267 0.492134
0.825101 0.698512 0.493080
0.873503 0.720027 0.496010
0.179080 0.568139 0.588251
0.232944 0.600855 0.560204
0.321752 0.653590 0.537560
0.436683 0.708675 0.534051
0.558343 0.726528 0.521782
0.678401 0.751553 0.524224
0.778836 0.771145 0.551965
0.840635 0.786404 0.580621
0.880766 0.808194 0.595453
0.188540 0.617609 0.632624
0.236362 0.658228 0.610803
0.333471 0.722469 0.599970
0.450843 0.784054 0.607172
0.580621 0.801724 0.589166
0.705379 0.821042 0.591974
0.805203 0.837888 0.621393
0.871244 0.857939 0.673945
0.888487 0.863462 0.702663
0.031250 0.133181 0.231449
0.044495 0.126040 0.265415
0.129610 0.127138 0.334264
0.239109 0.137484 0.357916
0.321355 0.146517 0.367132
0.399969 0.154849 0.369329
0.463478 0.162417 0.371130
0.528832 0.166171 0.370977
0.610834 0.163699 0.364935
0.059968 0.200076 0.304784
0.097047 0.178134 0.274479
0.140963 0.171664 0.330266
0.241520 0.180850 0.380621
0.337743 0.189181 0.392737
0.425452 0.199649 0.392004
0.502892 0.208194 0.391028
0.596155 0.207034 0.387030
0.701167 0.201236 0.372198
0.092561 0.272068 0.382025
0.133242 0.257206 0.353979
0.174929 0.238254 0.355322
0.256596 0.238529 0.404089
0.366522 0.247990 0.426246
0.481834 0.263066 0.427253
0.579431 0.272374 0.423468
0.688746 0.270085 0.407630
0.784207 0.262821 0.382239
0.119875 0.350530 0.449714
0.165255 0.338750 0.426215
0.225650 0.333379 0.419562
0.296605 0.328344 0.428473
0.405066 0.335515 0.454688
0.532921 0.352087 0.448615
0.644617 0.362036 0.438819
0.754818 0.364691 0.420264
0.837644 0.357427 0.389380
0.138643 0.426154 0.514153
0.194034 0.426123 0.496834
0.269413 0.423224 0.478309
0.358465 0.429999 0.473945
0.450935 0.441138 0.479591
0.579782 0.458198 0.473884
0.693477 0.469673 0.466438
0.790707 0.481239 0.457557
0.858579 0.475196 0.426032
0.153567 0.480323 0.554559
0.206973 0.491279 0.536522
0.291508 0.502739 0.515099
0.384009 0.518547 0.505943
0.475196 0.532708 0.510735
0.574304 0.551324 0.510002
0.698116 0.569238 0.505821
0.809171 0.591760 0.496284
0.864164 0.600717 0.476020
0.165805 0.528069 0.590723
0.219333 0.546654 0.572717
0.304051 0.568109 0.552361
0.398138 0.597284 0.543236
0.493172 0.630396 0.542840
0.596201 0.650263 0.545068
0.705776 0.670069 0.556085
0.825498 0.698512 0.557580
0.873625 0.720729 0.561578
0.177584 0.569360 0.620539
0.225650 0.596979 0.610437
0.301091 0.637720 0.598352
0.411109 0.691249 0.591394
0.516991 0.737179 0.603662
0.632639 0.756497 0.606165
0.754055 0.788418 0.624201
0.850095 0.812436 0.659663
0.884794 0.829038 0.672084
0.188418 0.617182 0.660212
0.232303 0.655818 0.658228
0.304387 0.705928 0.657649
0.420111 0.765408 0.665766
0.542077 0.818112 0.684627
0.671778 0.835050 0.681117
0.794766 0.857816 0.708431
0.877592 0.877440 0.754421
0.896757 0.884825 0.782895
0.032349 0.152346 0.264591
0.036866 0.141787 0.285740
0.098177 0.136538 0.362585
0.200565 0.140352 0.398596
0.292882 0.148989 0.410559
0.364569 0.155795 0.413764
0.431495 0.164401 0.414527
0.498939 0.171054 0.415412
0.577661 0.172030 0.414557
0.050446 0.215976 0.346899
0.090425 0.193698 0.309911
0.115511 0.176608 0.357336
0.199405 0.182101 0.417426
0.300725 0.190707 0.439673
0.381201 0.198001 0.441932
0.457771 0.206149 0.441352
0.541405 0.211276 0.434943
0.655695 0.206973 0.432258
0.084657 0.285618 0.416449
0.121157 0.264988 0.392737
0.162844 0.246708 0.381567
0.215641 0.238529 0.436561
0.317586 0.247684 0.483253
0.416846 0.254978 0.488228
0.507195 0.264286 0.483650
0.609003 0.268650 0.466102
0.733730 0.259312 0.450629
0.112978 0.358557 0.476204
0.155367 0.346227 0.457008
0.203342 0.333776 0.451423
0.258061 0.324163 0.473457
0.345602 0.324224 0.504814
0.457130 0.337499 0.521752
0.568200 0.345434 0.518608
0.684138 0.345220 0.500725
0.790280 0.334417 0.469795
0.132753 0.426490 0.528984
0.184329 0.423621 0.516350
0.247776 0.420722 0.504082
0.315724 0.421454 0.520012
0.399832 0.430579 0.529564
0.503380 0.439216 0.548699
0.624689 0.446754 0.537743
0.737789 0.448173 0.518181
0.821836 0.438254 0.491066
0.145113 0.481147 0.573754
0.201266 0.492561 0.567254
0.283452 0.504204 0.560479
0.369635 0.516899 0.559380
0.459815 0.531212 0.565148
0.553826 0.550896 0.577050
0.675471 0.562768 0.570397
0.781186 0.567346 0.557794
0.853788 0.573907 0.542412
0.159060 0.528191 0.610010
0.212650 0.547662 0.604395
0.294224 0.568475 0.595941
0.380987 0.596033 0.597314
0.476417 0.626490 0.596887
0.574945 0.654292 0.611231
0.691218 0.677882 0.623377
0.807645 0.697871 0.621546
0.869657 0.717189 0.619196
0.176028 0.570733 0.644465
0.222202 0.594263 0.639673
0.296086 0.632807 0.638575
0.385504 0.678614 0.645624
0.491951 0.727443 0.652308
0.603021 0.762722 0.669154
0.728847 0.791318 0.689143
0.833036 0.817929 0.723049
0.886076 0.839078 0.733211
0.187076 0.614527 0.680842
0.231144 0.653071 0.688106
0.301060 0.703517 0.696895
0.394965 0.754482 0.712062
0.515877 0.805203 0.732357
0.652125 0.851102 0.759457
0.785885 0.869718 0.774472
0.879911 0.891295 0.817197
0.903532 0.900114 0.845060
0.023041 0.168490 0.302678
0.028351 0.153445 0.310857
0.064515 0.146151 0.383825
0.165499 0.143099 0.436683
0.262333 0.150179 0.449409
0.337713 0.157504 0.454932
0.403906 0.163821 0.454871
0.471229 0.171359 0.456611
0.549981 0.177127 0.456611
0.033143 0.230411 0.387610
0.076112 0.205844 0.349096
0.096559 0.187839 0.379889
0.157351 0.183474 0.457313
0.256931 0.188022 0.485817
0.345190 0.195529 0.490669
0.419867 0.201907 0.486763
0.497414 0.208804 0.484016
0.599329 0.210727 0.479622
0.068421 0.300237 0.454658
0.107332 0.276738 0.427649
0.145876 0.253483 0.412757
0.178958 0.237308 0.461952
0.262379 0.242252 0.529503
0.368811 0.249912 0.540764
0.456672 0.255497 0.536278
0.549279 0.259861 0.522210
0.674311 0.256687 0.506737
0.102144 0.367620 0.502495
0.142428 0.350652 0.486183
0.188388 0.341527 0.478553
0.226291 0.321752 0.491890
0.287770 0.313054 0.542168
0.394659 0.324376 0.581231
0.500816 0.332738 0.578912
0.608515 0.333928 0.561975
0.736934 0.321111 0.536645
0.125582 0.431708 0.547906
0.173770 0.425055 0.538262
0.225925 0.419501 0.531121
0.278874 0.417151 0.547478
0.339071 0.413123 0.574578
0.428351 0.415167 0.599298
0.550958 0.431495 0.609674
0.670069 0.423804 0.595666
0.776059 0.408759 0.562676
0.138216 0.480018 0.585718
0.190951 0.485756 0.582330
0.261875 0.495094 0.578393
0.331121 0.506859 0.585473
0.400122 0.516503 0.612696
0.484108 0.531792 0.632410
0.607141 0.544549 0.642634
0.727779 0.538537 0.624109
0.815854 0.528252 0.601526
0.151827 0.525994 0.622919
0.207370 0.544121 0.625452
0.288457 0.565972 0.626520
0.372534 0.591913 0.634791
0.460731 0.623072 0.651331
0.557153 0.652918 0.669520
0.677119 0.687129 0.691859
0.800809 0.695155 0.684443
0.864591 0.701076 0.679042
0.169741 0.566827 0.657038
0.216953 0.591516 0.663874
0.285771 0.627161 0.670283
0.374914 0.673976 0.683406
0.466773 0.721767 0.704494
0.577539 0.760342 0.719875
0.709346 0.806332 0.745235
0.846220 0.841703 0.773281
0.890990 0.847196 0.778073
0.181827 0.611231 0.696925
0.228244 0.647547 0.705989
0.295384 0.697963 0.724880
0.389685 0.750393 0.746670
0.493584 0.800839 0.772122
0.630976 0.847227 0.797604
0.782254 0.880064 0.830686
0.880339 0.899443 0.854124
0.907713 0.908293 0.877226
0.013642 0.182315 0.335790
0.018494 0.166384 0.333806
0.037201 0.156466 0.401892
0.112062 0.148013 0.471595
0.220401 0.151675 0.488807
0.303136 0.157473 0.497383
0.374945 0.163272 0.497993
0.447395 0.170169 0.499306
0.527611 0.177829 0.499153
0.021241 0.241886 0.417487
0.051118 0.219028 0.395331
0.068055 0.194522 0.399908
0.116396 0.187167 0.468757
0.199252 0.184360 0.529870
0.292851 0.189883 0.544244
0.380468 0.196872 0.545892
0.462806 0.203769 0.540124
0.561883 0.211337 0.533684
0.048981 0.312718 0.487343
0.077424 0.283116 0.460426
0.119661 0.261204 0.437812
0.134463 0.234501 0.490059
0.183505 0.230015 0.571191
0.287572 0.235813 0.591211
0.392798 0.242863 0.597589
0.496529 0.247166 0.585718
0.611322 0.251469 0.566339
0.089631 0.374182 0.527306
0.121706 0.351934 0.506279
0.155184 0.336278 0.499245
0.175357 0.312261 0.507988
0.202014 0.292271 0.565209
0.295018 0.300847 0.634455
0.419013 0.312535 0.648157
0.542351 0.317479 0.635218
0.666621 0.310674 0.601953
0.116243 0.433722 0.566918
0.155703 0.422431 0.553979
0.192935 0.411963 0.551049
0.224063 0.402899 0.560449
0.246204 0.385687 0.598871
0.325750 0.380377 0.637964
0.452003 0.394293 0.683070
0.588922 0.403662 0.672755
0.712764 0.383581 0.632258
0.132174 0.478279 0.596796
0.177890 0.476448 0.591730
0.228305 0.484871 0.598871
0.277897 0.491066 0.610162
0.322179 0.499031 0.646387
0.368414 0.494728 0.680354
0.493294 0.500694 0.709194
0.650263 0.515129 0.706783
0.761410 0.495552 0.672938
0.146548 0.524071 0.630793
0.194858 0.534142 0.633997
0.256565 0.551781 0.642939
0.322240 0.573205 0.658900
0.388769 0.604028 0.689784
0.469459 0.629236 0.721584
0.575952 0.655055 0.752834
0.752773 0.678218 0.767971
0.836393 0.666590 0.738949
0.161868 0.562615 0.663966
0.206760 0.580896 0.670100
0.275792 0.617212 0.690517
0.356268 0.660914 0.709529
0.446021 0.710658 0.742245
0.543297 0.753109 0.767025
0.682765 0.808682 0.804257
0.837766 0.849515 0.835874
0.895689 0.859129 0.839048
0.172396 0.602564 0.701320
0.216342 0.634363 0.713008
0.278752 0.684993 0.738491
0.367041 0.739986 0.767117
0.470848 0.796689 0.805020
0.599481 0.846311 0.831724
0.753719 0.878996 0.853971
0.878782 0.905882 0.876799
0.908690 0.916503 0.889555
0.001282 0.192416 0.352422
0.004944 0.171237 0.349859
0.016449 0.165347 0.414618
0.048829 0.149905 0.502525
0.150301 0.149783 0.529686
0.244541 0.153841 0.544213
0.327276 0.159426 0.550500
0.406775 0.165652 0.551446
0.501945 0.173953 0.550835
0.002441 0.248295 0.434760
0.015290 0.225864 0.430121
0.026307 0.203281 0.435370
0.059907 0.191196 0.481270
0.121279 0.183017 0.559503
0.210422 0.182528 0.602380
0.311833 0.187594 0.612451
0.409796 0.194247 0.609277
0.524010 0.203738 0.602930
0.027619 0.321172 0.508049
0.039521 0.283543 0.484108
0.058198 0.261631 0.480720
0.070039 0.235721 0.497536
0.099306 0.225467 0.569604
0.177371 0.220890 0.639735
0.285191 0.224369 0.671351
0.416266 0.230686 0.672114
0.555566 0.240391 0.653162
0.059754 0.381445 0.553765
0.078401 0.350256 0.531975
0.093141 0.321263 0.518761
0.106355 0.296544 0.519524
0.114656 0.273930 0.562799
0.156405 0.270420 0.657954
0.274388 0.275334 0.710689
0.429908 0.285679 0.721950
0.594324 0.294896 0.697322
0.096254 0.436011 0.585595
0.119295 0.414069 0.569024
0.134798 0.393469 0.561913
0.147890 0.372564 0.564202
0.148379 0.345006 0.576959
0.175692 0.324407 0.640620
0.256199 0.328893 0.731472
0.447211 0.352056 0.752804
0.630671 0.366766 0.725368
0.118135 0.478096 0.612879
0.146517 0.466346 0.601923
0.176211 0.461250 0.602808
0.193271 0.453468 0.609277
0.203006 0.445411 0.630243
0.215396 0.426886 0.661616
0.262211 0.412390 0.745235
0.473152 0.444770 0.774319
0.683803 0.471260 0.753567
0.135164 0.514549 0.638025
0.171664 0.520836 0.639735
0.215183 0.530541 0.649592
0.247745 0.539117 0.664363
0.279637 0.552422 0.688167
0.314855 0.566735 0.723476
0.354955 0.563073 0.765835
0.532830 0.587945 0.801755
0.773526 0.633478 0.799496
0.148684 0.553307 0.668910
0.188022 0.568597 0.675654
0.239811 0.598932 0.694942
0.294957 0.623804 0.718288
0.361669 0.662684 0.746975
0.435462 0.707515 0.781552
0.551415 0.756191 0.818906
0.730739 0.807706 0.853849
0.888334 0.846952 0.876432
0.160189 0.592889 0.702419
0.195377 0.612207 0.710079
0.248569 0.654475 0.734829
0.308537 0.704402 0.762753
0.384771 0.756863 0.796414
0.496956 0.813382 0.833158
0.675013 0.868986 0.863645
0.863706 0.904204 0.891722
0.909026 0.917937 0.902220
